<?xml version="1.0" encoding="UTF-8"?>
<map version="1.10" tiledversion="1.11.2" orientation="orthogonal" renderorder="right-down" width="150" height="100" tilewidth="32" tileheight="32" infinite="0" nextlayerid="9" nextobjectid="319">
 <editorsettings>
  <export target="town.json" format="json"/>
 </editorsettings>
 <tileset firstgid="1" name="ground" tilewidth="32" tileheight="32" tilecount="112" columns="8">
  <image source="ground.png" width="256" height="448"/>
 </tileset>
 <tileset firstgid="113" name="mati" tilewidth="32" tileheight="32" tilecount="112" columns="8">
  <image source="mati.png" width="256" height="448"/>
 </tileset>
 <tileset firstgid="225" name="mati2" tilewidth="32" tileheight="32" tilecount="112" columns="8">
  <image source="mati2.png" width="256" height="448"/>
 </tileset>
 <tileset firstgid="337" name="funsui" tilewidth="32" tileheight="32" tilecount="70" columns="10">
  <image source="funsui.png" width="320" height="224"/>
  <tile id="0">
   <animation>
    <frame tileid="0" duration="200"/>
    <frame tileid="1" duration="200"/>
    <frame tileid="2" duration="200"/>
    <frame tileid="3" duration="200"/>
    <frame tileid="4" duration="200"/>
    <frame tileid="5" duration="200"/>
    <frame tileid="6" duration="200"/>
    <frame tileid="7" duration="200"/>
    <frame tileid="9" duration="200"/>
   </animation>
  </tile>
  <tile id="10">
   <animation>
    <frame tileid="10" duration="200"/>
    <frame tileid="11" duration="200"/>
    <frame tileid="12" duration="200"/>
    <frame tileid="13" duration="200"/>
    <frame tileid="14" duration="200"/>
    <frame tileid="15" duration="200"/>
    <frame tileid="16" duration="200"/>
    <frame tileid="17" duration="200"/>
    <frame tileid="18" duration="200"/>
    <frame tileid="19" duration="200"/>
   </animation>
  </tile>
  <tile id="20">
   <animation>
    <frame tileid="20" duration="200"/>
    <frame tileid="21" duration="200"/>
    <frame tileid="22" duration="200"/>
    <frame tileid="23" duration="200"/>
    <frame tileid="24" duration="200"/>
    <frame tileid="25" duration="200"/>
    <frame tileid="26" duration="200"/>
    <frame tileid="27" duration="200"/>
    <frame tileid="28" duration="200"/>
    <frame tileid="29" duration="200"/>
   </animation>
  </tile>
  <tile id="30">
   <animation>
    <frame tileid="30" duration="200"/>
    <frame tileid="31" duration="200"/>
    <frame tileid="32" duration="200"/>
    <frame tileid="33" duration="200"/>
    <frame tileid="34" duration="200"/>
    <frame tileid="35" duration="200"/>
    <frame tileid="36" duration="200"/>
    <frame tileid="37" duration="200"/>
    <frame tileid="38" duration="200"/>
    <frame tileid="39" duration="200"/>
   </animation>
  </tile>
  <tile id="40">
   <animation>
    <frame tileid="40" duration="200"/>
    <frame tileid="41" duration="200"/>
    <frame tileid="42" duration="200"/>
    <frame tileid="43" duration="200"/>
    <frame tileid="44" duration="200"/>
    <frame tileid="45" duration="200"/>
    <frame tileid="46" duration="200"/>
    <frame tileid="47" duration="200"/>
    <frame tileid="48" duration="200"/>
    <frame tileid="49" duration="200"/>
   </animation>
  </tile>
  <tile id="50">
   <animation>
    <frame tileid="50" duration="200"/>
    <frame tileid="51" duration="200"/>
    <frame tileid="52" duration="200"/>
    <frame tileid="53" duration="200"/>
    <frame tileid="54" duration="200"/>
    <frame tileid="55" duration="200"/>
    <frame tileid="56" duration="200"/>
    <frame tileid="57" duration="200"/>
    <frame tileid="58" duration="200"/>
    <frame tileid="59" duration="200"/>
   </animation>
  </tile>
  <tile id="60">
   <animation>
    <frame tileid="60" duration="200"/>
    <frame tileid="61" duration="200"/>
    <frame tileid="62" duration="200"/>
    <frame tileid="63" duration="200"/>
    <frame tileid="64" duration="200"/>
    <frame tileid="65" duration="200"/>
    <frame tileid="66" duration="200"/>
    <frame tileid="67" duration="200"/>
    <frame tileid="68" duration="200"/>
    <frame tileid="69" duration="200"/>
   </animation>
  </tile>
 </tileset>
 <layer id="2" name="ground" width="150" height="100">
  <data encoding="csv">
217,217,217,217,217,217,217,217,217,217,217,217,217,217,217,217,217,217,217,217,217,217,217,217,217,217,217,217,217,217,217,217,217,217,217,217,217,217,217,217,217,217,217,217,217,217,217,217,217,217,217,217,217,217,217,217,217,217,217,217,217,217,217,217,217,217,217,217,217,217,217,217,217,217,217,217,217,217,217,217,217,217,217,217,217,217,217,217,217,217,217,217,217,217,217,217,217,217,217,217,217,217,217,217,217,217,217,217,217,217,217,217,217,217,217,217,217,217,217,217,217,217,217,217,217,217,217,217,217,217,217,217,217,217,217,217,217,217,217,217,217,217,217,217,217,217,217,217,217,217,
217,217,217,217,217,217,217,217,217,217,217,217,217,217,217,217,217,217,217,217,217,217,217,217,217,217,217,217,217,217,217,217,217,217,217,217,217,217,217,217,217,217,217,217,217,217,217,217,217,217,217,217,217,217,217,217,217,217,217,217,217,217,217,217,217,217,217,217,217,217,217,217,217,217,217,217,217,217,217,217,217,217,217,217,217,217,217,217,217,217,217,217,217,217,217,217,217,217,217,217,217,217,217,217,217,217,217,217,217,217,217,217,217,217,217,217,217,217,217,217,217,217,217,217,217,217,217,217,217,217,217,217,217,217,217,217,217,217,217,217,217,217,217,217,217,217,217,217,217,217,
217,217,217,217,217,217,217,217,217,217,217,217,217,217,217,217,217,217,217,217,217,217,217,217,217,217,217,217,217,217,217,217,217,217,217,217,217,217,217,217,217,217,217,217,217,217,217,217,217,217,217,217,217,217,217,217,217,217,217,217,217,217,217,217,217,217,217,217,217,217,217,217,217,217,217,217,217,217,217,217,217,217,217,217,217,217,217,217,217,217,217,217,217,217,217,217,217,217,217,217,217,217,217,217,217,217,217,217,217,217,217,217,217,217,217,217,217,217,217,217,217,217,217,217,217,217,217,217,217,217,217,217,217,217,217,217,217,217,217,217,217,217,217,217,217,217,217,217,217,217,
217,217,217,217,217,217,217,217,217,217,217,217,217,217,217,217,217,217,217,217,217,217,217,217,217,217,217,217,217,217,217,217,217,217,217,217,217,217,217,217,217,217,217,217,217,217,217,217,217,217,217,217,217,217,217,217,217,217,217,217,217,217,217,217,217,217,217,217,217,217,217,217,217,217,217,217,217,217,217,217,217,217,217,217,217,217,217,217,217,217,217,217,217,217,217,217,217,217,217,217,217,217,217,217,217,217,217,217,217,217,217,217,217,217,217,217,217,217,217,217,217,217,217,217,217,217,217,217,217,217,217,217,217,217,217,217,217,217,217,217,217,217,217,217,217,217,217,217,217,217,
217,217,217,217,217,217,217,217,217,217,217,217,217,217,217,217,217,217,217,217,217,217,217,217,217,217,217,217,217,217,217,217,217,217,217,217,217,217,217,217,217,217,217,217,217,217,217,217,217,217,217,217,217,217,217,217,217,217,217,217,217,217,217,217,217,217,217,217,217,217,217,217,217,217,217,217,217,217,217,217,217,217,217,217,217,217,217,217,217,217,217,217,217,217,217,217,217,217,217,217,217,217,217,217,217,217,217,217,217,217,217,217,217,217,217,217,217,217,217,217,217,217,217,217,217,217,217,217,217,217,217,217,217,217,217,217,217,217,217,217,217,217,217,217,217,217,217,217,217,217,
217,217,217,217,217,217,217,217,217,217,217,217,217,217,217,217,217,217,217,217,217,217,217,217,217,217,217,217,217,217,217,217,217,217,217,217,217,217,217,217,217,217,217,217,217,217,217,217,217,217,217,217,217,217,217,217,217,217,217,217,217,217,217,217,217,217,217,217,217,217,217,217,217,217,217,217,217,217,217,217,217,217,217,217,217,217,217,217,217,217,217,217,217,217,217,217,217,217,217,217,217,217,217,217,217,217,217,217,217,217,217,217,217,217,217,217,217,217,217,217,217,217,217,217,217,217,217,217,217,217,217,217,217,217,217,217,217,217,217,217,217,217,217,217,217,217,217,217,217,217,
217,217,217,217,217,217,217,217,217,217,217,217,217,217,217,217,217,217,217,217,217,217,217,217,217,217,217,217,217,217,217,217,217,217,217,217,217,217,217,217,217,217,217,217,217,217,217,217,217,217,217,217,217,217,217,217,217,217,217,217,217,217,217,217,217,217,217,217,217,217,217,217,217,217,217,217,217,217,217,217,217,217,217,217,217,217,217,217,217,217,217,217,217,217,217,217,217,217,217,217,217,217,217,217,217,217,217,217,217,217,217,217,217,217,217,217,217,217,217,217,217,217,217,217,217,217,217,217,217,217,217,217,217,217,217,217,217,217,217,217,217,217,217,217,217,217,217,217,217,217,
217,217,217,217,217,217,217,217,217,217,217,217,217,217,217,217,217,217,217,217,217,217,217,217,217,217,217,217,217,217,217,217,217,217,217,217,217,217,217,217,217,217,217,217,217,217,217,217,217,217,217,217,217,217,217,217,217,217,217,217,217,217,217,217,217,217,217,217,217,217,217,217,217,217,217,217,217,217,217,217,217,217,217,217,217,217,217,217,217,217,217,217,217,217,217,217,217,217,217,217,217,217,217,217,217,217,217,217,217,217,217,217,217,217,217,217,217,217,217,217,217,217,217,217,217,217,217,217,217,217,217,217,217,217,217,217,217,217,217,217,217,217,217,217,217,217,217,217,217,217,
217,217,217,217,217,217,217,217,217,217,217,217,217,217,217,217,217,217,217,217,217,217,217,217,217,217,217,217,217,217,217,217,217,217,217,217,217,217,217,217,217,217,217,217,217,217,217,217,217,217,217,217,217,217,217,217,217,217,217,217,217,217,217,217,217,217,217,217,217,217,217,217,217,217,217,217,217,217,217,217,217,217,217,217,217,217,217,217,217,217,217,217,217,217,217,217,217,217,217,217,217,217,217,217,217,217,217,217,217,217,217,217,217,217,217,217,217,217,217,217,217,217,217,217,217,217,217,217,217,217,217,217,217,217,217,217,217,217,217,217,217,217,217,217,217,217,217,217,217,217,
217,217,217,217,217,217,217,217,217,217,217,217,217,217,217,217,217,217,217,217,217,217,217,217,217,217,217,217,217,217,217,217,217,217,217,217,217,217,217,217,217,217,217,217,217,217,217,217,217,217,217,217,217,217,217,217,217,217,217,217,217,217,217,217,217,217,217,217,217,217,217,217,217,217,217,217,217,217,217,217,217,217,217,217,217,217,217,217,217,217,217,217,217,217,217,217,217,217,217,217,217,217,217,217,217,217,217,217,217,217,217,217,217,217,217,217,217,217,217,217,217,217,217,217,217,217,217,217,217,217,217,217,217,217,217,217,217,217,217,217,217,217,217,217,217,217,217,217,217,217,
217,217,217,217,217,217,217,217,217,217,217,217,217,217,217,217,217,217,217,217,217,217,217,217,217,217,217,217,217,217,217,217,217,217,217,217,217,217,217,217,217,217,217,217,217,217,217,217,217,217,217,217,217,217,217,217,217,217,217,217,217,217,217,217,217,217,217,217,217,217,217,217,217,217,217,217,217,217,217,217,217,217,217,217,217,217,217,217,217,217,217,217,217,217,217,217,217,217,217,217,217,217,217,217,217,217,217,217,217,217,217,217,217,217,217,217,217,217,217,217,217,217,217,217,217,217,217,217,217,217,217,217,217,217,217,217,217,217,217,217,217,217,217,217,217,217,217,217,217,217,
217,217,217,217,217,217,217,217,217,217,217,217,217,217,217,217,217,217,217,217,217,217,217,217,217,217,217,217,217,217,217,217,217,217,217,217,217,217,217,217,217,217,217,217,217,217,217,217,217,217,217,217,217,217,217,217,217,217,217,217,217,217,217,217,217,217,217,217,217,217,217,217,217,217,217,217,217,217,217,217,217,217,217,217,217,217,217,217,217,217,217,217,217,217,217,217,217,217,217,217,217,217,217,217,217,217,217,217,217,217,217,217,217,217,217,217,217,217,217,217,217,217,217,217,217,217,217,217,217,217,217,217,217,217,217,217,217,217,217,217,217,217,217,217,217,217,217,217,217,217,
217,217,217,217,217,217,217,217,217,217,217,217,217,217,217,217,217,217,217,217,217,217,217,217,217,217,217,217,217,217,217,217,217,217,217,217,217,217,217,217,217,217,217,217,217,217,217,217,217,217,217,217,217,217,217,217,217,217,217,217,217,217,217,217,217,217,217,217,217,217,217,217,217,217,217,217,217,217,217,217,217,217,217,217,217,217,217,217,217,217,217,217,217,217,217,217,217,217,217,217,217,217,217,217,217,217,217,217,217,217,217,217,217,217,217,217,217,217,217,217,217,217,217,217,217,217,217,217,217,217,217,217,217,217,217,217,217,217,217,217,217,217,217,217,217,217,217,217,217,217,
217,217,217,217,217,217,217,217,217,217,217,217,217,217,217,217,217,217,217,217,217,217,217,217,217,217,217,217,217,217,217,217,217,217,217,217,217,217,217,217,217,217,217,217,217,217,217,217,217,217,217,217,217,217,217,217,217,217,217,217,217,217,217,217,217,217,217,217,217,217,217,217,217,217,217,217,217,217,217,217,217,217,217,217,217,217,217,217,217,217,217,217,217,217,217,217,217,217,217,217,217,217,217,217,217,217,217,217,217,217,217,217,217,217,217,217,217,217,217,217,217,217,217,217,217,217,217,217,217,217,217,217,217,217,217,217,217,217,217,217,217,217,217,217,217,217,217,217,217,217,
217,217,217,217,217,217,217,217,217,217,217,217,217,217,217,217,217,217,217,217,217,217,217,217,217,217,217,217,217,217,217,217,217,217,217,217,217,217,217,217,217,217,217,217,217,217,217,217,217,217,217,217,217,217,217,217,217,217,217,217,217,217,217,217,217,217,217,217,217,217,217,217,217,217,217,217,217,217,217,217,217,217,217,217,217,217,217,217,217,217,217,217,217,217,217,217,217,217,217,217,217,217,217,217,217,217,217,217,217,217,217,217,217,217,217,217,217,217,217,217,217,217,217,217,217,217,217,217,217,217,217,217,217,217,217,217,217,217,217,217,217,217,217,217,217,217,217,217,217,217,
217,217,217,217,217,217,217,217,217,217,217,217,217,217,217,217,217,217,217,217,217,217,217,217,217,217,217,217,217,217,217,217,217,217,217,217,217,217,217,217,217,217,217,217,217,217,217,217,217,217,217,217,217,217,217,217,217,217,217,217,217,217,217,217,217,217,217,217,217,217,217,217,217,217,217,217,217,217,217,217,217,217,217,217,217,217,217,217,217,217,217,217,217,217,217,217,217,217,217,217,217,217,217,217,217,217,217,217,217,217,217,217,217,217,217,217,217,217,217,217,217,217,217,217,217,217,217,217,217,217,217,217,217,217,217,217,217,217,217,217,217,217,217,217,217,217,217,217,217,217,
217,217,217,217,217,217,217,217,217,217,217,217,217,217,217,217,217,217,217,217,217,217,217,217,217,217,217,217,217,217,217,217,217,217,217,217,217,217,217,217,217,217,217,217,217,217,217,217,217,217,217,217,217,217,217,217,217,217,217,217,217,217,217,217,217,217,217,217,217,217,217,217,217,217,217,217,217,217,217,217,217,217,217,217,217,217,217,217,217,217,217,217,217,217,217,217,217,217,217,217,217,217,217,217,217,217,217,217,217,217,217,217,217,217,217,217,217,217,217,217,217,217,217,217,217,217,217,217,217,217,217,217,217,217,217,217,217,217,217,217,217,217,217,217,217,217,217,217,217,217,
217,217,217,217,217,217,217,217,217,217,217,217,217,217,217,217,217,217,217,217,217,217,217,217,217,217,217,217,217,217,217,217,217,217,217,217,217,217,217,217,217,217,217,217,217,217,217,217,217,217,217,217,217,217,217,217,217,217,217,217,217,217,217,217,217,217,217,217,217,217,217,217,217,217,217,217,217,217,217,217,217,217,217,217,217,217,217,217,217,217,217,217,217,217,217,217,217,217,217,217,217,217,217,217,217,217,217,217,217,217,217,217,217,217,217,217,217,217,217,217,217,217,217,217,217,217,217,217,217,217,217,217,217,217,217,217,217,217,217,217,217,217,217,217,217,217,217,217,217,217,
217,217,217,217,217,217,217,217,217,217,217,217,217,217,217,217,217,217,217,217,217,217,217,217,217,217,217,217,217,217,217,217,217,217,217,217,217,217,217,217,217,217,217,217,217,217,217,217,217,217,217,217,217,217,217,217,217,217,217,217,217,217,217,217,217,217,217,217,217,217,217,217,217,217,217,217,217,217,217,217,217,217,217,217,217,217,217,217,217,217,217,217,217,217,217,217,217,217,217,217,217,217,217,217,217,217,217,217,217,217,217,217,217,217,217,217,217,217,217,217,217,217,217,217,217,217,217,217,217,217,217,217,217,217,217,217,217,217,217,217,217,217,217,217,217,217,217,217,217,217,
217,217,217,217,217,217,217,217,217,217,217,217,217,217,217,217,217,217,217,217,217,217,217,217,217,217,217,217,217,217,217,217,217,217,217,217,217,217,217,217,217,217,217,217,217,217,217,217,217,217,217,217,217,217,217,217,217,217,217,217,217,217,217,217,217,217,217,217,217,217,217,217,217,217,217,217,217,217,217,217,217,217,217,217,217,217,217,217,217,217,217,217,217,217,217,217,217,217,217,217,217,217,217,217,217,217,217,217,217,217,217,217,217,217,217,217,217,217,217,217,217,217,217,217,217,217,217,217,217,217,217,217,217,217,217,217,217,217,217,217,217,217,217,217,217,217,217,217,217,217,
217,217,217,217,217,217,217,217,217,217,217,217,217,217,217,217,217,217,217,217,217,217,217,217,217,217,217,217,217,217,217,217,217,217,217,217,217,217,217,217,217,217,217,217,217,217,217,217,217,217,217,217,217,217,217,217,217,217,217,217,217,217,217,217,217,217,217,217,217,217,217,217,217,217,217,217,217,217,217,217,217,217,217,217,217,217,217,217,217,217,217,217,217,217,217,217,217,217,217,217,217,217,217,217,217,217,217,217,217,217,217,217,217,217,217,217,217,217,217,217,217,217,217,217,217,217,217,217,217,217,217,217,217,217,217,217,217,217,217,217,217,217,217,217,217,217,217,217,217,217,
217,217,217,217,217,217,217,217,217,217,217,217,217,217,217,217,217,217,217,217,217,217,217,217,217,217,217,217,217,217,217,217,217,217,217,217,217,217,217,217,217,217,217,217,217,217,217,217,217,217,217,217,217,217,217,217,217,217,217,217,217,217,217,217,217,217,217,217,217,217,217,217,217,217,217,217,217,217,217,217,217,217,217,217,217,217,217,217,217,217,217,217,217,217,217,217,217,217,217,217,217,217,217,217,217,217,217,217,217,217,217,217,217,217,217,217,217,217,217,217,217,217,217,217,217,217,217,217,217,217,217,217,217,217,217,217,217,217,217,217,217,217,217,217,217,217,217,217,217,217,
217,217,217,217,217,217,217,217,217,217,217,217,217,217,217,217,217,217,217,217,217,217,217,217,217,217,217,217,217,217,217,217,217,217,217,217,217,217,217,217,217,217,217,217,217,217,217,217,217,217,217,217,217,217,217,217,217,217,217,217,217,217,217,217,217,217,217,217,217,217,217,217,217,217,217,217,217,217,217,217,217,217,217,217,217,217,217,217,217,217,217,217,217,217,217,217,217,217,217,217,217,217,217,217,217,217,217,217,217,217,217,217,217,217,217,217,217,217,217,217,217,217,217,217,217,217,217,217,217,217,217,217,217,217,217,217,217,217,217,217,217,217,217,217,217,217,217,217,217,217,
217,217,217,217,217,217,217,217,217,217,217,217,217,217,217,217,217,217,217,217,217,217,217,217,217,217,217,217,217,217,217,217,217,217,217,217,217,217,217,217,217,217,217,217,217,217,217,217,217,217,217,217,217,217,217,217,217,217,217,217,217,217,217,217,217,217,217,217,217,217,217,217,217,217,217,217,217,217,217,217,217,217,217,217,217,217,217,217,217,217,217,217,217,217,217,217,217,217,217,217,217,217,217,217,217,217,217,217,217,217,217,217,217,217,217,217,217,217,217,217,217,217,217,217,217,217,217,217,217,217,217,217,217,217,217,217,217,217,217,217,217,217,217,217,217,217,217,217,217,217,
217,217,217,217,217,217,217,217,217,217,217,217,217,217,217,217,217,217,217,217,217,217,217,217,217,217,217,217,217,217,217,217,217,217,217,217,217,217,217,217,217,217,217,217,217,217,217,217,217,217,217,217,217,217,217,217,217,217,217,217,217,217,217,217,217,217,217,217,217,217,217,217,217,217,217,217,217,217,217,217,217,217,217,217,217,217,217,217,217,217,217,217,217,217,217,217,217,217,217,217,217,217,217,217,217,217,217,217,217,217,217,217,217,217,217,217,217,217,217,217,217,217,217,217,217,217,217,217,217,217,217,217,217,217,217,217,217,217,217,217,217,217,217,217,217,217,217,217,217,217,
217,217,217,217,217,217,217,217,217,217,217,217,217,217,217,217,217,217,217,217,217,217,217,217,217,217,217,217,217,217,217,217,217,217,217,217,217,217,217,217,217,217,217,217,217,217,217,217,217,217,217,217,217,217,217,217,217,217,217,217,217,217,217,217,217,217,217,217,217,217,217,217,217,217,217,217,217,217,217,217,217,217,217,217,217,217,217,217,217,217,217,217,217,217,217,217,217,217,217,217,217,217,217,217,217,217,217,217,217,217,217,217,217,217,217,217,217,217,217,217,217,217,217,217,217,217,217,217,217,217,217,217,217,217,217,217,217,217,217,217,217,217,217,217,217,217,217,217,217,217,
217,217,217,217,217,217,217,217,217,217,217,217,217,217,217,217,217,217,217,217,217,217,217,217,217,217,217,217,217,217,217,217,217,217,217,217,217,217,217,217,217,217,217,217,217,217,217,217,217,217,217,217,217,217,217,217,217,217,217,217,217,217,217,217,217,217,217,217,217,217,217,217,217,217,217,217,217,217,217,217,217,217,217,217,217,217,217,217,217,217,217,217,217,217,217,217,217,217,217,217,217,217,217,217,217,217,217,217,217,217,217,217,217,217,217,217,217,217,217,217,217,217,217,217,217,217,217,217,217,217,217,217,217,217,217,217,217,217,217,217,217,217,217,217,217,217,217,217,217,217,
217,217,217,217,217,217,217,217,217,217,217,217,217,217,217,217,217,217,217,217,217,217,217,217,217,217,217,217,217,217,217,217,217,217,217,217,217,217,217,217,217,217,217,217,217,217,217,217,217,217,217,217,217,217,217,217,217,217,217,217,217,217,217,217,217,217,217,217,217,217,217,217,217,217,217,217,217,217,217,217,217,217,217,217,217,217,217,217,217,217,217,217,217,217,217,217,217,217,217,217,217,217,217,217,217,217,217,217,217,217,217,217,217,217,217,217,217,217,217,217,217,217,217,217,217,217,217,217,217,217,217,217,217,217,217,217,217,217,217,217,217,217,217,217,217,217,217,217,217,217,
217,217,217,217,217,217,217,217,217,217,217,217,217,217,217,217,217,217,217,217,217,217,217,217,217,217,217,217,217,217,217,217,217,217,217,217,217,217,217,217,217,217,217,217,217,217,217,217,217,217,217,217,217,217,217,217,217,217,217,217,217,217,217,217,217,217,217,217,217,217,217,217,217,217,217,217,217,217,217,217,217,217,217,217,217,217,217,217,217,217,217,217,217,217,217,217,217,217,217,217,217,217,217,217,217,217,217,217,217,217,217,217,217,217,217,217,217,217,217,217,217,217,217,217,217,217,217,217,217,217,217,217,217,217,217,217,217,217,217,217,217,217,217,217,217,217,217,217,217,217,
217,217,217,217,217,217,217,217,217,217,217,217,217,217,217,217,217,217,217,217,217,217,217,217,217,217,217,217,217,217,217,217,217,217,217,217,217,217,217,217,217,217,217,217,217,217,217,217,217,217,217,217,217,217,217,217,217,217,217,217,217,217,217,217,217,217,217,217,217,217,217,217,217,217,217,217,217,217,217,217,217,217,217,217,217,217,217,217,217,217,217,217,217,217,217,217,217,217,217,217,217,217,217,217,217,217,217,217,217,217,217,217,217,217,217,217,217,217,217,217,217,217,217,217,217,217,217,217,217,217,217,217,217,217,217,217,217,217,217,217,217,217,217,217,217,217,217,217,217,217,
217,217,217,217,217,217,217,217,217,217,217,217,217,217,217,217,217,217,217,217,217,217,217,217,217,217,217,217,217,217,217,217,217,217,217,217,217,217,217,217,217,217,217,4,217,217,217,217,217,217,217,217,217,217,217,217,217,217,217,217,217,217,217,4,217,217,217,217,217,217,217,217,217,217,217,217,217,217,217,217,217,217,217,217,217,217,217,217,217,217,217,217,217,217,217,217,217,217,217,217,217,217,217,217,217,217,217,217,217,217,217,217,217,217,217,217,217,217,217,217,217,217,217,217,217,217,217,217,217,217,217,217,217,217,217,217,217,217,217,217,217,217,217,217,217,217,217,217,217,217,
217,217,217,217,217,217,217,217,217,217,217,217,217,217,217,217,217,217,217,217,217,217,217,217,217,217,217,217,217,217,217,217,217,217,217,217,217,217,217,217,217,217,217,217,217,217,217,217,217,217,217,217,217,217,217,217,217,217,217,217,217,217,217,217,217,217,217,217,217,217,217,217,217,217,217,217,217,217,217,217,217,217,217,217,217,217,217,217,217,217,217,217,217,217,217,217,217,217,217,217,217,217,217,217,217,217,217,217,217,217,217,217,217,217,217,217,217,217,217,217,217,217,217,217,217,217,217,217,217,217,217,217,217,217,217,217,217,217,217,217,217,217,217,217,217,217,217,217,217,217,
217,217,217,217,217,217,217,217,217,217,217,217,217,217,217,217,217,217,217,217,217,217,217,217,217,217,217,217,217,217,217,217,217,217,217,217,217,217,217,217,217,217,217,217,217,217,217,217,217,217,217,217,217,217,217,217,217,217,217,217,217,217,217,217,217,217,217,217,217,217,217,217,217,217,217,217,217,217,217,217,217,217,217,217,217,217,217,217,217,217,217,217,217,217,217,217,217,217,217,217,217,217,217,217,217,217,217,217,217,217,217,217,217,217,217,217,217,217,217,217,217,217,217,217,217,217,217,217,217,217,217,217,217,217,217,217,217,217,217,217,217,217,217,217,217,217,217,217,217,217,
217,217,217,217,217,217,217,217,217,217,217,217,217,217,217,217,217,217,217,217,217,217,217,217,217,217,217,217,217,217,217,217,217,217,217,217,217,217,217,217,217,217,217,217,217,217,217,217,217,217,217,217,217,217,217,217,217,217,217,217,217,217,217,217,217,217,217,217,217,217,217,217,217,217,217,217,217,217,217,217,217,217,217,217,217,217,217,217,217,217,217,217,217,217,217,217,217,217,217,217,217,217,217,217,217,217,217,217,217,217,217,217,217,217,217,217,217,217,217,217,217,217,217,217,217,217,217,217,217,217,217,217,217,217,217,217,217,217,217,217,217,217,217,217,217,217,217,217,217,217,
217,217,217,217,217,217,217,217,217,217,217,217,217,217,217,217,217,217,217,217,217,217,217,217,217,217,217,217,217,217,217,217,217,217,217,217,217,217,217,217,217,217,217,217,217,217,217,217,217,217,217,217,217,217,217,217,217,217,217,217,217,217,217,217,217,217,217,217,217,217,217,217,217,217,217,217,217,217,217,217,217,217,217,217,217,217,217,217,217,217,217,217,217,217,217,217,217,217,217,217,217,217,217,217,217,217,217,217,217,217,217,217,217,217,217,217,217,217,217,217,217,217,217,217,217,217,217,217,217,217,217,217,217,217,217,217,217,217,217,217,217,217,217,217,217,217,217,217,217,217,
217,217,217,217,217,217,217,217,217,217,217,217,217,217,217,217,217,217,217,217,217,217,217,217,217,217,217,217,217,217,217,217,217,217,217,217,217,217,217,217,217,217,217,217,217,217,217,217,217,217,217,217,217,217,217,217,217,217,217,217,217,217,217,217,217,217,217,217,217,217,217,217,217,217,217,217,217,217,217,217,217,217,217,217,217,217,217,217,217,217,217,217,217,217,217,217,217,217,217,217,217,217,217,217,217,217,217,217,217,217,217,217,217,217,217,217,217,217,217,217,217,217,217,217,217,217,217,217,217,217,217,217,217,217,217,217,217,217,217,217,217,217,217,217,217,217,217,217,217,217,
217,217,217,217,217,217,217,217,217,217,217,217,217,217,217,217,217,217,217,217,217,217,217,217,217,217,217,217,217,217,217,217,217,217,217,217,217,217,217,217,217,217,217,217,217,217,217,217,217,217,217,217,217,217,217,217,217,217,217,217,217,217,217,217,217,217,217,217,217,217,217,217,217,217,217,217,217,217,217,217,217,217,217,217,217,217,217,217,217,217,217,217,217,217,217,217,217,217,217,217,217,217,217,217,217,217,217,217,217,217,217,217,217,217,217,217,217,217,217,217,217,217,217,217,217,217,217,217,217,217,217,217,217,217,217,217,217,217,217,217,217,217,217,217,217,217,217,217,217,217,
217,217,217,217,217,217,217,217,217,217,217,217,217,217,217,217,217,217,217,217,217,217,217,217,217,217,217,217,217,217,217,217,217,217,217,217,217,217,217,217,217,217,217,217,217,217,217,217,217,217,218,217,217,217,217,217,218,217,217,217,217,217,217,217,217,217,217,217,217,217,217,217,217,217,217,217,217,217,217,217,217,217,217,217,217,217,217,217,217,217,217,217,217,217,217,217,217,217,217,217,217,217,217,217,217,217,217,217,217,217,217,217,217,217,217,217,217,217,217,217,217,217,217,217,217,217,217,217,217,217,217,217,217,217,217,217,217,217,217,217,217,217,217,217,217,217,217,217,217,217,
217,217,217,217,217,217,217,217,217,217,217,217,217,217,217,217,217,217,217,217,217,217,217,217,217,217,217,217,217,217,217,217,217,217,217,217,217,217,217,217,217,217,217,217,217,217,217,217,217,217,217,217,217,217,217,217,217,217,217,217,217,217,217,217,217,217,217,217,217,217,217,217,217,217,217,217,217,217,217,217,217,217,217,217,217,217,217,217,217,217,217,217,217,217,217,217,217,217,217,217,217,217,217,217,217,217,217,217,217,217,217,217,217,217,217,217,217,217,217,217,217,217,217,217,217,217,217,217,217,217,217,217,217,217,217,217,217,217,217,217,217,217,217,217,217,217,217,217,217,217,
217,217,217,217,217,217,217,217,217,217,217,217,217,217,217,217,217,217,217,217,217,217,217,217,217,217,217,217,217,217,217,217,217,217,217,217,217,217,217,217,217,217,217,217,217,217,217,217,217,217,217,217,217,217,217,217,217,217,217,217,217,217,217,217,217,217,217,217,217,217,217,217,217,217,217,217,217,217,217,217,217,217,217,217,217,217,217,217,217,217,217,217,217,217,217,217,217,217,217,217,217,217,217,217,217,217,217,217,217,217,217,217,217,217,217,217,217,217,217,217,217,217,217,217,217,217,217,217,217,217,217,217,217,217,217,217,217,217,217,217,217,217,217,217,217,217,217,217,217,217,
217,217,217,217,217,217,217,217,217,217,217,217,217,217,217,217,217,217,217,217,217,217,217,217,217,217,217,217,217,217,217,217,217,217,217,217,217,217,217,217,217,217,217,217,217,217,217,217,217,217,217,217,217,217,217,217,217,217,217,217,217,217,217,217,217,217,217,217,217,217,217,217,217,217,217,217,217,217,217,217,217,217,217,217,217,217,217,217,217,217,217,217,217,217,217,217,217,217,217,217,217,217,217,217,217,217,217,217,217,217,217,217,217,217,217,217,217,217,217,217,217,217,217,217,217,217,217,217,217,217,217,217,217,217,217,217,217,217,217,217,217,217,217,217,217,217,217,217,217,217,
217,217,217,217,217,217,217,217,217,217,217,217,217,217,217,217,217,217,217,217,217,217,217,217,217,217,217,217,217,217,217,217,217,217,217,217,217,217,217,217,217,217,217,217,217,217,217,217,217,217,217,217,217,217,217,217,217,217,217,217,217,217,217,217,217,217,217,217,217,217,217,217,217,217,217,217,217,217,217,217,217,217,217,217,217,217,217,217,217,217,217,217,217,217,217,217,217,217,217,217,217,217,217,217,217,217,217,217,217,217,217,217,217,217,217,217,217,217,217,217,217,217,217,217,217,217,217,217,217,217,217,217,217,217,217,217,217,217,217,217,217,217,217,217,217,217,217,217,217,217,
217,217,217,217,217,217,217,217,217,217,217,217,217,217,217,217,217,217,217,217,217,217,217,217,217,217,217,217,217,217,217,217,217,217,217,217,217,217,217,217,217,217,217,217,217,217,217,217,217,217,218,217,217,217,217,217,218,217,217,217,217,217,217,217,217,217,217,217,217,217,217,217,217,217,217,217,217,217,217,217,217,217,217,217,217,217,217,217,217,217,217,217,217,217,217,217,217,217,217,217,217,217,217,217,217,217,217,217,217,217,217,217,217,217,217,217,217,217,217,217,217,217,217,217,217,217,217,217,217,217,217,217,217,217,217,217,217,217,217,217,217,217,217,217,217,217,217,217,217,217,
217,217,217,217,217,217,217,217,217,217,217,217,217,217,217,217,217,217,217,217,217,217,217,217,217,217,217,217,217,217,217,217,217,217,217,217,217,217,217,217,217,217,217,217,217,217,217,217,217,217,217,217,217,217,217,217,217,217,217,217,217,217,217,217,217,217,217,217,217,217,217,217,217,217,217,217,217,217,217,217,217,217,217,217,217,217,217,217,217,217,217,217,217,217,217,217,217,217,217,217,217,217,217,217,217,217,217,217,217,217,217,217,217,217,217,217,217,217,217,217,217,217,217,217,217,217,217,217,217,217,217,217,217,217,217,217,217,217,217,217,217,217,217,217,217,217,217,217,217,217,
217,217,217,217,217,217,217,217,217,217,217,217,217,217,217,217,217,217,217,217,217,217,217,217,217,217,217,217,217,217,217,217,217,217,217,217,217,217,217,217,217,217,217,217,217,217,217,217,217,217,217,217,217,217,217,217,217,217,217,217,217,217,217,217,217,217,217,217,217,217,217,217,217,217,217,217,217,217,217,217,217,217,217,217,217,217,217,217,217,217,217,217,217,217,217,217,217,217,217,217,217,217,217,217,217,217,217,217,217,217,217,217,217,217,217,217,217,217,217,217,217,217,217,217,217,217,217,217,217,217,217,217,217,217,217,217,217,217,217,217,217,217,217,217,217,217,217,217,217,217,
217,217,217,217,217,217,217,217,217,217,217,217,217,217,217,217,217,217,217,217,217,217,217,217,217,217,217,217,217,217,217,217,217,217,217,217,217,217,217,217,217,217,217,217,217,217,217,217,217,217,217,217,217,217,217,217,217,217,217,217,217,217,217,217,217,217,217,217,217,217,217,217,217,217,217,217,217,217,217,217,217,217,217,217,217,217,217,217,217,217,217,217,217,217,217,217,217,217,217,217,217,217,217,217,217,217,217,217,217,217,217,217,217,217,217,217,217,217,217,217,217,217,217,217,217,217,217,217,217,217,217,217,217,217,217,217,217,217,217,217,217,217,217,217,217,217,217,217,217,217,
217,217,217,217,217,217,217,217,217,217,217,217,217,217,217,217,217,217,217,217,217,217,217,217,217,217,217,217,217,217,217,217,217,217,217,217,217,217,217,217,217,217,217,217,217,217,217,217,217,217,217,217,217,217,217,217,217,217,217,217,217,217,217,217,217,217,217,217,217,217,217,217,217,217,217,217,217,217,217,217,217,217,217,217,217,217,217,217,217,217,217,217,217,217,217,217,217,217,217,217,217,217,217,217,217,217,217,217,217,217,217,217,217,217,217,217,217,217,217,217,217,217,217,217,217,217,217,217,217,217,217,217,217,217,217,217,217,217,217,217,217,217,217,217,217,217,217,217,217,217,
217,217,217,217,217,217,217,217,217,217,217,217,217,217,217,217,217,217,217,217,217,217,217,217,217,217,217,217,217,217,217,217,217,217,217,217,217,217,217,217,217,217,217,217,217,217,217,217,217,217,217,217,217,217,217,217,217,217,217,217,217,217,217,217,217,217,217,217,217,217,217,217,217,217,217,217,217,217,217,217,217,217,217,217,217,217,217,217,217,217,217,217,217,217,217,217,217,217,217,217,217,217,217,217,217,217,217,217,217,217,217,217,217,217,217,217,217,217,217,217,217,217,217,217,217,217,217,217,217,217,217,217,217,217,217,217,217,217,217,217,217,217,217,217,217,217,217,217,217,217,
217,217,217,217,217,217,217,217,217,217,217,217,217,217,217,217,217,217,217,217,217,217,217,217,217,217,217,217,217,217,217,217,217,217,217,217,217,217,217,217,217,217,217,217,217,217,217,217,217,217,217,217,217,217,217,217,217,217,217,217,217,217,217,217,217,217,217,217,217,217,217,217,217,217,217,217,217,217,217,217,217,217,217,217,217,217,217,217,217,217,217,217,217,217,217,217,217,217,217,217,217,217,217,217,217,217,217,217,217,217,217,217,217,217,217,217,217,217,217,217,217,217,217,217,217,217,217,217,217,217,217,217,217,217,217,217,217,217,217,217,217,217,217,217,217,217,217,217,217,217,
217,217,217,217,217,217,217,217,217,217,217,217,217,217,217,217,217,217,217,217,217,217,217,217,217,217,217,217,217,217,217,217,217,217,217,217,217,217,217,217,217,217,217,4,217,217,217,217,217,217,217,217,217,217,217,217,217,217,217,217,217,217,217,4,217,217,217,217,217,217,217,217,217,217,217,217,217,217,217,217,217,217,217,217,217,217,217,217,217,217,217,217,217,217,217,217,217,217,217,217,217,217,217,217,217,217,217,217,217,217,217,217,217,217,217,217,217,217,217,217,217,217,217,217,217,217,217,217,217,217,217,217,217,217,217,217,217,217,217,217,217,217,217,217,217,217,217,217,217,217,
217,217,217,217,217,217,217,217,217,217,217,217,217,217,217,217,217,217,217,217,217,217,217,217,217,217,217,217,217,217,217,217,217,217,217,217,217,217,217,217,217,217,217,217,217,217,217,217,217,217,217,217,217,217,217,217,217,217,217,217,217,217,217,217,217,217,217,217,217,217,217,217,217,217,217,217,217,217,217,217,217,217,217,217,217,217,217,217,217,217,217,217,217,217,217,217,217,217,217,217,217,217,217,217,217,217,217,217,217,217,217,217,217,217,217,217,217,217,217,217,217,217,217,217,217,217,217,217,217,217,217,217,217,217,217,217,217,217,217,217,217,217,217,217,217,217,217,217,217,217,
217,217,217,217,217,217,217,217,217,217,217,217,217,217,217,217,217,217,217,217,217,217,217,217,217,217,217,217,217,217,217,217,217,217,217,217,217,217,217,217,217,217,217,217,217,217,217,217,217,217,217,217,217,217,217,217,217,217,217,217,217,217,217,217,217,217,217,217,217,217,217,217,217,217,217,217,217,217,217,217,217,217,217,217,217,217,217,217,217,217,217,217,217,217,217,217,217,217,217,217,217,217,217,217,217,217,217,217,217,217,217,217,217,217,217,217,217,217,217,217,217,217,217,217,217,217,217,217,217,217,217,217,217,217,217,217,217,217,217,217,217,217,217,217,217,217,217,217,217,217,
217,217,217,217,217,217,217,217,217,217,217,217,217,217,217,217,217,217,217,217,217,217,217,217,217,217,217,217,217,217,217,217,217,217,217,217,217,217,217,217,217,217,217,217,217,217,217,217,217,217,217,217,217,217,217,217,217,217,217,217,217,217,217,217,217,217,217,217,217,217,217,217,217,217,217,217,217,217,217,217,217,217,217,217,217,217,217,217,217,217,217,217,217,217,217,217,217,217,217,217,217,217,217,217,217,217,217,217,217,217,217,217,217,217,217,217,217,217,217,217,217,217,217,217,217,217,217,217,217,217,217,217,217,217,217,217,217,217,217,217,217,217,217,217,217,217,217,217,217,217,
217,217,217,217,217,217,217,217,217,217,217,217,217,217,217,217,217,217,217,217,217,217,217,217,217,217,217,217,217,217,217,217,217,217,217,217,217,217,217,217,217,217,217,217,217,217,217,217,217,217,217,217,217,217,217,217,217,217,217,217,217,217,217,217,217,217,217,217,217,217,217,217,217,217,217,217,217,217,217,217,217,217,217,217,217,217,217,217,217,217,217,217,217,217,217,217,217,217,217,217,217,217,217,217,217,217,217,217,217,217,217,217,217,217,217,217,217,217,217,217,217,217,217,217,217,217,217,217,217,217,217,217,217,217,217,217,217,217,217,217,217,217,217,217,217,217,217,217,217,217,
217,217,217,217,217,217,217,217,217,217,217,217,217,217,217,217,217,217,217,217,217,217,217,217,217,217,217,217,217,217,217,217,217,217,217,217,217,217,217,217,217,217,217,217,217,217,217,217,217,217,217,217,217,217,217,217,217,217,217,217,217,217,217,217,217,217,217,217,217,217,217,217,217,217,217,217,217,217,217,217,217,217,217,217,217,217,217,217,217,217,217,217,217,217,217,217,217,217,217,217,217,217,217,217,217,217,217,217,217,217,217,217,217,217,217,217,217,217,217,217,217,217,217,217,217,217,217,217,217,217,217,217,217,217,217,217,217,217,217,217,217,217,217,217,217,217,217,217,217,217,
217,217,217,217,217,217,217,217,217,217,217,217,217,217,217,217,217,217,217,217,217,217,217,217,217,217,217,217,217,217,217,217,217,217,217,217,217,217,217,217,217,217,217,217,217,217,217,217,217,217,217,217,217,217,217,217,217,217,217,217,217,217,217,217,217,217,217,217,217,217,217,217,217,217,217,217,217,217,217,217,217,217,217,217,217,217,217,217,217,217,217,217,217,217,217,217,217,217,217,217,217,217,217,217,217,217,217,217,217,217,217,217,217,217,217,217,217,217,217,217,217,217,217,217,217,217,217,217,217,217,217,217,217,217,217,217,217,217,217,217,217,217,217,217,217,217,217,217,217,217,
217,217,217,217,217,217,217,217,217,217,217,217,217,217,217,217,217,217,217,217,217,217,217,217,217,217,217,217,217,217,217,217,217,217,217,217,217,217,217,217,217,217,217,217,217,217,217,217,217,217,217,217,217,217,217,217,217,217,217,217,217,217,217,217,217,217,217,217,217,217,217,217,217,217,217,217,217,217,217,217,217,217,217,217,217,217,217,217,217,217,217,217,217,217,217,217,217,217,217,217,217,217,217,217,217,217,217,217,217,217,217,217,217,217,217,217,217,217,217,217,217,217,217,217,217,217,217,217,217,217,217,217,217,217,217,217,217,217,217,217,217,217,217,217,217,217,217,217,217,217,
217,217,217,217,217,217,217,217,217,217,217,217,217,217,217,217,217,217,217,217,217,217,217,217,217,217,217,217,217,217,217,217,217,217,217,217,217,217,217,217,217,217,217,217,217,217,217,217,217,217,217,217,217,217,217,217,217,217,217,217,217,217,217,217,217,217,217,217,217,217,217,217,217,217,217,217,217,217,217,217,217,217,217,217,217,217,217,217,217,217,217,217,217,217,217,217,217,217,217,217,217,217,217,217,217,217,217,217,217,217,217,217,217,217,217,217,217,217,217,217,217,217,217,217,217,217,217,217,217,217,217,217,217,217,217,217,217,217,217,217,217,217,217,217,217,217,217,217,217,217,
217,217,217,217,217,217,217,217,217,217,217,217,217,217,217,217,217,217,217,217,217,217,217,217,217,217,217,217,217,217,217,217,217,217,217,217,217,217,217,217,217,217,217,217,217,217,217,217,217,217,217,217,217,217,217,217,217,217,217,217,217,217,217,217,217,217,217,217,217,217,217,217,217,217,217,217,217,217,217,217,217,217,217,217,217,217,217,217,217,217,217,217,217,217,217,217,217,217,217,217,217,217,217,217,217,217,217,217,217,217,217,217,217,217,217,217,217,217,217,217,217,217,217,217,217,217,217,217,217,217,217,217,217,217,217,217,217,217,217,217,217,217,217,217,217,217,217,217,217,217,
217,217,217,217,217,217,217,217,217,217,217,217,217,217,217,217,217,217,217,217,217,217,217,217,217,217,217,217,217,217,217,217,217,217,217,217,217,217,217,217,217,217,217,217,217,217,217,217,217,217,217,217,217,217,217,217,217,217,217,217,217,217,217,217,217,217,217,217,217,217,217,217,217,217,217,217,217,217,217,217,217,217,217,217,217,217,217,217,217,217,217,217,217,217,217,217,217,217,217,217,217,217,217,217,217,217,217,217,217,217,217,217,217,217,217,217,217,217,217,217,217,217,217,217,217,217,217,217,217,217,217,217,217,217,217,217,217,217,217,217,217,217,217,217,217,217,217,217,217,217,
217,217,217,217,217,217,217,217,217,217,217,217,217,217,217,217,217,217,217,217,217,217,217,217,217,217,217,217,217,217,217,217,217,217,217,217,217,217,217,217,217,217,217,217,217,217,217,217,217,217,217,217,217,217,217,217,217,217,217,217,217,217,217,217,217,217,217,217,217,217,217,217,217,217,217,217,217,217,217,217,217,217,217,217,217,217,217,217,217,217,217,217,217,217,217,217,217,217,217,217,217,217,217,217,217,217,217,217,217,217,217,217,217,217,217,217,217,217,217,217,217,217,217,217,217,217,217,217,217,217,217,217,217,217,217,217,217,217,217,217,217,217,217,217,217,217,217,217,217,217,
217,217,217,217,217,217,217,217,217,217,217,217,217,217,217,217,217,217,217,217,217,217,217,217,217,217,217,217,217,217,217,217,217,217,217,217,217,217,217,217,217,217,217,217,217,217,217,217,217,217,217,217,217,217,217,217,217,217,217,217,217,217,217,217,217,217,217,217,217,217,217,217,217,217,217,217,217,217,217,217,217,217,217,217,217,217,217,217,217,217,217,217,217,217,217,217,217,217,217,217,217,217,217,217,217,217,217,217,217,217,217,217,217,217,217,217,217,217,217,217,217,217,217,217,217,217,217,217,217,217,217,217,217,217,217,217,217,217,217,217,217,217,217,217,217,217,217,217,217,217,
217,217,217,217,217,217,217,217,217,217,217,217,217,217,217,217,217,217,217,217,217,217,217,217,217,217,217,217,217,217,217,217,217,217,217,217,217,217,217,217,217,217,217,217,217,217,217,217,217,217,217,217,217,217,217,217,217,217,217,217,217,217,217,217,217,217,217,217,217,217,217,217,217,217,217,217,217,217,217,217,217,217,217,217,217,217,217,217,217,217,217,217,217,217,217,217,217,217,217,217,217,217,217,217,217,217,217,217,217,217,217,217,217,217,217,217,217,217,217,217,217,217,217,217,217,217,217,217,217,217,217,217,217,217,217,217,217,217,217,217,217,217,217,217,217,217,217,217,217,217,
217,217,217,217,217,217,217,217,217,218,217,217,218,217,217,217,217,217,217,217,217,217,217,217,217,217,217,217,217,217,217,217,217,217,217,217,217,217,217,217,217,217,217,217,217,217,217,217,217,217,217,217,217,217,217,217,217,217,217,217,217,217,217,217,217,217,217,217,217,217,217,217,217,217,217,217,217,217,217,217,217,217,217,217,217,217,217,217,217,217,217,217,217,217,217,217,217,217,217,217,217,217,217,217,217,217,217,217,217,217,217,217,217,217,217,217,217,217,217,217,217,217,217,217,217,217,217,217,217,217,217,217,217,217,217,217,217,217,217,217,217,217,217,217,217,217,217,217,217,217,
217,217,217,217,217,217,217,217,217,217,217,217,217,217,217,217,217,217,217,217,217,217,217,217,217,217,217,217,217,217,217,217,217,217,217,217,217,217,217,217,217,217,217,217,217,217,217,217,217,217,217,217,217,217,217,217,217,217,217,217,217,217,217,217,217,217,217,217,217,217,217,217,217,217,217,217,217,217,217,217,217,217,217,217,217,217,217,217,217,217,217,217,217,217,217,217,217,217,217,217,217,217,217,217,217,217,217,217,217,217,217,217,217,217,217,217,217,217,217,217,217,217,217,217,217,217,217,217,217,217,217,217,217,217,217,217,217,217,217,217,217,217,217,217,217,217,217,217,217,217,
217,217,217,217,217,217,217,217,217,217,217,217,217,217,217,217,217,217,217,217,217,217,217,217,217,217,217,217,217,217,217,217,217,217,217,217,217,217,217,217,217,217,217,217,217,217,217,217,217,217,217,217,217,217,217,217,217,217,217,217,217,217,217,217,217,217,217,217,217,217,217,217,217,217,217,217,217,217,217,217,217,217,217,217,217,217,217,217,217,217,217,217,217,217,217,217,217,217,217,217,217,217,217,217,217,217,217,217,217,217,217,217,217,217,217,217,217,217,217,217,217,217,217,217,217,217,217,217,217,217,217,217,217,217,217,217,217,217,217,217,217,217,217,217,217,217,217,217,217,217,
217,217,217,217,217,217,217,217,217,217,217,217,217,217,217,217,217,217,217,217,217,217,217,217,217,217,217,217,217,217,217,217,217,217,217,217,217,217,217,217,217,217,217,217,217,217,217,217,217,217,217,217,217,217,217,217,217,217,217,217,217,217,217,217,217,217,217,217,217,217,217,217,217,217,217,217,217,217,217,217,217,217,217,217,217,217,217,217,217,217,217,217,217,217,217,217,217,217,217,217,217,217,217,217,217,217,217,217,217,217,217,217,217,217,217,217,217,217,217,217,217,217,217,217,217,217,217,217,217,217,217,217,217,217,217,217,217,217,217,217,217,217,217,217,217,217,217,217,217,217,
217,217,217,217,217,217,217,217,217,217,217,217,217,217,217,217,217,217,217,217,217,217,217,217,217,217,217,217,217,217,217,217,217,217,217,217,217,217,217,217,217,217,217,217,217,217,217,217,217,217,217,217,217,217,217,217,217,217,217,217,217,217,217,217,217,217,217,217,217,217,217,217,217,217,217,217,217,217,217,217,217,217,217,217,217,217,217,217,217,217,217,217,217,217,217,217,217,217,217,217,217,217,217,217,217,217,217,217,217,217,217,217,217,217,217,217,217,217,217,217,217,217,217,217,217,217,217,217,217,217,217,217,217,217,217,217,217,217,217,217,217,217,217,217,217,217,217,217,217,217,
217,217,217,217,217,217,217,217,217,217,217,217,217,217,217,217,217,217,217,217,217,217,217,217,217,217,217,217,217,217,217,217,217,217,217,217,217,217,217,217,217,217,217,217,217,217,217,217,217,217,217,217,217,217,217,217,217,217,217,217,217,217,217,217,217,217,217,217,217,217,217,217,217,217,217,217,217,217,217,217,217,217,217,217,217,217,217,217,217,217,217,217,217,217,217,217,217,217,217,217,217,217,217,217,217,217,217,217,217,217,217,217,217,217,217,217,217,217,217,217,217,217,217,217,217,217,217,217,217,217,217,217,217,217,217,217,217,217,217,217,217,217,217,217,217,217,217,217,217,217,
217,217,217,217,217,217,217,217,217,217,217,217,217,217,217,217,217,217,217,217,217,217,217,217,217,217,217,217,217,217,217,217,217,217,217,217,217,217,217,217,217,217,217,217,217,217,217,217,217,217,217,217,217,217,217,217,217,217,217,217,217,217,217,217,217,217,217,217,217,217,217,217,217,217,217,217,217,217,217,217,217,217,217,217,217,217,217,217,217,217,217,217,217,217,217,217,217,217,217,217,217,217,217,217,217,217,217,217,217,217,217,217,217,217,217,217,217,217,217,217,217,217,217,217,217,217,217,217,217,217,217,217,217,217,217,217,217,217,217,217,217,217,217,217,217,217,217,217,217,217,
217,217,217,217,217,217,217,217,217,217,217,217,217,217,217,217,217,217,217,217,217,217,217,217,217,217,217,217,217,217,217,217,217,217,217,217,217,217,217,217,217,217,217,217,217,217,217,217,217,217,217,217,217,217,217,217,217,217,217,217,217,217,217,217,217,217,217,217,217,217,217,217,217,217,217,217,217,217,217,217,217,217,217,217,217,217,217,217,217,217,217,217,217,217,217,217,217,217,217,217,217,217,217,217,217,217,217,217,217,217,217,217,217,217,217,217,217,217,217,217,217,217,217,217,217,217,217,217,217,217,217,217,217,217,217,217,217,217,217,217,217,217,217,217,217,217,217,217,217,217,
217,217,217,217,217,217,217,217,217,217,217,217,217,217,217,217,217,217,217,217,217,217,217,217,217,217,217,217,217,217,217,217,217,217,217,217,217,217,217,217,217,217,217,217,217,217,217,217,217,217,217,217,217,217,217,217,217,217,217,217,217,217,217,217,217,217,217,217,217,217,217,217,217,217,217,217,217,217,217,217,217,217,217,217,217,217,217,217,217,217,217,217,217,217,217,217,217,217,217,217,217,217,217,217,217,217,217,217,217,217,217,217,217,217,217,217,217,217,217,217,217,217,217,217,217,217,217,217,217,217,217,217,217,217,217,217,217,217,217,217,217,217,217,217,217,217,217,217,217,217,
217,217,217,217,217,217,217,217,217,217,217,217,217,217,217,217,217,217,217,217,217,217,217,217,217,217,217,217,217,217,217,217,217,217,217,217,217,217,217,217,217,217,217,217,217,217,217,217,217,217,217,217,217,217,217,217,217,217,217,217,217,217,217,217,217,217,217,217,217,217,217,217,217,217,217,217,217,217,217,217,217,217,217,217,217,217,217,217,217,217,217,217,217,217,217,217,217,217,217,217,217,217,217,217,217,217,217,217,217,217,217,217,217,217,217,217,217,217,217,217,217,217,217,217,217,217,217,217,217,217,217,217,217,217,217,217,217,217,217,217,217,217,217,217,217,217,217,217,217,217,
217,217,217,217,217,217,217,217,217,217,217,217,217,217,217,217,217,217,217,217,217,217,217,217,217,217,217,217,217,217,217,217,217,217,217,217,217,217,217,217,217,217,217,217,217,217,217,217,217,217,217,217,217,217,217,217,217,217,217,217,217,217,217,217,217,217,217,217,217,217,217,217,217,217,217,217,217,217,217,217,217,217,217,217,217,217,217,217,217,217,217,217,217,217,217,217,217,217,217,217,217,217,217,217,217,217,217,217,217,217,217,217,217,217,217,217,217,217,217,217,217,217,217,217,217,217,217,217,217,217,217,217,217,217,217,217,217,217,217,217,217,217,217,217,217,217,217,217,217,217,
217,217,217,217,217,217,218,217,217,217,217,217,217,217,217,217,217,217,217,217,217,217,217,217,217,217,217,217,217,217,217,217,217,217,217,217,217,217,217,217,217,217,217,217,217,217,217,217,217,217,217,217,217,217,217,217,217,217,217,217,217,217,217,217,217,217,217,217,217,217,217,217,217,217,217,217,217,217,217,217,217,217,217,217,217,217,217,217,217,217,217,217,217,217,217,217,217,217,217,217,217,217,217,217,217,217,217,217,217,217,217,217,217,217,217,217,217,217,217,217,217,217,217,217,217,217,217,217,217,217,217,217,217,217,217,217,217,217,217,217,217,217,217,217,217,217,217,217,217,217,
217,217,217,217,217,217,217,217,217,217,217,217,217,217,217,217,217,217,217,217,217,217,217,217,217,217,217,217,217,217,217,217,217,217,217,217,217,217,217,217,217,217,217,217,217,217,217,217,217,217,217,217,217,217,217,217,217,217,217,217,217,217,217,217,217,217,217,217,217,217,217,217,217,217,217,217,217,217,217,217,217,217,217,217,217,217,217,217,217,217,217,217,217,217,217,217,217,217,217,217,217,217,217,217,217,217,217,217,217,217,217,217,217,217,217,217,217,217,217,217,217,217,217,217,217,217,217,217,217,217,217,217,217,217,217,217,217,217,217,217,217,217,217,217,217,217,217,217,217,217,
217,217,217,217,217,217,217,217,217,217,217,217,217,217,217,217,217,217,217,217,217,217,217,217,217,217,217,217,217,217,217,217,217,217,217,217,217,217,217,217,217,217,217,217,217,217,217,217,217,217,217,217,217,217,217,217,217,217,217,217,217,217,217,217,217,217,217,217,217,217,217,217,217,217,217,217,217,217,217,217,217,217,217,217,217,217,217,217,217,217,217,217,217,217,217,217,217,217,217,217,217,217,217,217,217,217,217,217,217,217,217,217,217,217,217,217,217,217,217,217,217,217,217,217,217,217,217,217,217,217,217,217,217,217,217,217,217,217,217,217,217,217,217,217,217,217,217,217,217,217,
217,217,217,217,217,217,217,217,217,217,217,217,217,217,217,217,217,217,217,217,217,217,217,217,217,217,217,217,217,217,217,217,217,217,217,217,217,217,217,217,217,217,217,217,217,217,217,217,217,217,217,217,217,217,217,217,217,217,217,217,217,217,217,217,217,217,217,217,217,217,217,217,217,217,217,217,217,217,217,217,217,217,217,217,217,217,217,217,217,217,217,217,217,217,217,217,217,217,217,217,217,217,217,217,217,217,217,217,217,217,217,217,217,217,217,217,217,217,217,217,217,217,217,217,217,217,217,217,217,217,217,217,217,217,217,217,217,217,217,217,217,217,217,217,217,217,217,217,217,217,
217,217,217,217,217,217,217,217,217,217,217,217,217,217,217,217,217,217,217,217,217,217,217,217,217,217,217,217,217,217,217,217,217,217,217,217,217,217,217,217,217,217,217,217,217,217,217,217,217,217,217,217,217,217,217,217,217,217,217,217,217,217,217,217,217,217,217,217,217,217,217,217,217,217,217,217,217,217,217,217,217,217,217,217,217,217,217,217,217,217,217,217,217,217,217,217,217,217,217,217,217,217,217,217,217,217,217,217,217,217,217,217,217,217,217,217,217,217,217,217,217,217,217,217,217,217,217,217,217,217,217,217,217,217,217,217,217,217,217,217,217,217,217,217,217,217,217,217,217,217,
217,217,217,217,217,217,217,217,217,217,217,217,217,217,217,217,217,217,217,217,217,217,217,217,217,217,217,217,217,217,217,217,217,217,217,217,217,217,217,217,217,217,217,217,217,217,217,217,217,217,217,217,217,217,217,217,217,217,217,217,217,217,217,217,217,217,217,217,217,217,217,217,217,217,217,217,217,217,217,217,217,217,217,217,217,217,217,217,217,217,217,217,217,217,217,217,217,217,217,217,217,217,217,217,217,217,217,217,217,217,217,217,217,217,217,217,217,217,217,217,217,217,217,217,217,217,217,217,217,217,217,217,217,217,217,217,217,217,217,217,217,217,217,217,217,217,217,217,217,217,
217,217,217,217,217,217,217,217,217,217,217,217,217,217,217,217,217,217,217,217,217,217,217,217,217,217,217,217,217,217,217,217,217,217,217,217,217,217,217,217,217,217,217,217,217,217,217,217,217,217,217,217,217,217,217,217,217,217,217,217,217,217,217,217,217,217,217,217,217,217,217,217,217,217,217,217,217,217,217,217,217,217,217,217,217,217,217,217,217,217,217,217,217,217,217,217,217,217,217,217,217,217,217,217,217,217,217,217,217,217,217,217,217,217,217,217,217,217,217,217,217,217,217,217,217,217,217,217,217,217,217,217,217,217,217,217,217,217,217,217,217,217,217,217,217,217,217,217,217,217,
217,217,217,217,217,217,217,217,217,217,217,217,217,217,217,217,217,217,217,217,217,217,217,217,217,217,217,217,217,217,217,217,217,217,217,217,217,217,217,217,217,217,217,217,217,217,217,217,217,217,217,217,217,217,217,217,217,217,217,217,217,217,217,217,217,217,217,217,217,217,217,217,217,217,217,217,217,217,217,217,217,217,217,217,217,217,217,217,217,217,217,217,217,217,217,217,217,217,217,217,217,217,217,217,217,217,217,217,217,217,217,217,217,217,217,217,217,217,217,217,217,217,217,217,217,217,217,217,217,217,217,217,217,217,217,217,217,217,217,217,217,217,217,217,217,217,217,217,217,217,
217,217,217,217,217,217,217,217,217,217,217,217,217,217,217,217,217,217,217,217,217,217,217,217,217,217,217,217,217,217,217,217,217,217,217,217,217,217,217,217,217,217,217,217,217,217,217,217,217,217,217,217,217,217,217,217,217,217,217,217,217,217,217,217,217,217,217,217,217,217,217,217,217,217,217,217,217,217,217,217,217,217,217,217,217,217,217,217,217,217,217,217,217,217,217,217,217,217,217,217,217,217,217,217,217,217,217,217,217,217,217,217,217,217,217,217,217,217,217,217,217,217,217,217,217,217,217,217,217,217,217,217,217,217,217,217,217,217,217,217,217,217,217,217,217,217,217,217,217,217,
217,217,217,217,217,217,217,217,217,217,217,217,217,217,217,217,217,217,217,217,217,217,217,217,217,217,217,217,217,217,217,217,217,217,217,217,217,217,217,217,217,217,217,217,217,217,217,217,217,217,217,217,217,217,217,217,217,217,217,217,217,217,217,217,217,217,217,217,217,217,217,217,217,217,217,217,217,217,217,217,217,217,217,217,217,217,217,217,217,217,217,217,217,217,217,217,217,217,217,217,217,217,217,217,217,217,217,217,217,217,217,217,217,217,217,217,217,217,217,217,217,217,217,217,217,217,217,217,217,217,217,217,217,217,217,217,217,217,217,217,217,217,217,217,217,217,217,217,217,217,
217,217,217,217,217,217,217,217,217,217,217,217,217,217,217,217,217,217,217,217,217,217,217,217,217,217,217,217,217,217,217,217,217,217,217,217,217,217,217,217,217,217,217,217,217,217,217,217,217,217,217,217,217,217,217,217,217,217,217,217,217,217,217,217,217,217,217,217,217,217,217,217,217,217,217,217,217,217,217,217,217,217,217,217,217,217,217,217,217,217,217,217,217,217,217,217,217,217,217,217,217,217,217,217,217,217,217,217,217,217,217,217,217,217,217,217,217,217,217,217,217,217,217,217,217,217,217,217,217,217,217,217,217,217,217,217,217,217,217,217,217,217,217,217,217,217,217,217,217,217,
217,217,217,217,217,217,217,217,217,217,217,217,217,217,217,217,217,217,217,217,217,217,217,217,217,217,217,217,217,217,217,217,217,217,217,217,217,217,217,217,217,217,217,217,217,217,217,217,217,217,217,217,217,217,217,217,217,217,217,217,217,217,217,217,217,217,217,217,217,217,217,217,217,217,217,217,217,217,217,217,217,217,217,217,217,217,217,217,217,217,217,217,217,217,217,217,217,217,217,217,217,217,217,217,217,217,217,217,217,217,217,217,217,217,217,217,217,217,217,217,217,217,217,217,217,217,217,217,217,217,217,217,217,217,217,217,217,217,217,217,217,217,217,217,217,217,217,217,217,217,
217,217,217,217,217,217,217,217,217,217,217,217,217,217,217,217,217,217,217,217,217,217,217,217,217,217,217,217,217,217,217,217,217,217,217,217,217,217,217,217,217,217,217,217,217,217,217,217,217,217,217,217,217,217,217,217,217,217,217,217,217,217,217,217,217,217,217,217,217,217,217,217,217,217,217,217,217,217,217,217,217,217,217,217,217,217,217,217,217,217,217,217,217,217,217,217,217,217,217,217,217,217,217,217,217,217,217,217,217,217,217,217,217,217,217,217,217,217,217,217,217,217,217,217,217,217,217,217,217,217,217,217,217,217,217,217,217,217,217,217,217,217,217,217,217,217,217,217,217,217,
217,217,217,217,217,217,217,217,217,217,217,217,217,217,217,217,217,217,217,217,217,217,217,217,217,217,217,217,217,217,217,217,217,217,217,217,217,217,217,217,217,217,217,217,217,217,217,217,217,217,217,217,217,217,217,217,217,217,217,217,217,217,217,217,217,217,217,217,217,217,217,217,217,217,217,217,217,217,217,217,217,217,217,217,217,217,217,217,217,217,217,217,217,217,217,217,217,217,217,217,217,217,217,217,217,217,217,217,217,217,217,217,217,217,217,217,217,217,217,217,217,217,217,217,217,217,217,217,217,217,217,217,217,217,217,217,217,217,217,217,217,217,217,217,217,217,217,217,217,217,
217,217,217,217,217,217,217,217,217,217,217,217,217,217,217,217,217,217,217,217,217,217,217,217,217,217,217,217,217,217,217,217,217,217,217,217,217,217,217,217,217,217,217,217,217,217,217,217,217,217,217,217,217,217,217,217,217,217,217,217,217,217,217,217,217,217,217,217,217,217,217,217,217,217,217,217,217,217,217,217,217,217,217,217,217,217,217,217,217,217,217,217,217,217,217,217,217,217,217,217,217,217,217,217,217,217,217,217,217,217,217,217,217,217,217,217,217,217,217,217,217,217,217,217,217,217,217,217,217,217,217,217,217,217,217,217,217,217,217,217,217,217,217,217,217,217,217,217,217,217,
217,217,217,217,217,217,217,217,217,217,217,217,217,217,217,217,217,217,217,217,217,217,217,217,217,217,217,217,217,217,217,217,217,217,217,217,217,217,217,217,217,217,217,217,217,217,217,217,217,217,217,217,217,217,217,217,217,217,217,217,217,217,217,217,217,217,217,217,217,217,217,217,217,217,217,217,217,217,217,217,217,217,217,217,217,217,217,217,217,217,217,217,217,217,217,217,217,217,217,217,217,217,217,217,217,217,217,217,217,217,217,217,217,217,217,217,217,217,217,217,217,217,217,217,217,217,217,217,217,217,217,217,217,217,217,217,217,217,217,217,217,217,217,217,217,217,217,217,217,217,
217,217,217,217,217,217,217,217,217,217,217,217,217,217,217,217,217,217,217,217,217,217,217,217,217,217,217,217,217,217,217,217,217,217,217,217,217,217,217,217,217,217,217,217,217,217,217,217,217,217,217,217,217,217,217,217,217,217,217,217,217,217,217,217,217,217,217,217,217,217,217,217,217,217,217,217,217,217,217,217,217,217,217,217,217,217,217,217,217,217,217,217,217,217,217,217,217,217,217,217,217,217,217,217,217,217,217,217,217,217,217,217,217,217,217,217,217,217,217,217,217,217,217,217,217,217,217,217,217,217,217,217,217,217,217,217,217,217,217,217,217,217,217,217,217,217,217,217,217,217,
217,217,217,217,217,217,217,217,217,217,217,217,217,217,217,217,217,217,217,217,217,217,217,217,217,217,217,217,217,217,217,217,217,217,217,217,217,217,217,217,217,217,217,217,217,217,217,217,217,217,217,217,217,217,217,217,217,217,217,217,217,217,217,217,217,217,217,217,217,217,217,217,217,217,217,217,217,217,217,217,217,217,217,217,217,217,217,217,217,217,217,217,217,217,217,217,217,217,217,217,217,217,217,217,217,217,217,217,217,217,217,217,217,217,217,217,217,217,217,217,217,217,217,217,217,217,217,217,217,217,217,217,217,217,217,217,217,217,217,217,217,217,217,217,217,217,217,217,217,217,
217,217,217,217,217,217,217,217,217,217,217,217,217,217,217,217,217,217,217,217,217,217,217,217,217,217,217,217,217,217,217,217,217,217,217,217,217,217,217,217,217,217,217,217,217,217,217,217,217,217,217,217,217,217,217,217,217,217,217,217,217,217,217,217,217,217,217,217,217,217,217,217,217,217,217,217,217,217,217,217,217,217,217,217,217,217,217,217,217,217,217,217,217,217,217,217,217,217,217,217,217,217,217,217,217,217,217,217,217,217,217,217,217,217,217,217,217,217,217,217,217,217,217,217,217,217,217,217,217,217,217,217,217,217,217,217,217,217,217,217,217,217,217,217,217,217,217,217,217,217,
217,217,217,217,217,217,217,217,217,217,217,217,217,217,217,217,217,217,217,217,217,217,217,217,217,217,217,217,217,217,217,217,217,217,217,217,217,217,217,217,217,217,217,217,217,217,217,217,217,217,217,217,217,217,217,217,217,217,217,217,217,217,217,217,217,217,217,217,217,217,217,217,217,217,217,217,217,217,217,217,217,217,217,217,217,217,217,217,217,217,217,217,217,217,217,217,217,217,217,217,217,217,217,217,217,217,217,217,217,217,217,217,217,217,217,217,217,217,217,217,217,217,217,217,217,217,217,217,217,217,217,217,217,217,217,217,217,217,217,217,217,217,217,217,217,217,217,217,217,217,
217,217,217,217,217,217,217,217,217,217,217,217,217,217,217,217,217,217,217,217,217,217,217,217,217,217,217,217,217,217,217,217,217,217,217,217,217,217,217,217,217,217,217,217,217,217,217,217,217,217,217,217,217,217,217,217,217,217,217,217,217,217,217,217,217,217,217,217,217,217,217,217,217,217,217,217,217,217,217,217,217,217,217,217,217,217,217,217,217,217,217,217,217,217,217,217,217,217,217,217,217,217,217,217,217,217,217,217,217,217,217,217,217,217,217,217,217,217,217,217,217,217,217,217,217,217,217,217,217,217,217,217,217,217,217,217,217,217,217,217,217,217,217,217,217,217,217,217,217,217,
217,217,217,217,217,217,217,217,217,217,217,217,217,217,217,217,217,217,217,217,217,217,217,217,217,217,217,217,217,217,217,217,217,217,217,217,217,217,217,217,217,217,217,217,217,217,217,217,217,217,217,217,217,217,217,217,217,217,217,217,217,217,217,217,217,217,217,217,217,217,217,217,217,217,217,217,217,217,217,217,217,217,217,217,217,217,217,217,217,217,217,217,217,217,217,217,217,217,217,217,217,217,217,217,217,217,217,217,217,217,217,217,217,217,217,217,217,217,217,217,217,217,217,217,217,217,217,217,217,217,217,217,217,217,217,217,217,217,217,217,217,217,217,217,217,217,217,217,217,217,
217,217,217,217,217,217,217,217,217,217,217,217,217,217,217,217,217,217,217,217,217,217,217,217,217,217,217,217,217,217,217,217,217,217,217,217,217,217,217,217,217,217,217,217,217,217,217,217,217,217,217,217,217,217,217,217,217,217,217,217,217,217,217,217,217,217,217,217,217,217,217,217,217,217,217,217,217,217,217,217,217,217,217,217,217,217,217,217,217,217,217,217,217,217,217,217,217,217,217,217,217,217,217,217,217,217,217,217,217,217,217,217,217,217,217,217,217,217,217,217,217,217,217,217,217,217,217,217,217,217,217,217,217,217,217,217,217,217,217,217,217,217,217,217,217,217,217,217,217,217,
217,217,217,217,217,217,217,217,217,217,217,217,217,217,217,217,217,217,217,217,217,217,217,217,217,217,217,217,217,217,217,217,217,217,217,217,217,217,217,217,217,217,217,217,217,217,217,217,217,217,217,217,217,217,217,217,217,217,217,217,217,217,217,217,217,217,217,217,217,217,217,217,217,217,217,217,217,217,217,217,217,217,217,217,217,217,217,217,217,217,217,217,217,217,217,217,217,217,217,217,217,217,217,217,217,217,217,217,217,217,217,217,217,217,217,217,217,217,217,217,217,217,217,217,217,217,217,217,217,217,217,217,217,217,217,217,217,217,217,217,217,217,217,217,217,217,217,217,217,217,
217,217,217,217,217,217,217,217,217,217,217,217,217,217,217,217,217,217,217,217,217,217,217,217,217,217,217,217,217,217,217,217,217,217,217,217,217,217,217,217,217,217,217,217,217,217,217,217,217,217,217,217,217,217,217,217,217,217,217,217,217,217,217,217,217,217,217,217,217,217,217,217,217,217,217,217,217,217,217,217,217,217,217,217,217,217,217,217,217,217,217,217,217,217,217,217,217,217,217,217,217,217,217,217,217,217,217,217,217,217,217,217,217,217,217,217,217,217,217,217,217,217,217,217,217,217,217,217,217,217,217,217,217,217,217,217,217,217,217,217,217,217,217,217,217,217,217,217,217,217,
217,217,217,217,217,217,217,217,217,217,217,217,217,217,217,217,217,217,217,217,217,217,217,217,217,217,217,217,217,217,217,217,217,217,217,217,217,217,217,217,217,217,217,217,217,217,217,217,217,217,217,217,217,217,217,217,217,217,217,217,217,217,217,217,217,217,217,217,217,217,217,217,217,217,217,217,217,217,217,217,217,217,217,217,217,217,217,217,217,217,217,217,217,217,217,217,217,217,217,217,217,217,217,217,217,217,217,217,217,217,217,217,217,217,217,217,217,217,217,217,217,217,217,217,217,217,217,217,217,217,217,217,217,217,217,217,217,217,217,217,217,217,217,217,217,217,217,217,217,217
</data>
 </layer>
 <layer id="4" name="road" width="150" height="100">
  <data encoding="csv">
218,218,0,0,0,0,218,218,0,218,218,0,218,218,123,125,125,124,0,0,121,0,0,121,114,0,0,114,0,0,123,125,125,124,218,218,0,0,0,0,0,218,218,0,218,218,218,218,123,125,124,193,0,0,194,125,125,124,218,218,218,218,0,218,218,0,0,0,0,218,218,0,218,218,0,218,218,123,125,124,193,0,0,194,123,125,124,218,218,218,218,218,218,218,218,0,0,218,218,218,218,218,218,218,218,0,0,218,218,0,0,218,218,218,218,218,218,123,125,125,124,0,0,121,0,0,121,114,0,0,114,0,0,123,125,125,124,218,218,218,218,218,218,0,0,218,218,218,218,218,
218,218,0,218,218,0,218,218,0,218,218,0,218,218,123,125,125,124,0,0,121,0,0,121,114,0,0,114,0,0,123,125,125,124,218,218,218,218,218,218,0,218,218,0,218,218,218,218,123,125,124,193,0,0,194,125,125,124,218,218,218,218,0,218,218,0,218,218,0,218,218,0,218,218,0,218,218,123,125,124,193,0,0,194,123,125,124,218,218,218,218,218,218,218,218,218,218,218,218,218,218,218,218,218,218,218,218,218,218,218,218,218,218,218,218,218,218,123,125,125,124,0,0,121,0,0,121,114,0,0,114,0,0,123,125,125,124,218,218,218,218,218,218,218,218,218,218,218,218,218,
218,218,0,218,218,0,218,218,0,218,218,0,218,218,123,125,125,124,0,0,121,0,0,121,114,0,0,114,0,0,123,125,125,124,218,218,218,218,218,218,0,218,218,0,218,218,218,218,123,125,124,193,0,0,194,125,125,124,218,218,218,218,0,218,218,0,218,218,0,218,218,0,218,218,0,218,218,123,125,124,193,0,0,194,123,125,124,218,218,218,218,218,218,218,218,218,218,218,218,218,218,218,218,218,218,218,218,218,218,218,218,218,218,218,218,218,218,123,125,125,124,0,0,121,0,0,121,114,0,0,114,0,0,123,125,125,124,218,218,218,218,218,218,218,218,218,218,218,218,218,
218,218,217,218,218,217,218,218,217,218,218,217,218,218,123,125,125,124,0,0,121,0,0,121,114,0,0,114,0,0,123,125,125,124,218,218,218,218,218,218,218,218,218,218,218,218,218,218,123,125,124,193,0,0,194,125,125,124,218,218,218,218,218,218,218,218,218,218,218,218,218,218,218,218,218,218,218,123,125,124,193,0,0,194,123,125,124,218,218,218,218,218,218,218,218,218,218,218,218,218,218,218,218,218,218,218,218,218,218,218,218,218,218,218,218,218,218,123,125,125,124,0,0,121,0,0,121,114,0,0,114,0,0,123,125,125,124,218,218,218,218,218,218,218,218,218,218,218,218,218,
116,116,116,116,116,116,116,116,116,116,116,116,116,116,117,125,125,124,0,0,121,0,0,121,122,311,311,122,311,311,123,125,125,117,116,116,116,116,116,116,116,116,116,116,116,116,116,116,117,125,124,193,0,0,194,125,125,117,116,116,116,116,116,116,116,116,116,116,116,116,116,116,116,116,116,116,116,117,125,124,193,0,0,194,123,125,125,116,116,116,116,116,116,116,116,116,116,116,116,116,116,116,116,116,116,116,116,116,116,116,116,116,116,116,116,116,116,117,125,125,124,0,0,121,0,0,121,122,311,311,122,311,311,123,125,125,117,116,116,116,116,116,116,116,116,116,116,116,116,116,
117,117,117,117,117,117,117,117,117,117,117,117,117,117,117,117,125,124,0,0,0,0,0,0,0,0,0,0,0,0,123,125,117,117,117,117,117,117,117,117,117,117,117,117,117,117,117,117,117,117,124,193,0,0,194,125,117,117,117,117,117,117,117,117,117,117,117,117,117,117,117,117,117,117,117,117,117,117,117,124,193,0,0,194,123,125,117,117,117,117,117,117,117,117,117,117,117,117,117,117,117,117,117,117,117,117,117,117,117,117,117,117,117,117,117,117,117,117,117,125,124,0,0,0,0,0,0,0,0,0,0,0,0,123,125,117,117,117,117,117,117,117,117,117,117,117,117,117,117,117,
115,115,115,115,115,115,115,115,115,115,115,115,115,115,115,115,115,140,177,177,177,177,177,177,177,177,177,177,177,177,139,115,115,115,115,115,115,115,115,115,115,115,115,115,115,115,115,115,115,115,140,193,0,0,194,139,115,115,115,115,115,115,115,115,115,115,115,115,115,115,115,115,115,115,115,115,115,115,115,140,193,0,0,194,139,115,115,115,115,115,115,115,115,115,115,115,115,115,115,115,115,115,115,115,115,115,115,115,115,115,115,115,115,115,115,115,115,115,115,115,140,177,177,177,177,177,177,177,177,177,177,177,177,139,115,115,115,115,115,115,115,115,115,115,115,115,115,115,115,115,
0,0,0,0,0,0,0,0,0,0,0,0,0,0,0,309,0,185,161,162,0,0,0,0,0,0,0,0,145,146,185,0,0,0,0,0,0,0,0,0,0,0,0,0,0,0,0,0,0,0,0,201,0,0,202,0,0,0,0,0,0,0,0,0,0,0,0,0,0,0,0,0,0,0,0,0,0,309,0,185,201,0,0,202,0,0,0,0,0,0,0,0,0,0,0,0,0,0,0,0,0,0,0,0,0,0,0,0,0,0,0,0,0,0,0,0,0,0,309,0,185,0,0,0,0,0,0,0,0,0,0,0,0,185,0,0,0,0,0,0,0,0,0,0,0,0,0,0,0,0,
0,0,0,0,0,0,0,0,0,0,0,0,0,0,0,309,0,185,169,161,162,0,0,0,0,0,0,145,153,154,185,0,0,0,0,0,0,0,0,0,0,0,0,0,0,0,0,0,0,0,0,0,0,0,0,0,0,0,0,0,0,0,0,0,0,0,0,0,0,0,0,0,0,0,0,0,0,309,0,185,0,0,0,0,0,0,0,0,0,0,0,0,0,0,0,0,0,0,0,0,0,0,0,0,0,0,0,0,0,0,0,0,0,0,0,0,0,0,309,0,185,0,0,0,0,0,0,0,0,0,0,0,0,185,0,0,0,0,0,0,0,0,0,0,0,0,0,0,0,0,
129,129,129,129,129,129,129,129,129,129,129,129,129,129,129,130,0,185,0,169,161,162,0,0,0,0,145,146,154,0,185,0,129,129,129,129,129,129,129,129,129,129,129,129,129,129,129,129,129,129,129,129,129,129,129,129,129,129,129,129,129,129,129,129,129,129,129,129,129,129,129,129,129,129,129,129,129,130,0,185,0,0,0,0,0,0,0,129,129,129,129,129,129,129,129,129,129,129,129,129,129,129,129,129,129,129,129,129,129,129,129,129,129,129,129,129,129,129,130,0,185,0,0,0,0,0,0,0,0,0,0,0,0,185,0,129,129,129,129,129,129,129,129,129,129,129,129,129,129,129,
217,217,217,217,217,217,217,217,217,217,217,217,217,217,0,309,0,185,0,0,169,161,162,0,0,145,153,154,0,0,185,0,0,0,0,0,0,0,0,0,0,0,0,0,0,0,0,0,0,0,0,0,0,0,0,0,0,0,0,0,0,0,0,0,0,0,0,0,0,0,0,0,0,0,0,0,0,309,0,185,0,0,0,0,0,0,0,0,0,0,0,0,0,0,0,0,0,0,0,0,0,0,0,0,0,0,0,0,0,0,0,0,0,0,0,0,0,0,309,0,185,0,0,0,0,0,0,0,0,0,0,0,0,185,0,0,0,0,0,0,0,0,0,0,0,0,0,0,0,0,
0,0,0,0,0,0,0,0,0,0,0,0,0,0,0,309,0,185,0,0,0,169,161,162,145,146,154,0,0,0,185,0,0,0,0,0,0,0,0,0,0,0,0,0,0,0,0,0,0,0,0,0,0,0,0,0,0,0,0,0,0,0,0,0,0,0,0,0,0,0,0,0,0,0,0,0,0,309,0,185,0,0,0,0,0,0,0,0,0,0,0,0,0,0,0,0,0,0,0,0,0,0,0,0,0,0,0,0,0,0,0,0,0,0,0,0,0,0,309,0,185,0,0,0,0,0,0,0,0,0,0,0,0,185,0,0,0,0,0,0,0,0,0,0,0,0,0,0,0,0,
129,129,129,129,129,129,129,129,129,129,129,129,129,129,129,130,0,185,0,0,0,0,169,161,153,154,0,0,0,0,185,0,129,129,129,129,129,129,129,129,129,129,129,129,129,129,129,129,129,129,129,129,129,129,129,129,129,129,129,129,129,129,129,129,129,129,129,129,129,129,129,129,129,129,129,129,129,130,0,185,0,0,0,0,0,0,0,129,129,129,129,129,129,129,129,129,129,129,129,129,129,129,129,129,129,129,129,129,129,129,129,129,129,129,129,129,129,129,130,0,185,0,0,0,0,0,0,0,0,0,0,0,0,185,0,129,129,129,129,129,129,129,129,129,129,129,129,129,129,129,
138,138,138,138,138,138,138,138,138,138,138,138,138,138,138,138,0,185,0,0,0,0,145,146,161,162,0,0,0,0,185,0,137,138,138,138,138,138,138,138,138,138,138,138,138,138,138,138,138,138,138,138,138,138,138,138,138,138,138,138,138,138,138,138,138,138,138,138,138,138,138,138,138,138,138,138,138,138,0,185,0,0,0,0,0,0,0,137,138,138,138,138,138,138,138,138,138,138,138,138,138,138,138,138,138,138,138,138,138,138,138,138,138,138,138,138,138,138,138,0,185,0,0,0,0,0,0,0,0,0,0,0,0,185,0,137,138,138,138,138,138,138,138,138,138,138,138,138,138,138,
0,0,0,0,0,0,0,0,0,0,0,0,0,0,0,0,0,185,0,0,0,145,153,154,169,170,162,0,0,0,185,0,308,0,0,0,0,0,0,0,0,0,0,0,0,0,0,0,0,0,0,0,0,0,0,0,0,0,0,0,0,0,0,0,0,0,0,0,0,0,0,0,0,0,0,0,0,0,0,185,0,0,0,0,0,0,0,308,0,0,0,0,0,0,0,0,0,0,0,0,0,0,0,0,0,0,0,0,0,0,0,0,0,0,0,0,0,0,0,0,185,0,0,0,0,0,0,0,0,0,0,0,0,185,0,308,0,0,0,0,0,0,0,0,0,0,0,0,0,0,
0,0,0,0,0,0,0,0,0,0,0,0,0,0,0,0,0,185,0,0,145,146,154,0,0,169,170,162,0,0,185,0,308,0,0,0,0,0,0,0,0,0,0,0,0,0,0,0,0,0,0,0,0,0,0,0,0,0,0,0,0,0,0,0,0,0,0,0,0,0,0,0,0,0,0,0,0,0,0,185,0,0,0,0,0,0,0,308,0,0,0,0,0,0,0,0,0,0,0,0,0,0,0,0,0,0,0,0,0,0,0,0,0,0,0,0,0,0,0,0,185,0,0,0,0,0,0,0,0,0,0,0,0,185,0,308,0,0,0,0,0,0,0,0,0,0,0,0,0,0,
138,138,138,138,138,138,138,138,138,138,138,138,138,138,138,138,0,185,0,145,153,154,0,0,0,0,169,170,162,0,185,0,137,138,138,138,138,138,138,138,138,138,138,138,138,138,138,138,138,138,138,138,138,138,138,138,138,138,138,138,138,138,138,138,138,138,138,138,138,138,138,138,138,138,138,138,138,138,0,185,0,0,0,0,0,0,0,137,138,138,138,138,138,138,138,138,138,138,138,138,138,138,138,138,138,138,138,138,138,138,138,138,138,138,138,138,138,138,0,0,185,0,0,0,0,0,0,0,0,0,0,0,0,185,0,137,138,138,138,138,138,138,138,138,138,138,138,138,138,138,
0,0,0,0,0,0,0,0,0,0,0,0,0,0,0,0,0,185,145,146,154,0,0,0,0,0,0,169,170,162,185,0,308,0,0,0,0,0,0,0,0,0,0,0,0,0,0,0,0,0,0,0,0,0,0,0,0,0,0,0,0,0,0,0,0,0,0,0,0,0,0,0,0,0,0,0,0,0,0,185,0,0,0,0,0,0,0,308,0,0,0,0,0,0,0,0,0,0,0,0,0,0,0,0,0,0,0,0,0,0,0,0,0,0,0,0,0,0,0,0,185,0,0,0,0,0,0,0,0,0,0,0,0,185,0,308,0,0,0,0,0,0,0,0,0,0,0,0,0,0,
0,0,0,0,0,0,0,0,0,0,0,0,0,0,0,0,0,185,153,154,0,0,0,0,0,0,0,0,169,170,185,0,308,0,0,0,0,0,0,0,0,0,0,0,0,0,0,0,0,0,0,0,0,0,0,0,0,0,0,0,0,0,0,0,0,0,0,0,0,0,0,0,0,0,0,0,0,0,0,185,0,0,0,0,0,0,0,308,0,0,0,0,0,0,0,0,0,0,0,0,0,0,0,0,0,0,0,0,0,0,0,0,0,0,0,0,0,0,0,0,185,0,0,0,0,0,0,0,209,210,0,0,0,185,0,308,0,0,0,0,0,0,0,0,209,210,0,0,0,0,
116,116,116,116,116,116,116,116,116,116,116,116,116,116,116,116,116,132,177,177,177,177,177,177,177,177,177,177,177,177,131,116,116,116,116,116,116,116,116,116,116,116,116,116,116,116,116,116,116,116,116,116,116,116,116,116,116,116,116,116,116,116,116,116,116,116,116,116,116,116,116,116,116,116,116,116,116,116,116,132,177,177,177,177,177,177,131,116,116,116,116,116,116,116,116,116,116,116,116,116,116,116,116,116,116,116,116,116,116,132,0,0,131,116,116,116,116,116,116,116,116,116,116,116,116,116,116,132,193,194,131,116,116,116,116,116,116,116,116,116,116,116,116,132,193,194,131,116,116,116,
117,117,117,117,117,117,117,117,117,117,117,117,117,117,117,117,125,124,0,0,0,0,0,0,0,0,0,0,0,0,123,125,117,117,117,117,117,117,117,117,117,117,117,117,117,117,117,117,117,117,117,117,117,117,117,117,117,117,117,117,117,117,117,117,117,117,117,117,117,117,117,117,117,117,117,117,117,117,125,124,0,0,0,0,0,0,123,125,117,117,117,117,117,117,117,117,117,117,117,117,117,117,117,117,117,117,117,117,117,124,0,0,123,117,117,117,117,117,117,117,117,117,117,117,117,117,117,124,193,194,123,117,117,117,117,117,117,117,117,117,117,117,117,124,193,194,123,117,117,117,
117,117,117,117,115,115,115,115,115,115,115,115,115,115,117,125,125,124,310,310,113,310,310,113,114,0,0,114,0,0,123,125,125,117,117,117,117,117,117,117,117,117,117,117,117,117,117,117,117,117,117,117,117,117,117,117,117,117,117,117,117,117,117,117,117,117,117,117,117,117,117,117,117,117,117,117,117,125,125,124,0,0,0,0,0,0,123,125,125,117,115,115,115,115,115,115,115,115,115,115,115,115,115,115,115,115,115,115,115,124,0,0,123,115,115,115,115,115,115,115,115,115,115,115,115,115,115,124,193,194,123,115,115,115,115,115,115,115,115,115,115,115,115,124,193,194,123,115,115,115,
218,218,218,218,218,218,218,218,218,218,218,218,218,218,123,125,125,124,0,0,121,0,0,121,114,0,0,114,0,0,123,125,125,125,4,4,4,4,4,4,4,4,4,12,108,20,4,4,4,4,4,4,4,4,4,4,4,4,4,4,4,4,4,4,4,4,4,4,4,4,4,4,4,4,4,4,125,125,125,124,0,0,0,0,0,0,123,125,125,124,0,0,0,0,0,0,0,0,0,0,0,0,0,0,0,218,218,218,218,124,0,0,123,218,218,218,218,218,218,218,218,218,218,218,218,218,218,124,193,194,123,218,218,218,218,218,218,218,218,218,218,218,218,124,193,194,123,218,218,218,
218,218,218,218,218,218,218,218,218,218,218,218,218,218,123,125,125,124,0,0,121,0,0,121,114,0,0,114,0,0,123,125,125,125,4,4,4,4,4,4,4,4,4,12,108,20,4,4,4,4,4,4,4,4,4,4,4,4,4,4,4,4,4,4,4,4,4,4,4,4,4,4,4,4,4,4,125,125,125,124,0,0,0,0,0,0,123,125,125,124,0,193,194,193,194,193,0,0,0,0,0,0,0,0,0,218,218,218,218,124,0,0,123,218,218,218,218,218,218,218,218,218,218,218,218,218,218,124,193,194,123,218,218,218,218,218,218,218,218,218,218,218,218,124,193,194,123,218,218,218,
218,218,218,218,218,218,218,218,218,218,218,218,218,218,123,125,125,124,0,0,121,0,0,121,114,0,0,114,0,0,123,125,125,125,4,4,4,4,4,4,4,4,4,12,108,20,4,4,4,4,4,4,4,4,4,4,4,4,4,4,4,4,4,4,4,4,4,4,4,4,4,4,4,4,4,4,125,125,125,124,0,0,0,0,0,0,123,125,125,124,0,193,194,193,194,193,0,0,0,0,0,0,0,0,0,218,218,218,218,124,0,0,123,218,218,218,218,218,218,218,218,218,218,218,218,218,218,124,193,194,123,218,218,218,218,218,218,218,218,218,218,218,218,124,193,194,123,218,218,218,
218,218,218,218,218,218,218,218,218,218,218,218,218,218,139,115,115,140,0,0,121,0,0,121,114,0,0,114,0,0,123,125,125,125,4,4,4,4,4,4,4,4,4,12,108,20,4,4,4,4,4,4,4,4,4,4,4,4,4,4,4,4,4,4,4,4,4,4,4,4,4,4,4,4,4,4,125,125,125,124,0,0,0,0,0,0,123,125,125,124,0,201,202,201,202,201,0,0,0,0,0,0,0,0,0,218,218,218,218,124,0,0,123,218,218,218,218,218,218,218,218,218,218,218,218,218,218,124,193,194,123,218,218,218,218,218,218,218,218,218,218,218,218,124,193,194,123,218,218,218,
218,218,218,218,218,218,218,218,218,218,218,218,218,218,0,0,0,0,0,0,121,0,0,121,114,0,0,114,0,0,123,125,125,125,4,4,4,4,4,4,4,4,4,12,108,20,4,4,4,4,4,4,4,4,4,4,4,4,4,4,4,4,4,4,4,4,4,4,4,4,4,4,4,4,4,4,125,125,125,124,0,0,0,0,0,0,123,125,125,124,186,186,186,209,0,0,0,208,208,208,208,208,208,0,0,117,117,117,117,124,0,0,123,117,117,117,117,117,117,117,117,117,117,117,117,117,117,124,193,194,123,117,117,117,117,117,117,117,117,117,117,117,117,124,193,194,123,117,117,117,
218,218,218,218,218,218,218,218,218,218,218,218,218,218,131,116,116,132,0,0,121,0,0,121,114,0,0,114,0,0,123,125,125,125,4,4,4,4,4,4,4,4,4,12,108,20,4,4,4,4,4,4,4,4,4,4,4,4,4,4,4,4,4,4,4,4,4,4,4,4,4,4,4,4,4,4,125,125,125,124,0,0,0,0,0,0,123,125,125,124,178,178,178,201,0,0,0,193,194,193,194,193,194,193,194,125,115,115,115,140,0,0,139,115,115,115,115,115,115,115,115,115,115,115,115,115,115,140,193,194,139,115,115,115,115,115,115,115,115,115,115,115,115,140,193,194,139,115,115,115,
218,218,218,218,218,218,218,218,218,218,218,218,218,218,125,125,125,124,0,0,121,0,0,121,114,0,0,114,0,0,123,125,125,125,4,4,4,4,4,4,4,4,4,12,108,20,4,4,4,4,4,4,4,4,4,4,4,4,4,4,4,4,4,4,4,4,4,4,4,4,4,4,4,4,4,4,125,125,125,124,0,0,0,0,0,0,123,125,125,124,186,186,186,209,0,0,0,193,194,193,194,193,194,193,194,124,193,0,194,193,0,0,193,0,194,193,0,194,0,0,0,0,193,0,194,193,0,194,0,202,178,178,178,178,178,178,178,178,178,178,178,178,178,178,201,202,178,178,178,178,
218,218,218,218,218,218,218,218,218,218,218,218,218,218,125,125,125,124,0,0,121,0,0,121,114,0,0,114,0,0,123,125,125,125,4,4,4,4,4,4,4,4,4,12,108,20,4,4,4,4,4,4,4,4,4,4,4,4,4,4,4,4,4,4,4,4,4,4,4,4,4,4,4,4,4,4,125,125,125,124,0,0,0,0,0,0,123,125,125,124,178,178,178,201,0,0,0,201,202,201,202,201,202,201,202,124,193,0,194,193,0,0,193,0,194,193,0,194,0,0,0,0,193,0,194,193,0,194,0,210,186,186,186,186,186,186,186,186,186,186,186,186,186,186,186,186,186,186,186,186,
218,218,218,218,218,218,218,218,218,218,218,218,218,218,125,125,125,124,0,0,121,0,0,121,114,0,0,114,0,0,123,125,125,125,4,4,4,4,4,4,4,4,4,131,116,116,116,116,116,116,116,116,116,116,116,116,116,116,116,116,116,116,116,132,36,36,36,36,36,36,36,36,36,36,36,36,125,125,125,124,0,0,0,0,0,0,123,125,125,124,186,186,186,209,0,0,0,0,0,0,0,0,0,0,0,124,201,0,202,201,0,0,201,0,202,201,0,202,0,0,0,0,201,0,202,201,0,202,0,194,218,218,218,218,218,218,218,218,218,218,218,218,218,218,218,218,218,218,218,218,
218,218,218,218,218,218,218,218,218,218,218,218,218,218,125,125,125,124,0,0,121,0,0,121,114,0,0,114,0,0,123,125,125,125,4,4,4,4,4,4,4,4,4,123,117,117,117,117,117,117,117,117,117,117,117,117,117,117,117,117,117,117,117,124,108,108,108,108,108,108,108,108,108,108,108,108,125,125,125,124,0,0,0,0,0,0,139,115,115,115,115,115,115,115,115,115,115,115,115,115,115,115,115,115,115,140,0,0,210,209,0,210,209,0,210,209,0,210,0,0,0,0,209,0,210,209,0,210,0,194,218,218,218,218,218,218,218,218,218,218,218,218,218,218,218,218,218,218,218,218,
218,218,218,218,218,218,218,218,218,218,218,218,218,218,125,125,125,124,0,0,121,0,0,121,114,0,0,114,0,0,123,125,125,125,4,4,4,4,4,4,4,4,4,123,125,117,115,115,115,115,115,115,115,115,115,115,115,115,115,115,115,117,125,124,28,28,28,28,28,28,28,28,28,28,28,28,125,125,125,124,0,0,0,0,0,0,0,0,0,0,0,0,0,0,0,0,0,0,0,0,0,0,0,0,0,0,0,0,194,193,0,194,193,0,194,193,0,194,0,0,0,0,193,0,194,193,0,194,0,194,218,218,218,218,218,218,218,218,218,218,218,218,218,218,218,218,218,218,218,218,
218,218,218,218,218,218,218,218,218,218,218,218,218,218,125,125,125,124,0,0,121,0,0,121,114,0,0,114,0,0,123,125,125,125,4,4,4,4,4,4,4,4,4,123,125,124,218,218,218,218,218,218,218,218,218,218,218,218,218,218,218,123,125,124,4,4,4,4,4,4,4,4,4,4,4,4,125,125,125,124,0,0,0,0,0,0,0,0,0,0,0,0,0,0,0,0,0,0,0,0,0,0,0,0,0,0,0,0,194,193,0,194,193,0,194,193,0,194,0,0,0,0,193,0,194,193,0,194,0,0,218,218,218,4,4,4,4,4,4,4,4,4,4,4,4,4,218,218,218,218,
218,218,218,218,218,218,218,218,218,218,218,218,218,218,125,125,125,124,0,0,121,0,0,121,114,0,0,114,0,0,123,125,125,125,4,4,4,4,4,4,4,4,4,123,125,124,218,218,218,218,218,218,218,218,218,218,218,218,218,218,218,123,125,124,4,4,4,4,4,4,4,4,4,4,4,4,125,125,125,124,177,177,177,177,177,177,131,116,116,132,4,4,4,4,4,4,4,4,4,4,4,4,218,218,218,218,218,218,218,218,218,218,218,218,218,218,218,218,218,218,218,218,218,218,218,218,218,218,218,218,218,218,218,36,36,4,4,4,4,4,4,4,4,12,20,4,218,218,218,218,
218,218,218,218,218,218,218,218,218,218,218,218,218,218,125,125,125,124,0,0,121,0,0,121,114,0,0,114,0,0,123,125,125,125,4,4,4,4,4,4,4,4,4,123,125,124,218,218,218,218,218,218,218,218,218,218,218,218,218,218,218,123,125,124,4,4,4,4,4,4,4,4,4,4,4,4,125,125,125,124,0,0,0,0,0,0,123,125,125,124,36,36,60,4,4,4,4,4,4,4,4,4,218,218,218,218,218,218,218,218,218,218,218,218,218,218,218,218,218,218,218,218,218,218,218,218,218,218,218,218,218,218,218,28,28,4,4,4,4,4,4,4,4,12,84,36,218,218,218,218,
218,218,218,218,218,218,218,218,218,218,218,218,218,218,125,125,125,124,0,0,121,0,0,121,114,0,0,114,0,0,123,125,125,125,4,4,4,4,4,4,4,4,4,123,125,124,218,218,218,218,218,218,218,218,218,218,218,218,218,218,218,123,125,124,4,4,4,4,4,4,4,4,4,4,4,4,125,125,125,124,0,0,0,0,0,0,123,125,125,124,28,28,68,44,60,4,4,4,4,36,36,36,218,218,218,218,218,218,218,218,218,218,218,218,218,218,218,218,218,218,218,218,218,218,218,218,218,218,218,218,218,218,218,4,4,4,4,4,4,4,4,4,4,52,28,28,218,218,218,218,
218,218,218,218,218,218,218,218,218,218,218,218,218,218,125,125,125,124,0,0,121,0,0,121,114,0,0,114,0,0,123,125,125,125,4,4,4,4,4,4,4,4,4,123,125,124,218,218,218,218,131,116,116,116,116,116,132,218,218,218,218,123,125,124,4,4,4,4,4,4,4,4,4,4,4,4,125,125,125,124,0,0,0,0,0,0,123,125,125,124,4,4,4,52,68,4,4,4,4,28,28,28,218,218,218,218,4,4,4,4,4,4,4,4,4,4,4,4,4,218,218,218,218,4,4,4,4,4,4,4,218,218,218,4,4,4,4,4,4,4,4,4,4,4,4,4,218,218,218,218,
218,218,218,218,218,218,218,218,218,218,218,218,218,218,125,125,125,124,0,0,121,0,0,121,114,0,0,114,0,0,123,125,125,125,4,4,4,4,4,4,4,4,4,123,125,124,218,218,218,218,123,125,117,117,117,125,124,218,218,218,218,123,125,124,4,4,4,4,4,4,4,4,4,4,4,4,125,125,125,124,0,0,0,0,0,0,123,125,125,124,4,4,4,4,4,4,4,4,4,4,4,4,218,218,218,218,36,36,36,36,4,4,4,4,12,108,36,36,36,218,218,218,218,4,44,36,4,4,4,4,218,218,218,4,4,4,4,4,4,4,4,4,4,4,4,4,218,218,218,218,
218,218,218,218,218,218,218,218,218,218,218,218,218,218,125,125,125,124,0,0,121,0,0,121,114,0,0,114,0,0,123,125,125,125,4,4,4,4,4,4,4,4,4,123,125,124,218,218,218,218,123,125,125,4,125,125,124,218,218,218,218,123,125,124,4,4,4,4,4,4,4,4,4,4,4,4,125,125,125,124,0,0,0,0,0,0,123,125,125,124,4,4,4,4,4,4,4,4,4,4,4,4,218,218,218,218,28,28,28,28,28,4,4,4,52,28,28,28,28,218,218,218,218,36,100,76,4,4,4,4,218,218,218,4,44,36,36,60,4,4,4,4,4,4,4,4,218,218,218,218,
218,218,218,218,218,218,218,218,218,218,218,218,218,218,125,125,125,124,0,0,121,0,0,121,114,0,0,114,0,0,123,125,125,125,4,4,4,4,4,4,4,4,4,123,125,124,218,218,218,218,123,125,125,4,125,125,124,218,218,218,218,123,125,124,4,4,4,4,4,4,4,4,4,4,4,4,125,125,125,124,0,0,0,0,0,0,123,125,125,124,36,36,36,60,4,4,4,4,4,4,4,4,218,218,218,218,4,4,44,60,4,4,4,4,4,4,4,4,4,218,218,218,218,28,28,68,4,4,4,4,218,218,218,4,12,108,108,20,4,4,4,4,4,36,36,36,218,218,218,218,
218,218,218,218,218,218,218,218,218,218,218,218,218,218,125,125,125,124,0,0,121,0,0,121,114,0,0,114,0,0,123,125,125,125,4,4,4,4,4,4,4,4,4,123,125,124,218,218,218,218,123,125,117,117,117,125,124,218,218,218,218,123,125,124,4,4,4,4,4,4,4,4,4,4,4,4,125,125,125,124,0,0,0,0,0,0,123,125,125,124,28,28,4,68,4,4,4,4,36,36,36,36,218,218,218,218,4,4,52,68,4,4,4,4,4,4,4,4,4,218,218,218,218,4,4,4,4,4,4,4,218,218,218,4,12,76,4,68,4,4,4,4,4,28,28,28,218,218,218,218,
218,218,218,218,218,218,218,218,218,218,218,218,218,218,125,125,125,124,0,0,121,0,0,121,114,0,0,114,0,0,123,125,125,125,4,4,4,4,4,4,4,4,4,123,125,124,218,218,218,218,139,115,115,115,115,115,140,218,218,218,218,123,125,124,4,4,4,4,4,4,4,4,4,4,4,4,125,125,125,124,0,0,0,0,0,0,123,125,125,124,4,4,4,4,4,4,4,4,28,28,28,28,218,218,218,218,4,4,4,4,4,4,4,4,4,4,4,4,4,218,218,218,218,4,4,4,4,4,4,4,218,218,218,36,100,20,4,4,4,4,4,44,60,4,4,4,218,218,218,218,
218,218,218,218,218,218,218,218,218,218,218,218,218,218,125,125,125,124,0,0,121,0,0,121,114,0,0,114,0,0,123,125,125,125,4,4,4,4,4,4,4,4,4,123,125,124,218,218,218,218,218,218,218,218,218,218,218,218,218,218,218,123,125,124,4,4,4,4,4,4,4,4,4,4,4,4,125,125,125,124,0,0,0,0,0,0,123,125,125,124,4,4,4,4,4,4,4,4,4,4,4,4,218,218,218,218,36,36,36,4,4,4,4,4,4,4,4,4,4,218,218,218,218,4,4,4,4,4,4,4,218,218,218,28,28,68,4,4,4,4,4,52,68,4,4,4,218,218,218,218,
218,218,218,218,218,218,218,218,218,218,218,218,218,218,125,125,125,124,0,0,121,0,0,121,114,0,0,114,0,0,123,125,125,125,4,4,4,4,4,4,4,4,4,123,125,124,218,218,218,218,218,218,218,218,218,218,218,218,218,218,218,123,125,124,4,4,4,4,4,4,4,4,4,4,4,4,125,125,125,124,0,0,0,0,0,0,123,125,125,124,4,4,4,4,4,4,4,4,4,4,4,4,218,218,218,218,28,28,28,4,4,4,4,4,4,4,36,60,4,218,218,218,218,36,36,36,4,4,4,4,218,218,218,4,4,4,4,4,4,4,4,4,4,4,4,4,218,218,218,218,
218,218,218,218,218,218,218,218,218,218,218,218,218,218,125,125,125,124,0,0,121,0,0,121,114,0,0,114,0,0,123,125,125,125,4,4,4,4,4,4,4,4,4,123,125,124,218,218,218,218,218,218,218,218,218,218,218,218,218,218,218,123,125,124,4,4,4,4,4,4,4,4,4,4,4,4,125,125,125,124,0,0,0,0,0,0,123,125,125,124,4,4,4,4,4,4,4,4,4,4,4,4,218,218,218,218,4,4,4,4,4,4,4,4,4,4,12,84,36,218,218,218,218,28,28,28,4,4,4,4,218,218,218,4,44,36,36,60,4,4,4,4,4,4,4,4,218,218,218,218,
218,218,218,218,218,218,218,218,218,218,218,218,218,218,125,125,125,124,0,0,121,0,0,121,114,0,0,114,0,0,123,125,125,125,4,4,4,4,4,4,4,4,4,123,125,124,218,218,218,218,218,218,218,218,218,218,218,218,218,218,218,123,125,124,4,4,4,4,4,4,4,4,4,4,4,4,125,125,125,124,0,0,0,0,0,0,123,125,125,124,36,36,36,4,4,4,4,4,4,36,36,36,218,218,218,218,4,4,4,4,4,4,4,4,4,4,52,28,28,218,218,218,218,4,4,4,4,4,4,4,218,218,218,4,12,76,4,20,4,4,4,4,4,36,36,36,218,218,218,218,
218,218,218,218,218,218,218,218,218,218,218,218,218,218,125,125,125,124,0,0,121,0,0,121,114,0,0,114,0,0,123,125,125,125,36,36,36,36,36,36,36,36,36,123,125,117,116,116,116,116,116,116,116,116,116,116,116,116,116,116,116,117,125,124,4,4,4,4,4,4,4,4,4,4,4,4,125,125,125,124,0,0,0,0,0,0,123,125,125,124,28,28,28,4,4,4,4,4,28,28,28,28,218,218,218,218,4,4,4,4,4,4,4,4,4,4,4,4,4,218,218,218,218,4,4,4,4,4,4,4,218,218,218,36,100,20,4,4,4,4,4,4,4,28,28,28,218,218,218,218,
218,218,218,218,218,218,218,218,218,218,218,218,218,218,125,125,125,124,0,0,121,0,0,121,114,0,0,114,0,0,123,125,125,125,108,108,108,108,108,108,108,108,108,123,117,117,117,117,117,117,117,117,117,117,117,117,117,117,117,117,117,117,117,124,4,4,4,4,4,4,4,4,4,4,4,4,125,125,125,124,0,0,0,0,0,0,123,125,125,124,4,4,4,4,4,4,4,4,4,4,4,4,218,218,218,218,4,4,4,4,4,4,4,4,4,4,4,4,4,218,218,218,218,4,4,4,4,4,4,4,218,218,218,28,28,68,4,4,4,4,4,44,36,36,60,4,218,218,218,218,
218,218,218,218,218,218,218,218,218,218,218,218,218,218,139,115,115,140,0,0,121,0,0,121,114,0,0,114,0,0,123,125,125,125,28,28,28,28,28,28,28,28,28,139,115,115,115,115,115,115,115,115,115,115,115,115,115,115,115,115,115,115,115,140,4,4,4,4,4,4,4,4,4,4,4,4,125,125,125,124,0,0,0,0,0,0,123,125,125,124,4,4,4,4,4,4,4,4,4,4,4,4,218,218,218,218,36,36,36,4,4,4,4,4,4,4,4,4,4,218,218,218,218,4,4,4,4,4,4,4,218,218,218,4,4,4,4,4,4,4,4,52,28,28,68,4,218,218,218,218,
218,218,218,218,218,218,218,218,218,218,218,218,218,218,0,0,0,0,0,0,121,0,0,121,114,0,0,114,0,0,123,125,125,125,4,4,4,4,4,4,4,4,4,4,4,4,4,4,4,4,4,4,4,4,4,4,4,4,4,4,4,12,108,20,4,4,4,4,4,4,4,4,4,4,4,4,125,125,125,124,0,0,0,0,0,0,123,125,125,124,4,4,4,4,4,4,4,4,4,4,4,4,218,218,218,218,28,28,28,4,4,4,4,4,4,4,36,60,4,218,218,218,218,36,36,36,4,4,4,4,218,218,218,4,4,4,4,4,4,4,4,4,4,4,4,4,218,218,218,218,
218,218,218,218,218,218,218,218,218,218,218,218,218,218,131,116,116,132,0,0,121,0,0,121,114,0,0,114,0,0,123,125,125,125,4,4,4,4,4,4,4,4,4,4,4,4,4,4,4,4,4,4,4,4,4,4,4,4,4,4,4,12,108,20,4,4,4,4,4,4,4,4,4,4,4,4,125,125,125,124,0,0,0,0,0,0,123,125,125,124,36,36,36,4,4,4,4,4,4,36,36,36,218,218,218,218,4,44,36,36,60,4,4,4,4,4,12,84,36,218,218,218,218,28,28,28,28,4,4,4,218,218,218,4,44,36,36,60,4,4,4,4,4,4,4,4,218,218,218,218,
218,218,218,218,218,218,218,218,218,218,218,218,218,218,125,125,125,124,0,0,121,0,0,121,114,0,0,114,0,0,123,125,125,125,4,4,4,4,4,4,4,4,4,4,4,4,4,4,4,4,4,4,4,4,4,4,4,4,4,4,4,12,108,20,4,4,4,4,4,4,4,4,4,4,4,4,125,125,125,124,0,0,0,0,0,0,123,125,125,124,28,28,28,4,4,4,4,4,4,28,28,28,218,218,218,218,4,52,28,28,68,4,4,4,4,4,52,28,28,218,218,218,218,4,4,4,4,4,4,4,218,218,218,4,12,20,4,20,4,4,4,4,36,60,4,4,218,218,218,218,
218,218,218,218,218,218,218,218,218,218,218,218,218,218,125,125,125,124,0,0,121,0,0,121,114,0,0,114,0,0,123,125,125,125,4,4,4,4,4,4,4,4,4,4,4,4,4,4,4,4,4,4,4,4,4,4,4,4,4,4,4,12,108,20,4,4,4,4,4,4,4,4,4,4,4,4,125,125,125,124,0,0,0,0,0,0,123,125,125,124,4,4,4,4,4,4,4,4,4,4,4,4,218,218,218,218,4,4,4,4,4,4,4,4,4,4,4,4,4,218,218,218,218,4,4,4,4,4,4,4,218,218,218,36,100,20,4,4,4,4,4,4,12,84,36,36,218,218,218,218,
218,218,218,218,218,218,218,218,218,218,218,218,218,218,125,125,125,124,0,0,121,0,0,121,114,0,0,114,0,0,123,125,125,125,4,4,4,4,4,4,4,4,4,4,4,4,4,4,4,4,4,4,4,4,4,4,4,4,4,4,4,12,108,20,4,4,4,4,4,4,4,4,4,4,4,4,125,125,125,124,0,0,0,0,0,0,123,125,125,124,218,218,218,218,218,218,218,218,218,218,218,218,218,218,218,218,218,218,218,218,218,218,218,218,218,218,218,218,218,218,218,218,218,218,218,218,218,218,218,218,218,218,218,28,28,68,4,4,4,4,4,4,52,28,28,28,218,218,218,218,
218,218,218,218,218,218,218,218,218,218,218,218,218,218,125,125,125,124,0,0,121,0,0,121,114,0,0,114,0,0,123,125,125,125,4,4,4,4,4,4,4,4,4,4,4,4,4,4,4,4,4,4,4,4,4,4,4,4,4,4,4,12,108,20,4,4,4,4,4,4,4,4,4,4,4,4,125,125,125,124,0,0,0,0,0,0,123,125,125,124,218,218,218,218,218,218,218,218,218,218,218,218,218,218,218,218,218,218,218,218,218,218,218,218,218,218,218,218,218,218,218,218,218,218,218,218,218,218,218,218,218,218,218,4,4,4,4,4,4,4,4,4,4,4,4,4,218,218,218,218,
218,218,218,218,218,218,218,218,218,218,218,218,218,218,125,125,125,124,0,0,121,0,0,121,114,0,0,114,0,0,123,125,125,125,4,4,4,4,4,4,4,4,4,4,4,4,4,4,4,4,4,4,4,4,4,4,4,4,4,4,4,12,108,20,4,4,4,4,4,4,4,4,4,4,4,4,125,125,125,124,0,0,0,0,0,0,123,125,125,124,218,218,218,218,218,218,218,218,218,218,218,218,218,218,218,218,218,218,218,218,218,218,218,218,218,218,218,218,218,218,218,218,218,218,218,218,218,218,218,218,218,218,218,4,4,4,4,4,4,4,4,4,4,4,4,4,218,218,218,218,
218,218,218,218,218,218,218,218,218,218,218,218,218,218,125,125,125,124,0,0,121,0,0,121,114,0,0,114,0,0,123,125,125,125,4,4,4,4,4,4,4,4,4,4,4,4,4,4,4,4,4,4,4,4,4,4,4,4,4,4,4,12,108,20,4,4,4,4,4,4,4,4,4,4,4,4,125,125,125,124,0,0,0,0,0,0,123,125,125,124,218,218,218,218,218,218,218,218,218,218,218,218,218,218,218,218,218,218,218,218,218,218,218,218,218,218,218,218,218,218,218,218,218,218,218,218,218,218,218,218,218,218,218,4,4,4,4,4,4,4,4,4,4,4,4,4,218,218,218,218,
218,218,218,218,218,218,218,218,218,218,218,218,218,218,125,125,125,124,0,0,121,0,0,121,114,0,0,114,0,0,123,125,125,125,4,4,4,4,4,4,4,4,4,4,4,4,4,4,4,4,4,4,4,4,4,4,4,4,4,4,4,12,108,20,4,4,4,4,4,4,4,4,4,4,4,4,125,125,125,124,0,0,0,0,0,0,123,125,125,124,218,218,218,218,218,218,218,218,218,218,218,218,218,218,218,218,218,218,218,218,218,218,218,218,218,218,218,218,218,218,218,218,218,218,218,218,218,218,218,218,218,218,218,4,4,4,4,4,4,4,4,12,108,20,4,4,218,218,218,218,
218,218,218,218,218,218,218,218,218,218,218,218,218,218,125,125,125,124,0,0,121,0,0,121,114,0,0,114,0,0,123,125,125,125,4,4,4,4,4,4,4,4,4,4,4,4,4,4,4,4,4,4,4,4,4,4,4,4,4,4,4,12,108,20,4,4,4,4,4,4,4,4,4,4,4,4,125,125,125,124,0,0,0,0,0,0,123,125,125,124,4,4,4,4,4,4,4,4,4,4,4,218,218,218,218,218,218,218,218,218,218,218,218,218,218,218,218,218,218,218,218,218,218,218,218,218,218,218,218,218,218,218,218,4,4,4,4,4,4,4,4,12,108,20,4,4,218,218,218,218,
218,218,218,218,218,218,218,218,218,218,218,218,218,218,125,125,125,124,0,0,121,0,0,121,114,0,0,114,0,0,123,125,125,125,4,4,4,4,4,4,4,4,4,4,4,4,4,4,4,4,4,4,4,4,4,4,4,4,4,4,4,12,108,20,4,4,4,4,4,4,4,4,4,4,4,4,125,125,125,124,0,0,0,0,0,0,123,125,125,124,36,36,4,4,4,4,4,4,4,4,4,218,218,218,218,218,218,108,108,108,108,108,108,108,108,108,108,108,108,108,108,108,108,218,218,218,218,218,218,218,218,218,218,4,4,12,108,20,4,4,4,12,108,20,4,4,218,218,218,218,
218,218,218,218,218,218,218,218,218,218,218,218,218,218,125,125,125,124,0,0,121,0,0,121,114,0,0,114,0,0,123,125,125,125,4,4,4,4,4,4,4,4,4,4,4,4,4,4,4,4,4,4,4,4,4,4,4,4,4,4,4,12,108,20,4,4,4,4,4,4,4,4,4,4,4,4,125,125,125,124,0,0,0,0,0,0,123,125,125,124,28,28,4,4,4,4,4,4,36,36,36,218,218,218,218,218,218,108,108,108,108,108,108,108,108,108,108,108,108,108,108,108,108,218,218,218,218,218,218,218,218,218,218,4,4,12,108,20,4,4,4,12,108,20,4,4,218,218,218,218,
218,218,218,218,218,218,218,218,218,218,218,218,218,218,125,125,125,124,0,0,121,0,0,121,114,0,0,114,0,0,123,125,125,125,4,4,4,4,4,4,4,4,4,4,4,4,4,4,4,4,4,4,4,4,4,4,4,4,4,4,4,12,108,20,4,4,4,4,4,4,4,4,4,4,4,4,125,125,125,124,0,0,0,0,0,0,123,125,125,124,4,4,4,4,4,4,4,4,28,28,28,218,218,218,218,218,218,108,108,108,108,108,108,108,108,108,108,108,108,108,108,108,108,218,218,218,218,218,218,218,218,218,218,4,4,12,108,20,4,4,4,12,108,20,4,4,218,218,218,218,
117,124,218,218,116,117,117,117,117,132,218,218,131,117,117,125,125,124,0,0,121,0,0,121,122,311,311,122,311,311,123,125,125,117,117,117,117,117,117,117,117,117,117,117,117,117,117,117,117,117,117,117,117,117,117,117,117,117,117,117,117,117,117,117,117,117,117,117,117,117,117,117,117,117,117,117,117,125,125,124,0,0,0,0,0,0,123,125,125,124,4,4,4,4,4,4,4,4,4,4,4,218,218,218,218,218,218,108,108,108,108,108,108,108,108,108,108,108,108,108,108,108,108,218,218,218,218,218,218,218,218,218,218,218,218,218,218,218,218,218,218,218,218,218,218,218,218,218,218,218,
117,124,218,218,117,117,117,117,117,124,218,218,123,117,117,117,125,124,0,0,0,0,0,0,0,0,0,0,0,0,123,125,117,117,117,117,117,117,117,117,117,117,117,117,117,117,117,117,117,117,117,117,117,117,117,117,117,117,117,117,117,117,117,117,117,117,117,117,117,117,117,117,117,117,117,117,117,117,125,124,0,0,0,0,0,0,123,125,125,124,4,4,4,4,4,4,4,4,4,4,4,218,218,218,218,218,218,108,108,108,108,108,108,108,108,108,108,108,108,108,108,108,108,218,218,218,218,218,218,218,218,218,218,218,218,218,218,218,218,218,218,218,218,218,218,218,218,218,218,218,
115,140,0,0,115,115,115,115,115,140,0,0,139,115,115,115,115,140,177,177,177,177,177,177,177,177,177,177,177,177,139,115,115,115,115,115,115,115,115,115,115,115,115,115,115,115,115,115,115,115,115,115,115,115,115,115,115,115,115,115,115,115,115,115,115,115,115,115,115,115,115,115,115,115,115,115,115,115,115,140,177,177,177,177,177,177,123,125,125,124,36,36,4,4,4,4,4,4,4,36,36,218,218,218,218,218,218,108,108,108,108,108,108,108,108,108,108,108,108,108,108,108,108,218,218,218,218,218,218,218,218,218,218,218,218,218,218,218,218,218,218,218,218,218,218,218,218,218,218,218,
0,0,0,0,0,0,0,0,0,0,0,0,0,0,0,309,0,185,0,0,0,0,0,0,0,0,0,0,0,0,185,0,0,0,0,0,0,0,0,0,0,0,0,0,0,0,0,0,0,0,0,0,0,0,0,0,0,0,0,0,0,0,185,0,0,0,0,0,0,0,0,0,0,0,0,0,0,0,0,0,0,0,0,0,0,0,123,125,125,124,28,28,28,4,4,4,4,4,4,28,28,218,218,218,218,218,218,108,108,108,108,108,108,108,108,108,108,108,108,108,108,108,108,218,218,218,218,218,218,218,218,218,218,218,218,218,218,218,218,218,218,218,218,218,218,218,218,218,218,218,
0,0,0,0,0,0,0,0,0,0,0,0,0,0,0,309,0,185,0,0,0,0,0,0,0,0,0,0,0,0,185,0,0,0,0,0,0,0,0,0,0,0,0,0,0,0,0,0,0,0,0,0,0,0,0,0,0,0,0,0,0,0,185,0,0,0,0,0,0,0,0,0,0,0,0,0,0,0,0,0,0,0,0,0,0,0,123,125,125,124,4,4,4,4,4,4,4,4,4,4,4,218,218,218,218,218,218,108,108,108,108,108,108,108,108,108,108,108,108,108,108,108,108,218,218,218,218,4,4,4,12,20,4,4,4,4,4,12,20,4,4,4,4,4,4,12,20,4,4,4,
129,129,129,129,129,129,129,129,129,129,129,129,129,129,129,130,0,185,0,0,0,0,0,0,0,0,0,0,0,0,185,0,0,0,0,0,0,0,0,0,0,0,0,0,0,0,0,0,0,0,0,0,0,0,0,0,0,0,0,0,0,0,185,0,0,0,0,0,0,0,0,0,0,0,0,0,0,0,0,0,0,0,0,0,0,0,123,125,125,124,4,4,4,4,4,4,4,4,4,4,4,218,218,218,218,218,218,108,108,108,108,108,108,108,108,108,108,108,108,108,108,108,108,218,218,218,218,4,4,4,4,20,4,4,4,4,4,12,20,4,4,4,4,4,4,4,20,4,4,4,
138,138,138,138,138,138,138,138,138,138,138,138,138,138,138,138,0,185,0,0,0,0,0,0,0,0,0,0,0,0,185,0,0,0,0,0,0,0,0,0,0,0,0,0,0,0,0,0,0,0,0,0,0,0,0,0,0,0,0,0,0,0,185,0,0,0,0,0,0,0,0,0,0,0,0,0,0,0,0,0,0,0,0,0,0,0,123,125,125,124,4,4,4,4,4,4,4,4,4,4,4,218,218,218,218,218,218,108,108,108,108,108,108,108,108,108,108,108,108,108,108,108,108,218,218,218,218,4,4,4,4,4,4,4,4,4,4,4,4,4,4,4,4,4,4,4,4,4,4,4,
0,0,0,0,0,0,0,0,0,0,0,0,0,0,0,0,0,185,0,0,0,0,0,0,0,0,0,0,0,0,185,0,0,0,0,0,0,0,0,0,0,0,0,0,0,0,0,0,0,0,0,0,0,0,0,0,0,0,0,0,0,0,185,0,0,0,0,0,0,0,0,0,0,0,0,0,0,0,0,0,0,0,0,0,0,0,123,125,125,124,4,4,4,4,4,4,4,4,4,4,4,218,218,218,218,218,218,108,108,108,108,108,108,108,108,108,108,108,108,108,108,108,108,218,218,218,218,4,4,4,4,4,4,4,4,4,4,44,36,36,36,60,4,4,44,36,36,36,60,4,
0,0,0,0,0,0,0,0,0,0,0,0,0,0,0,0,0,185,0,0,0,0,0,0,0,0,0,0,0,0,185,0,0,0,0,0,0,0,0,0,0,0,0,0,0,0,0,0,0,0,0,0,0,0,0,0,0,0,0,0,0,0,185,0,0,0,0,0,0,0,0,0,0,0,0,0,0,0,0,0,0,0,0,0,0,0,123,125,125,124,4,4,4,4,4,4,4,4,36,36,36,218,218,218,218,218,218,108,108,108,108,108,108,108,108,108,108,108,108,108,108,108,108,218,218,218,218,4,4,4,4,4,4,4,4,4,4,52,28,28,28,68,4,4,12,108,108,108,20,4,
116,116,116,116,0,0,131,116,116,116,116,116,116,116,116,116,116,132,177,177,177,177,177,177,177,177,177,177,177,177,131,116,116,116,116,116,116,116,116,116,116,116,116,116,116,116,116,116,116,116,116,116,116,116,116,116,116,116,116,116,116,116,116,116,116,116,116,116,116,116,116,116,116,116,116,116,116,116,116,116,116,116,116,116,116,116,117,125,125,124,36,36,36,60,4,4,4,4,28,28,28,218,218,218,218,218,218,108,108,108,108,108,108,108,108,108,108,108,108,108,108,108,108,218,218,218,218,4,4,4,4,4,4,4,4,4,4,4,4,4,4,4,4,4,52,28,28,28,68,4,
117,117,117,117,218,218,123,117,117,117,117,117,117,117,117,117,125,124,0,0,0,0,0,0,0,0,0,0,0,0,123,125,117,117,117,117,117,117,117,117,117,117,117,117,117,117,117,117,117,117,117,117,117,117,117,117,117,117,117,117,117,117,117,117,117,117,117,117,117,117,117,117,117,117,117,117,117,117,117,117,117,117,117,117,117,117,117,117,125,124,28,28,28,68,4,4,4,4,4,4,4,218,218,218,218,218,218,108,108,108,108,108,108,108,108,108,108,108,108,108,108,108,108,218,218,218,218,4,4,4,4,4,4,4,4,4,4,4,4,4,4,4,4,4,4,4,4,4,4,4,
115,115,115,115,218,218,139,115,115,115,115,115,115,115,117,125,125,124,310,310,113,310,310,113,114,0,0,114,0,0,123,125,125,117,115,115,115,115,115,115,115,115,115,115,115,115,115,115,115,115,115,115,115,115,115,115,115,115,115,115,115,115,115,115,115,115,115,115,115,115,115,115,115,115,115,115,115,115,115,115,115,115,115,115,115,115,115,115,115,140,4,4,4,4,4,4,4,4,4,4,4,218,218,218,218,218,218,108,108,108,108,108,108,108,108,108,108,108,108,108,108,108,108,218,218,218,218,4,4,4,4,4,4,4,4,4,4,4,4,4,4,4,4,4,4,4,4,4,4,4,
218,218,218,218,218,218,218,218,218,218,218,218,218,218,123,125,125,124,0,0,121,0,0,121,114,0,0,114,0,0,123,125,125,124,4,44,60,4,4,4,4,4,12,20,4,4,4,12,20,4,4,4,4,12,20,4,4,4,12,20,4,218,218,218,218,4,12,108,20,4,4,12,108,20,4,4,12,108,20,4,4,12,108,20,4,4,12,108,20,4,4,4,4,4,4,4,4,4,4,4,4,218,218,218,218,218,218,108,108,108,108,108,108,108,108,108,108,108,108,108,108,108,108,218,218,218,218,4,44,36,36,36,36,60,4,4,4,4,4,4,44,60,4,44,36,60,4,4,4,4,
218,218,218,218,218,218,218,218,218,218,218,218,218,218,123,125,125,124,0,0,121,0,0,121,114,0,0,114,0,0,123,125,125,124,36,100,20,4,4,4,4,4,12,20,4,4,4,12,20,4,4,4,4,12,20,4,4,4,12,20,4,218,218,218,218,4,12,108,20,4,4,12,108,20,4,4,12,108,20,4,4,12,108,20,4,4,12,108,20,4,4,12,108,20,4,4,4,4,4,4,4,218,218,218,218,218,218,108,108,108,108,108,108,108,108,108,108,108,108,108,108,108,108,218,218,218,218,4,52,92,108,76,28,68,4,4,4,4,4,4,12,20,4,12,108,20,12,108,20,4,
218,218,218,218,218,218,218,218,218,218,218,218,218,218,123,125,125,124,0,0,121,0,0,121,114,0,0,114,0,0,123,125,125,124,28,28,68,4,4,4,4,4,4,4,4,4,4,4,20,4,4,4,4,4,20,4,4,4,4,20,4,218,218,218,218,4,12,4,20,4,4,12,4,20,4,4,12,4,20,4,4,12,4,20,4,4,12,108,20,4,4,12,108,20,4,4,4,12,20,4,4,218,218,218,218,218,218,108,108,108,108,108,108,108,108,108,108,108,108,108,108,108,108,218,218,218,218,4,4,12,108,84,36,4,4,4,4,44,36,60,12,20,4,12,108,20,12,108,20,4,
218,218,218,218,218,218,218,218,218,218,218,218,218,218,123,125,125,124,0,0,121,0,0,121,114,0,0,114,0,0,123,125,125,124,36,36,36,4,4,4,4,4,4,4,4,4,4,4,4,4,4,4,4,4,4,4,4,4,4,4,4,218,218,218,218,4,4,4,4,4,4,4,4,4,4,4,4,4,4,4,4,4,4,4,4,4,4,4,20,4,4,12,108,20,4,4,4,12,20,4,4,218,218,218,218,218,218,108,108,108,108,108,108,108,108,108,108,108,108,108,108,108,108,218,218,218,218,4,4,12,108,76,28,4,4,4,4,12,108,20,52,68,4,52,28,68,12,108,20,4,
218,218,218,218,218,218,218,218,218,218,218,218,218,218,123,125,125,124,0,0,121,0,0,121,114,0,0,114,0,0,123,125,125,124,28,28,28,4,4,4,4,4,4,4,4,4,4,4,4,4,4,4,4,4,4,4,4,4,4,4,4,218,218,218,218,4,4,4,4,4,4,4,4,4,4,4,4,4,4,4,4,4,4,4,4,4,4,4,4,4,4,12,108,20,4,4,4,12,84,60,4,218,218,218,218,218,218,108,108,108,108,108,108,108,108,108,108,108,108,108,108,108,108,218,218,218,218,4,4,12,108,20,4,4,4,4,4,12,108,20,4,4,4,4,4,4,12,108,20,4,
218,218,218,218,218,218,218,218,218,218,218,218,218,218,123,125,125,124,0,0,121,0,0,121,114,0,0,114,0,0,123,125,125,124,4,4,4,4,4,4,4,4,4,4,4,4,4,4,4,4,4,4,4,4,4,4,4,4,4,4,4,218,218,218,218,218,218,218,218,218,218,218,218,218,218,218,218,218,218,218,218,218,218,218,218,218,218,218,218,218,218,218,218,218,218,218,218,218,218,218,218,218,218,218,218,218,218,218,218,218,218,218,218,218,218,218,218,218,218,218,218,218,218,218,218,218,218,218,218,218,218,218,218,218,218,218,218,218,218,218,218,218,218,218,218,218,218,218,218,218,
218,218,218,218,218,218,218,218,218,218,218,218,218,218,123,125,125,124,0,0,121,0,0,121,114,0,0,114,0,0,123,125,125,124,4,4,4,4,4,4,4,4,4,4,4,4,4,4,4,4,4,4,4,4,4,4,4,4,4,4,4,218,218,218,218,218,218,218,218,218,218,218,218,218,218,218,218,218,218,218,218,218,218,218,218,218,218,218,218,218,218,218,218,218,218,218,218,218,218,218,218,218,218,218,218,218,218,218,218,218,218,218,218,218,218,218,218,218,218,218,218,218,218,218,218,218,218,218,218,218,218,218,218,218,218,218,218,218,218,218,218,218,218,218,218,218,218,218,218,218,
218,218,218,218,218,218,218,218,218,218,218,218,218,218,123,125,125,124,0,0,121,0,0,121,114,0,0,114,0,0,123,125,125,124,4,4,4,4,4,4,4,52,92,60,4,4,52,92,84,60,4,4,12,84,60,4,4,4,44,36,60,218,218,218,218,218,218,218,218,218,218,218,218,218,218,218,218,218,218,218,218,218,218,218,218,218,218,218,218,218,218,218,218,218,218,218,218,218,218,218,218,218,218,218,218,218,218,218,218,218,218,218,218,218,218,218,218,218,218,218,218,218,218,218,218,218,218,218,218,218,218,218,218,218,218,218,218,218,218,218,218,218,218,218,218,218,218,218,218,218,
218,218,218,218,218,218,218,218,218,218,218,218,218,218,123,125,125,124,0,0,121,0,0,121,114,0,0,114,0,0,123,125,125,124,4,4,12,108,20,4,4,4,12,20,4,4,4,12,108,20,4,4,52,92,20,4,4,4,12,108,20,218,218,218,218,218,218,218,218,218,218,218,218,218,218,218,218,218,218,218,218,218,218,218,218,218,218,218,218,218,218,218,218,218,218,218,218,218,218,218,218,218,218,218,218,218,218,218,218,218,218,218,218,218,218,218,218,218,218,218,218,218,218,218,218,218,218,218,218,218,218,218,218,218,218,218,218,218,218,218,218,218,218,218,218,218,218,218,218,218,
218,218,218,218,218,218,218,218,218,218,218,218,218,218,123,125,125,124,0,0,121,0,0,121,114,0,0,114,0,0,123,125,125,124,218,218,218,218,218,218,218,218,218,218,218,218,218,218,218,218,218,218,218,218,218,218,218,218,218,218,218,218,218,218,218,218,218,218,218,218,218,218,218,218,218,218,218,218,218,218,218,218,218,218,218,218,218,218,218,218,218,218,218,218,218,218,218,218,218,218,218,218,218,218,218,218,218,218,218,218,218,218,218,218,218,218,218,218,218,218,218,218,218,218,218,218,218,218,218,218,218,218,218,218,218,218,218,218,218,218,218,218,218,218,218,218,218,218,218,218,
218,218,218,218,218,218,218,218,218,218,218,218,218,218,123,125,125,124,0,0,121,0,0,121,114,0,0,114,0,0,123,125,125,124,218,218,218,218,218,218,218,218,218,218,218,218,218,218,218,218,218,218,218,218,218,218,218,218,218,218,218,218,218,218,218,4,4,4,4,4,4,4,4,4,4,4,4,12,108,20,4,218,218,218,4,4,4,4,4,4,4,4,4,4,4,4,4,218,218,218,4,4,4,4,4,4,4,4,12,108,20,4,4,4,4,4,4,12,20,4,218,218,218,218,4,4,12,20,4,4,4,12,108,20,4,4,12,108,20,4,218,218,218,218,4,4,4,4,4,4,
218,218,218,218,218,218,218,218,218,218,218,218,218,218,123,125,125,124,0,0,121,0,0,121,114,0,0,114,0,0,123,125,125,124,218,218,218,218,218,218,218,218,218,218,218,218,218,218,218,218,218,218,218,218,218,218,218,218,218,218,218,218,218,218,218,4,44,36,4,4,4,4,4,4,4,4,4,12,108,20,4,218,218,218,4,44,36,36,36,36,36,36,36,36,60,4,4,218,218,218,4,4,4,4,4,4,4,4,12,4,20,4,4,4,4,4,4,4,20,4,218,218,218,218,4,4,12,4,4,4,4,4,4,20,4,4,4,4,20,4,218,218,218,218,4,4,4,4,4,4,
218,218,218,218,218,218,218,218,218,218,218,218,218,218,123,125,125,124,0,0,121,0,0,121,114,0,0,114,0,0,123,125,125,124,218,218,218,218,218,218,218,218,218,218,218,218,218,218,218,218,218,218,218,218,218,218,218,218,218,218,218,218,218,218,218,4,12,20,4,4,4,4,4,4,4,4,4,12,108,20,4,218,218,218,4,12,108,108,108,108,108,108,108,108,20,4,4,218,218,218,4,4,4,4,4,4,4,4,4,4,4,4,4,4,4,4,4,4,4,4,218,218,218,218,4,4,4,4,4,4,4,4,4,4,4,4,4,4,4,4,218,218,218,218,36,36,36,60,4,4,
218,218,218,218,218,218,218,218,218,218,218,218,218,218,139,115,115,140,0,0,121,0,0,121,114,0,0,114,0,0,123,125,125,124,4,44,60,4,4,4,218,218,218,4,4,4,4,4,4,4,12,108,20,4,4,4,4,4,4,4,4,218,218,218,218,36,100,20,4,4,4,4,4,4,4,4,4,4,4,4,4,218,218,218,4,12,108,108,108,108,108,108,108,108,20,4,4,218,218,218,4,4,4,4,4,4,4,4,4,4,4,4,4,4,4,4,4,4,4,4,218,218,218,218,4,44,36,36,36,60,4,44,36,60,4,4,44,60,4,4,218,218,218,218,28,28,28,68,4,4,
218,218,218,218,218,218,218,218,218,218,218,218,218,218,0,0,0,0,0,0,121,0,0,121,114,0,0,114,0,0,123,125,125,124,36,100,20,4,4,4,218,218,218,36,36,36,36,4,4,4,12,108,20,4,4,4,4,4,4,36,36,218,218,218,218,28,28,68,4,4,44,36,36,60,4,4,4,4,4,4,4,218,218,218,4,12,108,108,108,108,108,108,108,108,20,4,4,218,218,218,4,4,4,4,4,4,4,4,4,4,4,4,4,4,4,4,4,4,4,4,218,218,218,218,4,52,28,28,28,68,4,52,28,68,4,4,52,68,4,4,218,218,218,218,4,4,4,4,4,4,
218,218,218,218,218,218,218,218,218,218,218,218,218,218,131,116,116,132,0,0,121,0,0,121,114,0,0,114,0,0,123,125,125,124,28,28,68,4,4,4,218,218,218,28,28,28,28,4,4,4,12,4,20,4,4,4,4,4,4,28,28,218,218,218,218,4,4,44,36,60,52,28,28,68,4,4,44,36,36,60,4,218,218,218,4,12,108,108,108,108,108,108,108,108,20,4,4,218,218,218,4,4,4,4,4,4,4,4,4,4,4,4,4,4,4,4,4,4,4,4,218,218,218,218,4,4,4,4,4,4,4,4,4,4,4,4,4,4,4,4,218,218,218,218,4,4,4,4,4,4,
218,218,218,218,218,218,218,218,218,218,218,218,218,218,123,125,125,124,0,0,121,0,0,121,114,0,0,114,0,0,123,125,125,124,4,4,4,4,4,4,218,218,218,4,4,4,4,4,4,4,4,4,4,4,4,4,4,4,4,4,4,218,218,218,218,4,4,52,28,68,4,4,4,4,4,4,52,28,28,68,4,218,218,218,4,12,108,108,108,108,108,108,108,108,20,4,4,218,218,218,4,44,36,36,36,4,4,4,4,4,4,4,4,4,4,4,4,4,4,4,218,218,218,218,4,4,44,36,36,60,4,4,4,4,4,4,4,4,4,4,218,218,218,218,4,4,4,4,4,4,
218,218,218,218,218,218,218,218,218,218,218,218,218,218,123,125,125,124,0,0,121,0,0,121,114,0,0,114,0,0,123,125,125,124,36,36,36,4,4,4,218,218,218,4,4,4,4,4,4,4,4,4,4,4,4,4,4,4,4,4,4,218,218,218,218,4,4,4,4,4,4,4,4,4,4,4,4,4,4,4,4,218,218,218,4,12,108,108,108,108,108,108,108,108,20,4,4,218,218,218,4,12,76,28,4,4,4,4,4,4,4,4,4,4,4,4,4,36,36,36,218,218,218,218,4,4,12,76,4,4,4,4,4,4,4,4,4,44,36,36,218,218,218,218,36,36,4,4,4,4,
218,218,218,218,218,218,218,218,218,218,218,218,218,218,123,125,125,124,0,0,121,0,0,121,114,0,0,114,0,0,123,125,125,124,28,28,28,4,4,4,218,218,218,36,36,36,36,4,4,4,4,4,4,4,44,60,4,4,36,60,4,218,218,218,218,4,4,4,4,4,4,4,4,4,4,4,4,4,4,4,4,218,218,218,4,52,28,28,28,28,28,28,28,28,68,4,4,218,218,218,36,100,20,4,4,44,36,36,60,4,4,4,4,4,4,4,4,28,28,28,218,218,218,218,36,36,100,20,4,4,4,4,4,4,4,4,4,12,108,108,218,218,218,218,108,108,4,4,4,4,
218,218,218,218,218,218,218,218,218,218,218,218,218,218,123,125,125,124,0,0,121,0,0,121,114,0,0,114,0,0,123,125,125,124,4,4,44,36,60,4,218,218,218,28,28,28,4,4,4,4,4,4,4,4,52,68,4,4,12,84,36,218,218,218,218,4,4,108,20,4,4,4,4,4,4,44,36,36,36,60,4,218,218,218,4,4,4,4,4,4,4,4,4,4,4,4,4,218,218,218,108,108,20,4,4,52,28,28,68,4,4,4,4,4,4,4,4,4,4,4,218,218,218,218,28,28,28,68,4,4,4,4,4,4,4,4,4,52,28,28,218,218,218,218,28,28,28,68,4,4,
218,218,218,218,218,218,218,218,218,218,218,218,218,218,123,125,125,124,0,0,121,0,0,121,114,0,0,114,0,0,123,125,125,124,4,4,12,108,20,4,218,218,218,4,4,4,4,44,36,60,4,4,4,4,4,4,4,4,52,28,28,218,218,218,218,36,100,108,84,36,36,36,36,60,4,12,108,108,108,20,4,218,218,218,4,4,4,4,4,4,4,4,4,4,4,4,4,218,218,218,28,28,68,4,4,4,4,4,4,4,4,4,4,4,4,4,4,4,4,4,218,218,218,218,4,4,4,4,4,4,4,4,4,4,4,4,4,4,4,4,218,218,218,218,4,4,4,4,4,4,
218,218,218,218,218,218,218,218,218,218,218,218,218,218,123,125,125,124,0,0,121,0,0,121,114,0,0,114,0,0,123,125,125,124,4,4,52,28,68,4,218,218,218,4,4,4,4,52,28,68,4,4,4,4,4,4,4,4,4,4,4,218,218,218,218,108,108,108,108,108,108,108,108,20,4,52,28,28,28,68,4,218,218,218,4,4,4,4,4,4,4,4,4,4,4,4,4,218,218,218,4,4,4,4,4,4,4,4,4,4,4,4,4,4,4,4,4,4,4,4,218,218,218,218,4,4,4,4,4,4,4,4,4,4,4,4,4,4,4,4,218,218,218,218,4,4,4,4,4,4,
218,218,218,218,218,218,218,218,218,218,218,218,218,218,123,125,125,124,0,0,121,0,0,121,114,0,0,114,0,0,123,125,125,124,4,4,4,4,4,4,218,218,218,4,4,4,4,4,4,4,4,4,4,4,4,4,4,4,4,4,4,218,218,218,218,28,28,92,76,28,28,28,28,68,4,4,4,4,36,36,36,218,218,218,36,36,100,20,4,4,4,4,4,4,4,36,36,218,218,218,4,4,4,4,4,4,44,36,60,4,4,44,60,4,4,4,4,4,4,4,218,218,218,218,4,4,4,4,4,4,4,4,4,4,4,4,4,36,36,36,218,218,218,218,4,4,4,4,4,4,
218,218,218,218,218,218,218,218,218,218,218,218,218,218,123,125,125,124,0,0,121,0,0,121,114,0,0,114,0,0,123,125,125,124,36,36,36,28,4,4,218,218,218,36,36,36,36,4,4,4,4,4,4,4,4,4,4,4,4,36,36,218,218,218,218,4,4,4,20,4,4,4,4,4,4,4,4,4,28,28,28,218,218,218,28,28,28,68,4,4,4,4,4,4,4,28,28,218,218,218,36,36,36,36,4,4,12,108,20,4,4,52,68,4,4,4,36,36,36,36,218,218,218,218,36,36,36,4,4,4,4,4,4,4,4,4,4,28,92,108,218,218,218,218,4,4,4,4,4,4,
218,218,218,218,218,218,218,218,218,218,218,218,218,218,123,125,125,124,0,0,121,0,0,121,114,0,0,114,0,0,123,125,125,124,28,28,28,28,68,4,218,218,218,28,28,28,4,4,4,4,4,4,4,4,4,4,4,4,4,28,28,218,218,218,218,4,4,4,4,4,4,4,4,4,4,4,4,4,4,4,4,218,218,218,4,4,4,4,4,4,4,4,4,4,4,4,4,218,218,218,28,28,28,28,4,4,12,108,20,4,4,4,4,4,4,4,28,28,28,28,218,218,218,218,28,28,28,28,68,4,4,4,4,4,4,4,4,4,52,28,218,218,218,218,36,36,4,4,4,4
</data>
 </layer>
 <layer id="1" name="player" width="150" height="100">
  <data encoding="csv">
0,0,0,0,0,0,0,0,0,0,0,0,0,0,0,0,0,0,0,0,0,0,0,0,0,0,0,0,0,0,0,0,0,0,0,0,0,0,0,0,0,0,0,0,0,0,0,0,0,0,0,0,0,0,0,0,0,0,0,0,0,0,0,0,0,0,0,0,0,0,0,0,0,0,0,0,0,0,0,0,0,0,0,0,0,0,0,0,0,0,0,0,0,0,0,0,0,0,0,0,0,0,0,0,0,0,0,0,0,0,0,0,0,0,0,0,0,0,0,0,0,0,0,0,0,0,0,0,0,0,0,0,0,0,0,0,0,0,0,0,0,0,0,0,0,0,0,0,0,0,
0,0,0,0,0,0,0,0,0,0,0,0,0,0,0,0,0,0,0,0,0,0,0,0,0,0,0,0,0,0,0,0,0,0,0,0,0,0,0,0,0,0,0,0,0,0,0,0,0,0,0,0,0,0,0,0,0,0,0,0,0,0,0,0,0,0,0,0,0,0,0,0,0,0,0,0,0,0,0,0,0,0,0,0,0,0,0,0,0,0,0,0,0,0,0,0,0,0,0,0,0,0,0,0,0,0,0,0,0,0,0,0,0,0,0,0,0,0,0,0,0,0,0,0,0,0,0,0,0,0,0,0,0,0,0,0,0,0,0,0,0,0,0,0,0,0,0,0,0,0,
0,0,0,0,0,0,0,0,0,0,0,0,0,0,0,0,0,0,0,0,0,0,0,0,0,0,0,0,0,0,0,0,0,0,0,0,0,0,0,0,0,0,0,0,0,0,0,0,0,0,0,0,0,0,0,0,0,0,0,0,0,0,0,0,0,0,0,0,0,0,0,0,0,0,0,0,0,0,0,0,0,0,0,0,0,0,0,0,0,0,0,0,0,0,0,0,0,0,0,0,0,0,0,0,0,0,0,0,0,0,0,0,0,0,0,0,0,0,0,0,0,0,0,0,0,0,0,0,0,0,0,0,0,0,0,0,0,0,0,0,0,0,0,0,0,0,0,0,0,0,
0,0,0,0,0,0,0,0,0,0,0,0,0,0,0,0,0,0,0,0,0,0,0,0,0,0,0,0,0,0,0,0,0,0,0,0,0,0,0,0,0,0,0,0,0,0,0,0,0,0,0,0,0,0,0,0,0,0,0,0,0,0,0,0,0,0,0,0,0,0,0,0,0,0,0,0,0,0,0,0,0,0,0,0,0,0,0,0,0,0,0,0,0,0,0,0,0,0,0,0,0,0,0,0,0,0,0,0,0,0,0,0,0,0,0,0,0,0,0,0,0,0,0,0,0,0,0,0,0,0,0,0,0,0,0,0,0,0,0,0,0,0,0,0,0,0,0,0,0,0,
0,0,0,0,0,0,0,0,0,0,0,0,0,0,0,0,0,0,0,0,0,0,0,0,0,0,0,0,0,0,0,0,0,0,0,0,0,0,0,0,0,0,0,0,0,0,0,0,0,0,0,0,0,0,0,0,0,0,0,0,0,0,0,0,0,0,0,0,0,0,0,0,0,0,0,0,0,0,0,0,0,0,0,0,0,0,0,0,0,0,0,0,0,0,0,0,0,0,0,0,0,0,0,0,0,0,0,0,0,0,0,0,0,0,0,0,0,0,0,0,0,0,0,0,0,0,0,0,0,0,0,0,0,0,0,0,0,0,0,0,0,0,0,0,0,0,0,0,0,0,
0,0,0,0,0,0,0,0,0,0,0,0,0,0,0,0,0,0,0,0,0,0,0,0,0,0,0,0,0,0,0,0,0,0,0,0,0,0,0,0,0,0,0,0,0,0,0,0,0,0,0,0,0,0,0,0,0,0,0,0,0,0,0,0,0,0,0,0,0,0,0,0,0,0,0,0,0,0,0,0,0,0,0,0,0,0,0,0,0,0,0,0,0,0,0,0,0,0,0,0,0,0,0,0,0,0,0,0,0,0,0,0,0,0,0,0,0,0,0,0,0,0,0,0,0,0,0,0,0,0,0,0,0,0,0,0,0,0,0,0,0,0,0,0,0,0,0,0,0,0,
0,0,0,0,0,0,0,0,0,0,0,0,0,0,0,0,0,0,0,0,0,0,0,0,0,0,0,0,0,0,0,0,0,0,0,0,0,0,0,0,0,0,0,0,0,0,0,0,0,0,0,0,0,0,0,0,0,0,0,0,0,0,0,0,0,0,0,0,0,0,0,0,0,0,0,0,0,0,0,0,0,0,0,0,0,0,0,0,0,0,0,0,0,0,0,0,0,0,0,0,0,0,0,0,0,0,0,0,0,0,0,0,0,0,0,0,0,0,0,0,0,0,0,0,0,0,0,0,0,0,0,0,0,0,0,0,0,0,0,0,0,0,0,0,0,0,0,0,0,0,
0,0,0,0,0,0,0,0,0,0,0,0,0,0,0,0,0,0,0,0,0,0,0,0,0,0,0,0,0,0,0,0,0,0,0,0,0,0,0,0,0,0,0,0,0,0,0,0,0,0,0,0,0,0,0,0,0,0,0,0,0,0,0,0,0,0,0,0,0,0,0,0,0,0,0,0,0,0,0,0,0,0,0,0,0,0,0,0,0,0,0,0,0,0,0,0,0,0,0,0,0,0,0,0,0,0,0,0,0,0,0,0,0,0,0,0,0,0,0,0,0,0,0,0,0,0,0,0,0,0,0,0,0,0,0,0,0,0,0,0,0,0,0,0,0,0,0,0,0,0,
0,0,0,0,0,0,0,0,0,0,0,0,0,0,0,0,0,0,0,0,0,0,0,0,0,0,0,0,0,0,0,0,0,0,0,0,0,0,0,0,0,0,0,0,0,0,0,0,0,0,0,0,0,0,0,0,0,0,0,0,0,0,0,0,0,0,0,0,0,0,0,0,0,0,0,0,0,0,0,0,0,0,0,0,0,0,0,0,0,0,0,0,0,0,0,0,0,0,0,0,0,0,0,0,0,0,0,0,0,0,0,0,0,0,0,0,0,0,0,0,0,0,0,0,0,0,0,0,0,0,0,0,0,0,0,0,0,0,0,0,0,0,0,0,0,0,0,0,0,0,
0,0,0,0,0,0,0,0,0,0,0,0,0,0,0,0,0,0,0,0,0,0,0,0,0,0,0,0,0,0,0,0,0,0,0,0,0,0,0,0,0,0,0,0,0,0,0,0,0,0,0,0,0,0,0,0,0,0,0,0,0,0,0,0,0,0,0,0,0,0,0,0,0,0,0,0,0,0,0,0,0,0,0,0,0,0,0,0,0,0,0,0,0,0,0,0,0,0,0,0,0,0,0,0,0,0,0,0,0,0,0,0,0,0,0,0,0,0,0,0,0,0,0,0,0,0,0,0,0,0,0,0,0,0,0,0,0,0,0,0,0,0,0,0,0,0,0,0,0,0,
0,0,0,0,0,0,0,0,0,0,0,0,0,0,0,0,0,0,0,0,0,0,0,0,0,0,0,0,0,0,0,0,0,0,0,0,0,0,0,0,0,0,0,0,0,0,0,0,0,0,0,0,0,0,0,0,0,0,0,0,0,0,0,0,0,0,0,0,0,0,0,0,0,0,0,0,0,0,0,0,0,0,0,0,0,0,0,0,0,0,0,0,0,0,0,0,0,0,0,0,0,0,0,0,0,0,0,0,0,0,0,0,0,0,0,0,0,0,0,0,0,0,0,0,0,0,0,0,0,0,0,0,0,0,0,0,0,0,0,0,0,0,0,0,0,0,0,0,0,0,
0,0,0,0,0,0,0,0,0,0,0,0,0,0,0,0,0,0,0,0,0,0,0,0,0,0,0,0,0,0,0,0,0,0,0,0,0,0,0,0,0,0,0,0,0,0,0,0,0,0,0,0,0,0,0,0,0,0,0,0,0,0,0,0,0,0,0,0,0,0,0,0,0,0,0,0,0,0,0,0,0,0,0,0,0,0,0,0,0,0,0,0,0,0,0,0,0,0,0,0,0,0,0,0,0,0,0,0,0,0,0,0,0,0,0,0,0,0,0,0,0,0,0,0,0,0,0,0,0,0,0,0,0,0,0,0,0,0,0,0,0,0,0,0,0,0,0,0,0,0,
0,0,0,0,0,0,0,0,0,0,0,0,0,0,0,0,0,0,0,0,0,0,0,0,0,0,0,0,0,0,0,0,0,0,0,0,0,0,0,0,0,0,0,0,0,0,0,0,0,0,0,0,0,0,0,0,0,0,0,0,0,0,0,0,0,0,0,0,0,0,0,0,0,0,0,0,0,0,0,0,0,0,0,0,0,0,0,0,0,0,0,0,0,0,0,0,0,0,0,0,0,0,0,0,0,0,0,0,0,0,0,0,0,0,0,0,0,0,0,0,0,0,0,0,0,0,0,0,0,0,0,0,0,0,0,0,0,0,0,0,0,0,0,0,0,0,0,0,0,0,
0,0,0,0,0,0,0,0,0,0,0,0,0,0,0,0,0,0,0,0,0,0,0,0,0,0,0,0,0,0,0,0,0,0,0,0,0,0,0,0,0,0,0,0,0,0,0,0,0,0,0,0,0,0,0,0,0,0,0,0,0,0,0,0,0,0,0,0,0,0,0,0,0,0,0,0,0,0,0,0,0,0,0,0,0,0,0,0,0,0,0,0,0,0,0,0,0,0,0,0,0,0,0,0,0,0,0,0,0,0,0,0,0,0,0,0,0,0,0,0,0,0,0,0,0,0,0,0,0,0,0,0,0,0,0,0,0,0,0,0,0,0,0,0,0,0,0,0,0,0,
0,0,0,0,0,0,0,0,0,0,0,0,0,0,0,0,0,0,0,0,0,0,0,0,0,0,0,0,0,0,0,0,0,0,0,0,0,0,0,0,0,0,0,0,0,0,0,0,0,0,0,0,0,0,0,0,0,0,0,0,0,0,0,0,0,0,0,0,0,0,0,0,0,0,0,0,0,0,0,0,0,0,0,0,0,0,0,0,0,0,0,0,0,0,0,0,0,0,0,0,0,0,0,0,0,0,0,0,0,0,0,0,0,0,0,0,0,0,0,0,0,0,0,0,0,0,0,0,0,0,0,0,0,0,0,0,0,0,0,0,0,0,0,0,0,0,0,0,0,0,
0,0,0,0,0,0,0,0,0,0,0,0,0,0,0,0,0,0,0,0,0,0,0,0,0,0,0,0,0,0,0,0,0,0,0,0,0,0,0,0,0,0,0,0,0,0,0,0,0,0,0,0,0,0,0,0,0,0,0,0,0,0,0,0,0,0,0,0,0,0,0,0,0,0,0,0,0,0,0,0,0,0,0,0,0,0,0,0,0,0,0,0,0,0,0,0,0,0,0,0,0,0,0,0,0,0,0,0,0,0,0,0,0,0,0,0,0,0,0,0,0,0,0,0,0,0,0,0,0,0,0,0,0,0,0,0,0,0,0,0,0,0,0,0,0,0,0,0,0,0,
0,0,0,0,0,0,0,0,0,0,0,0,0,0,0,0,0,0,0,0,0,0,0,0,0,0,0,0,0,0,0,0,0,0,0,0,0,0,0,0,0,0,0,0,0,0,0,0,0,0,0,0,0,0,0,0,0,0,0,0,0,0,0,0,0,0,0,0,0,0,0,0,0,0,0,0,0,0,0,0,0,0,0,0,0,0,0,0,0,0,0,0,0,0,0,0,0,0,0,0,0,0,0,0,0,0,0,0,0,0,0,0,0,0,0,0,0,0,0,0,0,0,0,0,0,0,0,0,0,0,0,0,0,0,0,0,0,0,0,0,0,0,0,0,0,0,0,0,0,0,
0,0,0,0,0,0,0,0,0,0,0,0,0,0,0,0,0,0,0,0,0,0,0,0,0,0,0,0,0,0,0,0,0,0,0,0,0,0,0,0,0,0,0,0,0,0,0,0,0,0,0,0,0,0,0,0,0,0,0,0,0,0,0,0,0,0,0,0,0,0,0,0,0,0,0,0,0,0,0,0,0,0,0,0,0,0,0,0,0,0,0,0,0,0,0,0,0,0,0,0,0,0,0,0,0,0,0,0,0,0,0,0,0,0,0,0,0,0,0,0,0,0,0,0,0,0,0,0,0,0,0,0,0,0,0,0,0,0,0,0,0,0,0,0,0,0,0,0,0,0,
0,0,0,0,0,0,0,0,0,0,0,0,0,0,0,0,0,0,0,0,0,0,0,0,0,0,0,0,0,0,0,0,0,0,0,0,0,0,0,0,0,0,0,0,0,0,0,0,0,0,0,0,0,0,0,0,0,0,0,0,0,0,0,0,0,0,0,0,0,0,0,0,0,0,0,0,0,0,0,0,0,0,0,0,0,0,0,0,0,0,0,0,0,0,0,0,0,0,0,0,0,0,0,0,0,0,0,0,0,0,0,0,0,0,0,0,0,0,0,0,0,0,0,0,0,0,0,0,0,0,0,0,0,0,0,0,0,0,0,0,0,0,0,0,0,0,0,0,0,0,
0,0,0,0,0,0,0,0,0,0,0,0,0,0,0,0,0,0,0,0,0,0,0,0,0,0,0,0,0,0,0,0,0,0,0,0,0,0,0,0,0,0,0,0,0,0,0,0,0,0,0,0,0,0,0,0,0,0,0,0,0,0,0,0,0,0,0,0,0,0,0,0,0,0,0,0,0,0,0,0,0,0,0,0,0,0,0,0,0,0,0,0,0,0,0,0,0,0,0,0,0,0,0,0,0,0,0,0,0,0,0,0,0,0,0,0,0,0,0,0,0,0,0,0,0,0,0,0,0,0,0,0,0,0,0,0,0,0,0,0,0,0,0,0,0,0,0,0,0,0,
0,0,0,0,0,0,0,0,0,0,0,0,0,0,0,0,0,0,0,0,0,0,0,0,0,0,0,0,0,0,0,0,0,0,0,0,0,0,0,0,0,0,0,0,0,0,0,0,0,0,0,0,0,0,0,0,0,0,0,0,0,0,0,0,0,0,0,0,0,0,0,0,0,0,0,0,0,0,0,0,0,0,0,0,0,0,0,0,0,0,0,0,0,0,0,0,0,0,0,0,0,0,0,0,0,0,0,0,0,0,0,0,0,0,0,0,0,0,0,0,0,0,0,0,0,0,0,0,0,0,0,0,0,0,0,0,0,0,0,0,0,0,0,0,0,0,0,0,0,0,
0,0,0,0,0,0,0,0,0,0,0,0,0,0,0,0,0,0,0,0,0,0,0,0,0,0,0,0,0,0,0,0,0,0,0,0,0,0,0,0,0,0,0,0,0,0,0,0,0,0,0,0,0,0,0,0,0,0,0,0,0,0,0,0,0,0,0,0,0,0,0,0,0,0,0,0,0,0,0,0,0,0,0,0,0,0,0,0,0,0,0,0,0,0,0,0,0,0,0,0,0,0,0,0,0,0,0,0,0,0,0,0,0,0,0,0,0,0,0,0,0,0,0,0,0,0,0,0,0,0,0,0,0,0,0,0,0,0,0,0,0,0,0,0,0,0,0,0,0,0,
0,0,0,0,0,0,0,0,0,0,0,0,0,0,0,0,0,0,0,0,0,0,0,0,0,0,0,0,0,0,0,0,0,0,0,0,0,0,0,0,0,0,0,0,0,0,0,0,0,0,0,0,0,0,0,0,0,0,0,0,0,0,0,0,0,0,0,0,0,0,0,0,0,0,0,0,0,0,0,0,0,0,0,0,0,0,0,0,0,0,0,0,0,0,0,0,0,0,0,0,0,0,0,0,0,0,0,0,0,0,0,0,0,0,0,0,0,0,0,0,0,0,0,0,0,0,0,0,0,0,0,0,0,0,0,0,0,0,0,0,0,0,0,0,0,0,0,0,0,0,
0,0,0,0,0,0,0,0,0,0,0,0,0,0,0,0,0,0,0,0,0,0,0,0,0,0,0,0,0,0,0,0,0,0,0,0,0,0,0,0,0,0,0,0,0,0,0,0,0,0,0,0,0,0,0,0,0,0,0,0,0,0,0,0,0,0,0,0,0,0,0,0,0,0,0,0,0,0,0,0,0,0,0,0,0,0,0,0,0,0,0,0,0,0,0,0,0,0,0,0,0,0,0,0,0,0,0,0,0,0,0,0,0,0,0,0,0,0,0,0,0,0,0,0,0,0,0,0,0,0,0,0,0,0,0,0,0,0,0,0,0,0,0,0,0,0,0,0,0,0,
0,0,0,0,0,0,0,0,0,0,0,0,0,0,0,0,0,0,0,0,0,0,0,0,0,0,0,0,0,0,0,0,0,0,0,0,0,0,0,0,0,0,0,0,0,0,0,0,0,0,0,0,0,0,0,0,0,0,0,0,0,0,0,0,0,0,0,0,0,0,0,0,0,0,0,0,0,0,0,0,0,0,0,0,0,0,0,0,0,0,0,0,0,0,0,0,0,0,0,0,0,0,0,0,0,0,0,0,0,0,0,0,0,0,0,0,0,0,0,0,0,0,0,0,0,0,0,0,0,0,0,0,0,0,0,0,0,0,0,0,0,0,0,0,0,0,0,0,0,0,
0,0,0,0,0,0,0,0,0,0,0,0,0,0,0,0,0,0,0,0,0,0,0,0,0,0,0,0,0,0,0,0,0,0,0,0,0,0,0,0,0,0,0,0,0,0,0,0,0,0,0,0,0,0,0,0,0,0,0,0,0,0,0,0,0,0,0,0,0,0,0,0,0,0,0,0,0,0,0,0,0,0,0,0,0,0,0,0,0,0,0,0,0,0,0,0,0,0,0,0,0,0,0,0,0,0,0,0,0,0,0,0,0,0,0,0,0,0,0,0,0,0,0,0,0,0,0,0,0,0,0,0,0,0,0,0,0,0,0,0,0,0,0,0,0,0,0,0,0,0,
0,0,0,0,0,0,0,0,0,0,0,0,0,0,0,0,0,0,0,0,0,0,0,0,0,0,0,0,0,0,0,0,0,0,0,0,0,0,0,0,0,0,0,0,0,0,0,0,0,0,0,0,0,0,0,0,0,0,0,0,0,0,0,0,0,0,0,0,0,0,0,0,0,0,0,0,0,0,0,0,0,0,0,0,0,0,0,0,0,0,0,0,0,0,0,0,0,0,0,0,0,0,0,0,0,0,0,0,0,0,0,0,0,0,0,0,0,0,0,0,0,0,0,0,0,0,0,0,0,0,0,0,0,0,0,0,0,0,0,0,0,0,0,0,0,0,0,0,0,0,
0,0,0,0,0,0,0,0,0,0,0,0,0,0,0,0,0,0,0,0,0,0,0,0,0,0,0,0,0,0,0,0,0,0,0,0,0,0,0,0,0,0,0,0,0,0,0,0,0,0,0,0,0,0,0,0,0,0,0,0,0,0,0,0,0,0,0,0,0,0,0,0,0,0,0,0,0,0,0,0,0,0,0,0,0,0,0,0,0,0,0,0,0,0,0,0,0,0,0,0,0,0,0,0,0,0,0,0,0,0,0,0,0,0,0,0,0,0,0,0,0,0,0,0,0,0,0,0,0,0,0,0,0,0,0,0,0,0,0,0,0,0,0,0,0,0,0,0,0,0,
0,0,0,0,0,0,0,0,0,0,0,0,0,0,0,0,0,0,0,0,0,0,0,0,0,0,0,0,0,0,0,0,0,0,0,0,0,0,0,0,0,0,0,0,0,0,0,0,0,0,0,0,0,0,0,0,0,0,0,0,0,0,0,0,0,0,0,0,0,0,0,0,0,0,0,0,0,0,0,0,0,0,0,0,0,0,0,0,0,0,0,0,0,0,0,0,0,0,0,0,0,0,0,0,0,0,0,0,0,0,0,0,0,0,0,0,0,0,0,0,0,0,0,0,0,0,0,0,0,0,0,0,0,0,0,0,0,0,0,0,0,0,0,0,0,0,0,0,0,0,
0,0,0,0,0,0,0,0,0,0,0,0,0,0,0,0,0,0,0,0,0,0,0,0,0,0,0,0,0,0,0,0,0,0,0,0,0,0,0,0,0,0,0,0,0,0,0,0,0,0,0,0,0,0,0,0,0,0,0,0,0,0,0,0,0,0,0,0,0,0,0,0,0,0,0,0,0,0,0,0,0,0,0,0,0,0,0,0,0,0,0,0,0,0,0,0,0,0,0,0,0,0,0,0,0,0,0,0,0,0,0,0,0,0,0,0,0,0,0,0,0,0,0,0,0,0,0,0,0,0,0,0,0,0,0,0,0,0,0,0,0,0,0,0,0,0,0,0,0,0,
0,0,0,0,0,0,0,0,0,0,0,0,0,0,0,0,0,0,0,0,0,0,0,0,0,0,0,0,0,0,0,0,0,0,0,0,0,0,0,0,0,0,0,0,0,0,0,0,0,0,0,0,0,0,0,0,0,0,0,0,0,0,0,0,0,0,0,0,0,0,0,0,0,0,0,0,0,0,0,0,0,0,0,0,0,0,0,0,0,0,0,0,0,0,0,0,0,0,0,0,0,0,0,0,0,0,0,0,0,0,0,0,0,0,0,0,0,0,0,0,0,0,0,0,0,0,0,0,0,0,0,0,0,0,0,0,0,0,0,0,0,0,0,0,0,0,0,0,0,0,
0,0,0,0,0,0,0,0,0,0,0,0,0,0,0,0,0,0,0,0,0,0,0,0,0,0,0,0,0,0,0,0,0,0,0,0,0,0,0,0,0,0,0,0,0,0,0,0,0,0,0,0,0,0,0,0,0,0,0,0,0,0,0,0,0,0,0,0,0,0,0,0,0,0,0,0,0,0,0,0,0,0,0,0,0,0,0,0,0,0,0,0,0,0,0,0,0,0,0,0,0,0,0,0,0,0,0,0,0,0,0,0,0,0,0,0,0,0,0,0,0,0,0,0,0,0,0,0,0,0,0,0,0,0,0,0,0,0,0,0,0,0,0,0,0,0,0,0,0,0,
0,0,0,0,0,0,0,0,0,0,0,0,0,0,0,0,0,0,0,0,0,0,0,0,0,0,0,0,0,0,0,0,0,0,0,0,0,0,0,0,0,0,0,0,0,0,0,0,0,0,0,0,0,0,0,0,0,0,0,0,0,0,0,0,0,0,0,0,0,0,0,0,0,0,0,0,0,0,0,0,0,0,0,0,0,0,0,0,0,0,0,0,0,0,0,0,0,0,0,0,0,0,0,0,0,0,0,0,0,0,0,0,0,0,0,0,0,0,0,0,0,0,0,0,0,0,0,0,0,0,0,0,0,0,0,0,0,0,0,0,0,0,0,0,0,0,0,0,0,0,
0,0,0,0,0,0,0,0,0,0,0,0,0,0,0,0,0,0,0,0,0,0,0,0,0,0,0,0,0,0,0,0,0,0,0,0,0,0,0,0,0,0,0,0,0,0,0,0,0,0,0,0,0,0,0,0,0,0,0,0,0,0,0,0,0,0,0,0,0,0,0,0,0,0,0,0,0,0,0,0,0,0,0,0,0,0,0,0,0,0,0,0,0,0,0,0,0,0,0,0,0,0,0,0,0,0,0,0,0,0,0,0,0,0,0,0,0,0,0,0,0,0,0,0,0,0,0,0,0,0,0,0,0,0,0,0,0,0,0,0,0,0,0,0,0,0,0,0,0,0,
0,0,0,0,0,0,0,0,0,0,0,0,0,0,0,0,0,0,0,0,0,0,0,0,0,0,0,0,0,0,0,0,0,0,0,0,0,0,0,0,0,0,0,0,0,0,0,0,0,0,0,0,0,0,0,0,0,0,0,0,0,0,0,0,0,0,0,0,0,0,0,0,0,0,0,0,0,0,0,0,0,0,0,0,0,0,0,0,0,0,0,0,0,0,0,0,0,0,0,0,0,0,0,0,0,0,0,0,0,0,0,0,0,0,0,0,0,0,0,0,0,0,0,0,0,0,0,0,0,0,0,0,0,0,0,0,0,0,0,0,0,0,0,0,0,0,0,0,0,0,
0,0,0,0,0,0,0,0,0,0,0,0,0,0,0,0,0,0,0,0,0,0,0,0,0,0,0,0,0,0,0,0,0,0,0,0,0,0,0,0,0,0,0,0,0,0,0,0,0,0,0,0,0,0,0,0,0,0,0,0,0,0,0,0,0,0,0,0,0,0,0,0,0,0,0,0,0,0,0,0,0,0,0,0,0,0,0,0,0,0,0,0,0,0,0,0,0,0,0,0,0,0,0,0,0,0,0,0,0,0,0,0,0,0,0,0,0,0,0,0,0,0,0,0,0,0,0,0,0,0,0,0,0,0,0,0,0,0,0,0,0,0,0,0,0,0,0,0,0,0,
0,0,0,0,0,0,0,0,0,0,0,0,0,0,0,0,0,0,0,0,0,0,0,0,0,0,0,0,0,0,0,0,0,0,0,0,0,0,0,0,0,0,0,0,0,0,0,0,0,0,0,0,0,0,0,0,0,0,0,0,0,0,0,0,0,0,0,0,0,0,0,0,0,0,0,0,0,0,0,0,0,0,0,0,0,0,0,0,0,0,0,0,0,0,0,0,0,0,0,0,0,0,0,0,0,0,0,0,0,0,0,0,0,0,0,0,0,0,0,0,0,0,0,0,0,0,0,0,0,0,0,0,0,0,0,0,0,0,0,0,0,0,0,0,0,0,0,0,0,0,
0,0,0,0,0,0,0,0,0,0,0,0,0,0,0,0,0,0,0,0,0,0,0,0,0,0,0,0,0,0,0,0,0,0,0,0,0,0,0,0,0,0,0,0,0,0,0,0,0,0,0,0,0,0,0,0,0,0,0,0,0,0,0,0,0,0,0,0,0,0,0,0,0,0,0,0,0,0,0,0,0,0,0,0,0,0,0,0,0,0,0,0,0,0,0,0,0,0,0,0,0,0,0,0,0,0,0,0,0,0,0,0,0,0,0,0,0,0,0,0,0,0,0,0,0,0,0,0,0,0,0,0,0,0,0,0,0,0,0,0,0,0,0,0,0,0,0,0,0,0,
0,0,0,0,0,0,0,0,0,0,0,0,0,0,0,0,0,0,0,0,0,0,0,0,0,0,0,0,0,0,0,0,0,0,0,0,0,0,0,0,0,0,0,0,0,0,0,0,0,0,0,0,0,0,0,0,0,0,0,0,0,0,0,0,0,0,0,0,0,0,0,0,0,0,0,0,0,0,0,0,0,0,0,0,0,0,0,0,0,0,0,0,0,0,0,0,0,0,0,0,0,0,0,0,0,0,0,0,0,0,0,0,0,0,0,0,0,0,0,0,0,0,0,0,0,0,0,0,0,0,0,0,0,0,0,0,0,0,0,0,0,0,0,0,0,0,0,0,0,0,
0,0,0,0,0,0,0,0,0,0,0,0,0,0,0,0,0,0,0,0,0,0,0,0,0,0,0,0,0,0,0,0,0,0,0,0,0,0,0,0,0,0,0,0,0,0,0,0,0,0,0,0,0,0,0,0,0,0,0,0,0,0,0,0,0,0,0,0,0,0,0,0,0,0,0,0,0,0,0,0,0,0,0,0,0,0,0,0,0,0,0,0,0,0,0,0,0,0,0,0,0,0,0,0,0,0,0,0,0,0,0,0,0,0,0,0,0,0,0,0,0,0,0,0,0,0,0,0,0,0,0,0,0,0,0,0,0,0,0,0,0,0,0,0,0,0,0,0,0,0,
0,0,0,0,0,0,0,0,0,0,0,0,0,0,0,0,0,0,0,0,0,0,0,0,0,0,0,0,0,0,0,0,0,0,0,0,0,0,0,0,0,0,0,0,0,0,0,0,0,0,0,0,0,0,0,0,0,0,0,0,0,0,0,0,0,0,0,0,0,0,0,0,0,0,0,0,0,0,0,0,0,0,0,0,0,0,0,0,0,0,0,0,0,0,0,0,0,0,0,0,0,0,0,0,0,0,0,0,0,0,0,0,0,0,0,0,0,0,0,0,0,0,0,0,0,0,0,0,0,0,0,0,0,0,0,0,0,0,0,0,0,0,0,0,0,0,0,0,0,0,
0,0,0,0,0,0,0,0,0,0,0,0,0,0,0,0,0,0,0,0,0,0,0,0,0,0,0,0,0,0,0,0,0,0,0,0,0,0,0,0,0,0,0,0,0,0,0,0,0,0,0,0,0,0,0,0,0,0,0,0,0,0,0,0,0,0,0,0,0,0,0,0,0,0,0,0,0,0,0,0,0,0,0,0,0,0,0,0,0,0,0,0,0,0,0,0,0,0,0,0,0,0,0,0,0,0,0,0,0,0,0,0,0,0,0,0,0,0,0,0,0,0,0,0,0,0,0,0,0,0,0,0,0,0,0,0,0,0,0,0,0,0,0,0,0,0,0,0,0,0,
0,0,0,0,0,0,0,0,0,0,0,0,0,0,0,0,0,0,0,0,0,0,0,0,0,0,0,0,0,0,0,0,0,0,0,0,0,0,0,0,0,0,0,0,0,0,0,0,0,0,0,0,0,0,0,0,0,0,0,0,0,0,0,0,0,0,0,0,0,0,0,0,0,0,0,0,0,0,0,0,0,0,0,0,0,0,0,0,0,0,0,0,0,0,0,0,0,0,0,0,0,0,0,0,0,0,0,0,0,0,0,0,0,0,0,0,0,0,0,0,0,0,0,0,0,0,0,0,0,0,0,0,0,0,0,0,0,0,0,0,0,0,0,0,0,0,0,0,0,0,
0,0,0,0,0,0,0,0,0,0,0,0,0,0,0,0,0,0,0,0,0,0,0,0,0,0,0,0,0,0,0,0,0,0,0,0,0,0,0,0,0,0,0,0,0,0,0,0,0,0,0,0,0,0,0,0,0,0,0,0,0,0,0,0,0,0,0,0,0,0,0,0,0,0,0,0,0,0,0,0,0,0,0,0,0,0,0,0,0,0,0,0,0,0,0,0,0,0,0,0,0,0,0,0,0,0,0,0,0,0,0,0,0,0,0,0,0,0,0,0,0,0,0,0,0,0,0,0,0,0,0,0,0,0,0,0,0,0,0,0,0,0,0,0,0,0,0,0,0,0,
0,0,0,0,0,0,0,0,0,0,0,0,0,0,0,0,0,0,0,0,0,0,0,0,0,0,0,0,0,0,0,0,0,0,0,0,0,0,0,0,0,0,0,0,0,0,0,0,0,0,0,0,0,0,0,0,0,0,0,0,0,0,0,0,0,0,0,0,0,0,0,0,0,0,0,0,0,0,0,0,0,0,0,0,0,0,0,0,0,0,0,0,0,0,0,0,0,0,0,0,0,0,0,0,0,0,0,0,0,0,0,0,0,0,0,0,0,0,0,0,0,0,0,0,0,0,0,0,0,0,0,0,0,0,0,0,0,0,0,0,0,0,0,0,0,0,0,0,0,0,
0,0,0,0,0,0,0,0,0,0,0,0,0,0,0,0,0,0,0,0,0,0,0,0,0,0,0,0,0,0,0,0,0,0,0,0,0,0,0,0,0,0,0,0,0,0,0,0,0,0,0,0,0,0,0,0,0,0,0,0,0,0,0,0,0,0,0,0,0,0,0,0,0,0,0,0,0,0,0,0,0,0,0,0,0,0,0,0,0,0,0,0,0,0,0,0,0,0,0,0,0,0,0,0,0,0,0,0,0,0,0,0,0,0,0,0,0,0,0,0,0,0,0,0,0,0,0,0,0,0,0,0,0,0,0,0,0,0,0,0,0,0,0,0,0,0,0,0,0,0,
0,0,0,0,0,0,0,0,0,0,0,0,0,0,0,0,0,0,0,0,0,0,0,0,0,0,0,0,0,0,0,0,0,0,0,0,0,0,0,0,0,0,0,0,0,0,0,0,0,0,0,0,0,0,0,0,0,0,0,0,0,0,0,0,0,0,0,0,0,0,0,0,0,0,0,0,0,0,0,0,0,0,0,0,0,0,0,0,0,0,0,0,0,0,0,0,0,0,0,0,0,0,0,0,0,0,0,0,0,0,0,0,0,0,0,0,0,0,0,0,0,0,0,0,0,0,0,0,0,0,0,0,0,0,0,0,0,0,0,0,0,0,0,0,0,0,0,0,0,0,
0,0,0,0,0,0,0,0,0,0,0,0,0,0,0,0,0,0,0,0,0,0,0,0,0,0,0,0,0,0,0,0,0,0,0,0,0,0,0,0,0,0,0,0,0,0,0,0,0,0,0,0,0,0,0,0,0,0,0,0,0,0,0,0,0,0,0,0,0,0,0,0,0,0,0,0,0,0,0,0,0,0,0,0,0,0,0,0,0,0,0,0,0,0,0,0,0,0,0,0,0,0,0,0,0,0,0,0,0,0,0,0,0,0,0,0,0,0,0,0,0,0,0,0,0,0,0,0,0,0,0,0,0,0,0,0,0,0,0,0,0,0,0,0,0,0,0,0,0,0,
0,0,0,0,0,0,0,0,0,0,0,0,0,0,0,0,0,0,0,0,0,0,0,0,0,0,0,0,0,0,0,0,0,0,0,0,0,0,0,0,0,0,0,0,0,0,0,0,0,0,0,0,0,0,0,0,0,0,0,0,0,0,0,0,0,0,0,0,0,0,0,0,0,0,0,0,0,0,0,0,0,0,0,0,0,0,0,0,0,0,0,0,0,0,0,0,0,0,0,0,0,0,0,0,0,0,0,0,0,0,0,0,0,0,0,0,0,0,0,0,0,0,0,0,0,0,0,0,0,0,0,0,0,0,0,0,0,0,0,0,0,0,0,0,0,0,0,0,0,0,
0,0,0,0,0,0,0,0,0,0,0,0,0,0,0,0,0,0,0,0,0,0,0,0,0,0,0,0,0,0,0,0,0,0,0,0,0,0,0,0,0,0,0,0,0,0,0,0,0,0,0,0,0,0,0,0,0,0,0,0,0,0,0,0,0,0,0,0,0,0,0,0,0,0,0,0,0,0,0,0,0,0,0,0,0,0,0,0,0,0,0,0,0,0,0,0,0,0,0,0,0,0,0,0,0,0,0,0,0,0,0,0,0,0,0,0,0,0,0,0,0,0,0,0,0,0,0,0,0,0,0,0,0,0,0,0,0,0,0,0,0,0,0,0,0,0,0,0,0,0,
0,0,0,0,0,0,0,0,0,0,0,0,0,0,0,0,0,0,0,0,0,0,0,0,0,0,0,0,0,0,0,0,0,0,0,0,0,0,0,0,0,0,0,0,0,0,0,0,0,0,0,0,0,0,0,0,0,0,0,0,0,0,0,0,0,0,0,0,0,0,0,0,0,0,0,0,0,0,0,0,0,0,0,0,0,0,0,0,0,0,0,0,0,0,0,0,0,0,0,0,0,0,0,0,0,0,0,0,0,0,0,0,0,0,0,0,0,0,0,0,0,0,0,0,0,0,0,0,0,0,0,0,0,0,0,0,0,0,0,0,0,0,0,0,0,0,0,0,0,0,
0,0,0,0,0,0,0,0,0,0,0,0,0,0,0,0,0,0,0,0,0,0,0,0,0,0,0,0,0,0,0,0,0,0,0,0,0,0,0,0,0,0,0,0,0,0,0,0,0,0,0,0,0,0,0,0,0,0,0,0,0,0,0,0,0,0,0,0,0,0,0,0,0,0,0,0,0,0,0,0,0,0,0,0,0,0,0,0,0,0,0,0,0,0,0,0,0,0,0,0,0,0,0,0,0,0,0,0,0,0,0,0,0,0,0,0,0,0,0,0,0,0,0,0,0,0,0,0,0,0,0,0,0,0,0,0,0,0,0,0,0,0,0,0,0,0,0,0,0,0,
0,0,0,0,0,0,0,0,0,0,0,0,0,0,0,0,0,0,0,0,0,0,0,0,0,0,0,0,0,0,0,0,0,0,0,0,0,0,0,0,0,0,0,0,0,0,0,0,0,0,0,0,0,0,0,0,0,0,0,0,0,0,0,0,0,0,0,0,0,0,0,0,0,0,0,0,0,0,0,0,0,0,0,0,0,0,0,0,0,0,0,0,0,0,0,0,0,0,0,0,0,0,0,0,0,0,0,0,0,0,0,0,0,0,0,0,0,0,0,0,0,0,0,0,0,0,0,0,0,0,0,0,0,0,0,0,0,0,0,0,0,0,0,0,0,0,0,0,0,0,
0,0,0,0,0,0,0,0,0,0,0,0,0,0,0,0,0,0,0,0,0,0,0,0,0,0,0,0,0,0,0,0,0,0,0,0,0,0,0,0,0,0,0,0,0,0,0,0,0,0,0,0,0,0,0,0,0,0,0,0,0,0,0,0,0,0,0,0,0,0,0,0,0,0,0,0,0,0,0,0,0,0,0,0,0,0,0,0,0,0,0,0,0,0,0,0,0,0,0,0,0,0,0,0,0,0,0,0,0,0,0,0,0,0,0,0,0,0,0,0,0,0,0,0,0,0,0,0,0,0,0,0,0,0,0,0,0,0,0,0,0,0,0,0,0,0,0,0,0,0,
0,0,0,0,0,0,0,0,0,0,0,0,0,0,0,0,0,0,0,0,0,0,0,0,0,0,0,0,0,0,0,0,0,0,0,0,0,0,0,0,0,0,0,0,0,0,0,0,0,0,0,0,0,0,0,0,0,0,0,0,0,0,0,0,0,0,0,0,0,0,0,0,0,0,0,0,0,0,0,0,0,0,0,0,0,0,0,0,0,0,0,0,0,0,0,0,0,0,0,0,0,0,0,0,0,0,0,0,0,0,0,0,0,0,0,0,0,0,0,0,0,0,0,0,0,0,0,0,0,0,0,0,0,0,0,0,0,0,0,0,0,0,0,0,0,0,0,0,0,0,
0,0,0,0,0,0,0,0,0,0,0,0,0,0,0,0,0,0,0,0,0,0,0,0,0,0,0,0,0,0,0,0,0,0,0,0,0,0,0,0,0,0,0,0,0,0,0,0,0,0,0,0,0,0,0,0,0,0,0,0,0,0,0,0,0,0,0,0,0,0,0,0,0,0,0,0,0,0,0,0,0,0,0,0,0,0,0,0,0,0,0,0,0,0,0,0,0,0,0,0,0,0,0,0,0,0,0,0,0,0,0,0,0,0,0,0,0,0,0,0,0,0,0,0,0,0,0,0,0,0,0,0,0,0,0,0,0,0,0,0,0,0,0,0,0,0,0,0,0,0,
0,0,0,0,0,0,0,0,0,0,0,0,0,0,0,0,0,0,0,0,0,0,0,0,0,0,0,0,0,0,0,0,0,0,0,0,0,0,0,0,0,0,0,0,0,0,0,0,0,0,0,0,0,0,0,0,0,0,0,0,0,0,0,0,0,0,0,0,0,0,0,0,0,0,0,0,0,0,0,0,0,0,0,0,0,0,0,0,0,0,0,0,0,0,0,0,0,0,0,0,0,0,0,0,0,0,0,0,0,0,0,0,0,0,0,0,0,0,0,0,0,0,0,0,0,0,0,0,0,0,0,0,0,0,0,0,0,0,0,0,0,0,0,0,0,0,0,0,0,0,
0,0,0,0,0,0,0,0,0,0,0,0,0,0,0,0,0,0,0,0,0,0,0,0,0,0,0,0,0,0,0,0,0,0,0,0,0,0,0,0,0,0,0,0,0,0,0,0,0,0,0,0,0,0,0,0,0,0,0,0,0,0,0,0,0,0,0,0,0,0,0,0,0,0,0,0,0,0,0,0,0,0,0,0,0,0,0,0,0,0,0,0,0,0,0,0,0,0,0,0,0,0,0,0,0,0,0,0,0,0,0,0,0,0,0,0,0,0,0,0,0,0,0,0,0,0,0,0,0,0,0,0,0,0,0,0,0,0,0,0,0,0,0,0,0,0,0,0,0,0,
0,0,0,0,0,0,0,0,0,0,0,0,0,0,0,0,0,0,0,0,0,0,0,0,0,0,0,0,0,0,0,0,0,0,0,0,0,0,0,0,0,0,0,0,0,0,0,0,0,0,0,0,0,0,0,0,0,0,0,0,0,0,0,0,0,0,0,0,0,0,0,0,0,0,0,0,0,0,0,0,0,0,0,0,0,0,0,0,0,0,0,0,0,0,0,0,0,0,0,0,0,0,0,0,0,0,0,0,0,0,0,0,0,0,0,0,0,0,0,0,0,0,0,0,0,0,0,0,0,0,0,0,0,0,0,0,0,0,0,0,0,0,0,0,0,0,0,0,0,0,
0,0,0,0,0,0,0,0,0,0,0,0,0,0,0,0,0,0,0,0,0,0,0,0,0,0,0,0,0,0,0,0,0,0,0,0,0,0,0,0,0,0,0,0,0,0,0,0,0,0,0,0,0,0,0,0,0,0,0,0,0,0,0,0,0,0,0,0,0,0,0,0,0,0,0,0,0,0,0,0,0,0,0,0,0,0,0,0,0,0,0,0,0,0,0,0,0,0,0,0,0,0,0,0,0,0,0,0,0,0,0,0,0,0,0,0,0,0,0,0,0,0,0,0,0,0,0,0,0,0,0,0,0,0,0,0,0,0,0,0,0,0,0,0,0,0,0,0,0,0,
0,0,0,0,0,0,0,0,0,0,0,0,0,0,0,0,0,0,0,0,0,0,0,0,0,0,0,0,0,0,0,0,0,0,0,0,0,0,0,0,0,0,0,0,0,0,0,0,0,0,0,0,0,0,0,0,0,0,0,0,0,0,0,0,0,0,0,0,0,0,0,0,0,0,0,0,0,0,0,0,0,0,0,0,0,0,0,0,0,0,0,0,0,0,0,0,0,0,0,0,0,0,0,0,0,0,0,0,0,0,0,0,0,0,0,0,0,0,0,0,0,0,0,0,0,0,0,0,0,0,0,0,0,0,0,0,0,0,0,0,0,0,0,0,0,0,0,0,0,0,
0,0,0,0,0,0,0,0,0,0,0,0,0,0,0,0,0,0,0,0,0,0,0,0,0,0,0,0,0,0,0,0,0,0,0,0,0,0,0,0,0,0,0,0,0,0,0,0,0,0,0,0,0,0,0,0,0,0,0,0,0,0,0,0,0,0,0,0,0,0,0,0,0,0,0,0,0,0,0,0,0,0,0,0,0,0,0,0,0,0,0,0,0,0,0,0,0,0,0,0,0,0,0,0,0,0,0,0,0,0,0,0,0,0,0,0,0,0,0,0,0,0,0,0,0,0,0,0,0,0,0,0,0,0,0,0,0,0,0,0,0,0,0,0,0,0,0,0,0,0,
0,0,0,0,0,0,0,0,0,0,0,0,0,0,0,0,0,0,0,0,0,0,0,0,0,0,0,0,0,0,0,0,0,0,0,0,0,0,0,0,0,0,0,0,0,0,0,0,0,0,0,0,0,0,0,0,0,0,0,0,0,0,0,0,0,0,0,0,0,0,0,0,0,0,0,0,0,0,0,0,0,0,0,0,0,0,0,0,0,0,0,0,0,0,0,0,0,0,0,0,0,0,0,0,0,0,0,0,0,0,0,0,0,0,0,0,0,0,0,0,0,0,0,0,0,0,0,0,0,0,0,0,0,0,0,0,0,0,0,0,0,0,0,0,0,0,0,0,0,0,
0,0,0,0,0,0,0,0,0,0,0,0,0,0,0,0,0,0,0,0,0,0,0,0,0,0,0,0,0,0,0,0,0,0,0,0,0,0,0,0,0,0,0,0,0,0,0,0,0,0,0,0,0,0,0,0,0,0,0,0,0,0,0,0,0,0,0,0,0,0,0,0,0,0,0,0,0,0,0,0,0,0,0,0,0,0,0,0,0,0,0,0,0,0,0,0,0,0,0,0,0,0,0,0,0,0,0,0,0,0,0,0,0,0,0,0,0,0,0,0,0,0,0,0,0,0,0,0,0,0,0,0,0,0,0,0,0,0,0,0,0,0,0,0,0,0,0,0,0,0,
0,0,0,0,0,0,0,0,0,0,0,0,0,0,0,0,0,0,0,0,0,0,0,0,0,0,0,0,0,0,0,0,0,0,0,0,0,0,0,0,0,0,0,0,0,0,0,0,0,0,0,0,0,0,0,0,0,0,0,0,0,0,0,0,0,0,0,0,0,0,0,0,0,0,0,0,0,0,0,0,0,0,0,0,0,0,0,0,0,0,0,0,0,0,0,0,0,0,0,0,0,0,0,0,0,0,0,0,0,0,0,0,0,0,0,0,0,0,0,0,0,0,0,0,0,0,0,0,0,0,0,0,0,0,0,0,0,0,0,0,0,0,0,0,0,0,0,0,0,0,
0,0,0,0,0,0,0,0,0,0,0,0,0,0,0,0,0,0,0,0,0,0,0,0,0,0,0,0,0,0,0,0,0,0,0,0,0,0,0,0,0,0,0,0,0,0,0,0,0,0,0,0,0,0,0,0,0,0,0,0,0,0,0,0,0,0,0,0,0,0,0,0,0,0,0,0,0,0,0,0,0,0,0,0,0,0,0,0,0,0,0,0,0,0,0,0,0,0,0,0,0,0,0,0,0,0,0,0,0,0,0,0,0,0,0,0,0,0,0,0,0,0,0,0,0,0,0,0,0,0,0,0,0,0,0,0,0,0,0,0,0,0,0,0,0,0,0,0,0,0,
0,0,0,0,0,0,0,0,0,0,0,0,0,0,0,0,0,0,0,0,0,0,0,0,0,0,0,0,0,0,0,0,0,0,0,0,0,0,0,0,0,0,0,0,0,0,0,0,0,0,0,0,0,0,0,0,0,0,0,0,0,0,0,0,0,0,0,0,0,0,0,0,0,0,0,0,0,0,0,0,0,0,0,0,0,0,0,0,0,0,0,0,0,0,0,0,0,0,0,0,0,0,0,0,0,0,0,0,0,0,0,0,0,0,0,0,0,0,0,0,0,0,0,0,0,0,0,0,0,0,0,0,0,0,0,0,0,0,0,0,0,0,0,0,0,0,0,0,0,0,
0,0,0,0,0,0,0,0,0,0,0,0,0,0,0,0,0,0,0,0,0,0,0,0,0,0,0,0,0,0,0,0,0,0,0,0,0,0,0,0,0,0,0,0,0,0,0,0,0,0,0,0,0,0,0,0,0,0,0,0,0,0,0,0,0,0,0,0,0,0,0,0,0,0,0,0,0,0,0,0,0,0,0,0,0,0,0,0,0,0,0,0,0,0,0,0,0,0,0,0,0,0,0,0,0,0,0,0,0,0,0,0,0,0,0,0,0,0,0,0,0,0,0,0,0,0,0,0,0,0,0,0,0,0,0,0,0,0,0,0,0,0,0,0,0,0,0,0,0,0,
0,0,0,0,0,0,0,0,0,0,0,0,0,0,0,0,0,0,0,0,0,0,0,0,0,0,0,0,0,0,0,0,0,0,0,0,0,0,0,0,0,0,0,0,0,0,0,0,0,0,0,0,0,0,0,0,0,0,0,0,0,0,0,0,0,0,0,0,0,0,0,0,0,0,0,0,0,0,0,0,0,0,0,0,0,0,0,0,0,0,0,0,0,0,0,0,0,0,0,0,0,0,0,0,0,0,0,0,0,0,0,0,0,0,0,0,0,0,0,0,0,0,0,0,0,0,0,0,0,0,0,0,0,0,0,0,0,0,0,0,0,0,0,0,0,0,0,0,0,0,
0,0,0,0,0,0,0,0,0,0,0,0,0,0,0,0,0,0,0,0,0,0,0,0,0,0,0,0,0,0,0,0,0,0,0,0,0,0,0,0,0,0,0,0,0,0,0,0,0,0,0,0,0,0,0,0,0,0,0,0,0,0,0,0,0,0,0,0,0,0,0,0,0,0,0,0,0,0,0,0,0,0,0,0,0,0,0,0,0,0,0,0,0,0,0,0,0,0,0,0,0,0,0,0,0,0,0,0,0,0,0,0,0,0,0,0,0,0,0,0,0,0,0,0,0,0,0,0,0,0,0,0,0,0,0,0,0,0,0,0,0,0,0,0,0,0,0,0,0,0,
0,0,0,0,0,0,0,0,0,0,0,0,0,0,0,0,0,0,0,0,0,0,0,0,0,0,0,0,0,0,0,0,0,0,0,0,0,0,0,0,0,0,0,0,0,0,0,0,0,0,0,0,0,0,0,0,0,0,0,0,0,0,0,0,0,0,0,0,0,0,0,0,0,0,0,0,0,0,0,0,0,0,0,0,0,0,0,0,0,0,0,0,0,0,0,0,0,0,0,0,0,0,0,0,0,0,0,0,0,0,0,0,0,0,0,0,0,0,0,0,0,0,0,0,0,0,0,0,0,0,0,0,0,0,0,0,0,0,0,0,0,0,0,0,0,0,0,0,0,0,
0,0,0,0,0,0,0,0,0,0,0,0,0,0,0,0,0,0,0,0,0,0,0,0,0,0,0,0,0,0,0,0,0,0,0,0,0,0,0,0,0,0,0,0,0,0,0,0,0,0,0,0,0,0,0,0,0,0,0,0,0,0,0,0,0,0,0,0,0,0,0,0,0,0,0,0,0,0,0,0,0,0,0,0,0,0,0,0,0,0,0,0,0,0,0,0,0,0,0,0,0,0,0,0,0,0,0,0,0,0,0,0,0,0,0,0,0,0,0,0,0,0,0,0,0,0,0,0,0,0,0,0,0,0,0,0,0,0,0,0,0,0,0,0,0,0,0,0,0,0,
0,0,0,0,0,0,0,0,0,0,0,0,0,0,0,0,0,0,0,0,0,0,0,0,0,0,0,0,0,0,0,0,0,0,0,0,0,0,0,0,0,0,0,0,0,0,0,0,0,0,0,0,0,0,0,0,0,0,0,0,0,0,0,0,0,0,0,0,0,0,0,0,0,0,0,0,0,0,0,0,0,0,0,0,0,0,0,0,0,0,0,0,0,0,0,0,0,0,0,0,0,0,0,0,0,0,0,0,0,0,0,0,0,0,0,0,0,0,0,0,0,0,0,0,0,0,0,0,0,0,0,0,0,0,0,0,0,0,0,0,0,0,0,0,0,0,0,0,0,0,
0,0,0,0,0,0,0,0,0,0,0,0,0,0,0,0,0,0,0,0,0,0,0,0,0,0,0,0,0,0,0,0,0,0,0,0,0,0,0,0,0,0,0,0,0,0,0,0,0,0,0,0,0,0,0,0,0,0,0,0,0,0,0,0,0,0,0,0,0,0,0,0,0,0,0,0,0,0,0,0,0,0,0,0,0,0,0,0,0,0,0,0,0,0,0,0,0,0,0,0,0,0,0,0,0,0,0,0,0,0,0,0,0,0,0,0,0,0,0,0,0,0,0,0,0,0,0,0,0,0,0,0,0,0,0,0,0,0,0,0,0,0,0,0,0,0,0,0,0,0,
0,0,0,0,0,0,0,0,0,0,0,0,0,0,0,0,0,0,0,0,0,0,0,0,0,0,0,0,0,0,0,0,0,0,0,0,0,0,0,0,0,0,0,0,0,0,0,0,0,0,0,0,0,0,0,0,0,0,0,0,0,0,0,0,0,0,0,0,0,0,0,0,0,0,0,0,0,0,0,0,0,0,0,0,0,0,0,0,0,0,0,0,0,0,0,0,0,0,0,0,0,0,0,0,0,0,0,0,0,0,0,0,0,0,0,0,0,0,0,0,0,0,0,0,0,0,0,0,0,0,0,0,0,0,0,0,0,0,0,0,0,0,0,0,0,0,0,0,0,0,
0,0,0,0,0,0,0,0,0,0,0,0,0,0,0,0,0,0,0,0,0,0,0,0,0,0,0,0,0,0,0,0,0,0,0,0,0,0,0,0,0,0,0,0,0,0,0,0,0,0,0,0,0,0,0,0,0,0,0,0,0,0,0,0,0,0,0,0,0,0,0,0,0,0,0,0,0,0,0,0,0,0,0,0,0,0,0,0,0,0,0,0,0,0,0,0,0,0,0,0,0,0,0,0,0,0,0,0,0,0,0,0,0,0,0,0,0,0,0,0,0,0,0,0,0,0,0,0,0,0,0,0,0,0,0,0,0,0,0,0,0,0,0,0,0,0,0,0,0,0,
0,0,0,0,0,0,0,0,0,0,0,0,0,0,0,0,0,0,0,0,0,0,0,0,0,0,0,0,0,0,0,0,0,0,0,0,0,0,0,0,0,0,0,0,0,0,0,0,0,0,0,0,0,0,0,0,0,0,0,0,0,0,0,0,0,0,0,0,0,0,0,0,0,0,0,0,0,0,0,0,0,0,0,0,0,0,0,0,0,0,0,0,0,0,0,0,0,0,0,0,0,0,0,0,0,0,0,0,0,0,0,0,0,0,0,0,0,0,0,0,0,0,0,0,0,0,0,0,0,0,0,0,0,0,0,0,0,0,0,0,0,0,0,0,0,0,0,0,0,0,
0,0,0,0,0,0,0,0,0,0,0,0,0,0,0,0,0,0,0,0,0,0,0,0,0,0,0,0,0,0,0,0,0,0,0,0,0,0,0,0,0,0,0,0,0,0,0,0,0,0,0,0,0,0,0,0,0,0,0,0,0,0,0,0,0,0,0,0,0,0,0,0,0,0,0,0,0,0,0,0,0,0,0,0,0,0,0,0,0,0,0,0,0,0,0,0,0,0,0,0,0,0,0,0,0,0,0,0,0,0,0,0,0,0,0,0,0,0,0,0,0,0,0,0,0,0,0,0,0,0,0,0,0,0,0,0,0,0,0,0,0,0,0,0,0,0,0,0,0,0,
0,0,0,0,0,0,0,0,0,0,0,0,0,0,0,0,0,0,0,0,0,0,0,0,0,0,0,0,0,0,0,0,0,0,0,0,0,0,0,0,0,0,0,0,0,0,0,0,0,0,0,0,0,0,0,0,0,0,0,0,0,0,0,0,0,0,0,0,0,0,0,0,0,0,0,0,0,0,0,0,0,0,0,0,0,0,0,0,0,0,0,0,0,0,0,0,0,0,0,0,0,0,0,0,0,0,0,0,0,0,0,0,0,0,0,0,0,0,0,0,0,0,0,0,0,0,0,0,0,0,0,0,0,0,0,0,0,0,0,0,0,0,0,0,0,0,0,0,0,0,
0,0,0,0,0,0,0,0,0,0,0,0,0,0,0,0,0,0,0,0,0,0,0,0,0,0,0,0,0,0,0,0,0,0,0,0,0,0,0,0,0,0,0,0,0,0,0,0,0,0,0,0,0,0,0,0,0,0,0,0,0,0,0,0,0,0,0,0,0,0,0,0,0,0,0,0,0,0,0,0,0,0,0,0,0,0,0,0,0,0,0,0,0,0,0,0,0,0,0,0,0,0,0,0,0,0,0,0,0,0,0,0,0,0,0,0,0,0,0,0,0,0,0,0,0,0,0,0,0,0,0,0,0,0,0,0,0,0,0,0,0,0,0,0,0,0,0,0,0,0,
0,0,0,0,0,0,0,0,0,0,0,0,0,0,0,0,0,0,0,0,0,0,0,0,0,0,0,0,0,0,0,0,0,0,0,0,0,0,0,0,0,0,0,0,0,0,0,0,0,0,0,0,0,0,0,0,0,0,0,0,0,0,0,0,0,0,0,0,0,0,0,0,0,0,0,0,0,0,0,0,0,0,0,0,0,0,0,0,0,0,0,0,0,0,0,0,0,0,0,0,0,0,0,0,0,0,0,0,0,0,0,0,0,0,0,0,0,0,0,0,0,0,0,0,0,0,0,0,0,0,0,0,0,0,0,0,0,0,0,0,0,0,0,0,0,0,0,0,0,0,
0,0,0,0,0,0,0,0,0,0,0,0,0,0,0,0,0,0,0,0,0,0,0,0,0,0,0,0,0,0,0,0,0,0,0,0,0,0,0,0,0,0,0,0,0,0,0,0,0,0,0,0,0,0,0,0,0,0,0,0,0,0,0,0,0,0,0,0,0,0,0,0,0,0,0,0,0,0,0,0,0,0,0,0,0,0,0,0,0,0,0,0,0,0,0,0,0,0,0,0,0,0,0,0,0,0,0,0,0,0,0,0,0,0,0,0,0,0,0,0,0,0,0,0,0,0,0,0,0,0,0,0,0,0,0,0,0,0,0,0,0,0,0,0,0,0,0,0,0,0,
0,0,0,0,0,0,0,0,0,0,0,0,0,0,0,0,0,0,0,0,0,0,0,0,0,0,0,0,0,0,0,0,0,0,0,0,0,0,0,0,0,0,0,0,0,0,0,0,0,0,0,0,0,0,0,0,0,0,0,0,0,0,0,0,0,0,0,0,0,0,0,0,0,0,0,0,0,0,0,0,0,0,0,0,0,0,0,0,0,0,0,0,0,0,0,0,0,0,0,0,0,0,0,0,0,0,0,0,0,0,0,0,0,0,0,0,0,0,0,0,0,0,0,0,0,0,0,0,0,0,0,0,0,0,0,0,0,0,0,0,0,0,0,0,0,0,0,0,0,0,
0,0,0,0,0,0,0,0,0,0,0,0,0,0,0,0,0,0,0,0,0,0,0,0,0,0,0,0,0,0,0,0,0,0,0,0,0,0,0,0,0,0,0,0,0,0,0,0,0,0,0,0,0,0,0,0,0,0,0,0,0,0,0,0,0,0,0,0,0,0,0,0,0,0,0,0,0,0,0,0,0,0,0,0,0,0,0,0,0,0,0,0,0,0,0,0,0,0,0,0,0,0,0,0,0,0,0,0,0,0,0,0,0,0,0,0,0,0,0,0,0,0,0,0,0,0,0,0,0,0,0,0,0,0,0,0,0,0,0,0,0,0,0,0,0,0,0,0,0,0,
0,0,0,0,0,0,0,0,0,0,0,0,0,0,0,0,0,0,0,0,0,0,0,0,0,0,0,0,0,0,0,0,0,0,0,0,0,0,0,0,0,0,0,0,0,0,0,0,0,0,0,0,0,0,0,0,0,0,0,0,0,0,0,0,0,0,0,0,0,0,0,0,0,0,0,0,0,0,0,0,0,0,0,0,0,0,0,0,0,0,0,0,0,0,0,0,0,0,0,0,0,0,0,0,0,0,0,0,0,0,0,0,0,0,0,0,0,0,0,0,0,0,0,0,0,0,0,0,0,0,0,0,0,0,0,0,0,0,0,0,0,0,0,0,0,0,0,0,0,0,
0,0,0,0,0,0,0,0,0,0,0,0,0,0,0,0,0,0,0,0,0,0,0,0,0,0,0,0,0,0,0,0,0,0,0,0,0,0,0,0,0,0,0,0,0,0,0,0,0,0,0,0,0,0,0,0,0,0,0,0,0,0,0,0,0,0,0,0,0,0,0,0,0,0,0,0,0,0,0,0,0,0,0,0,0,0,0,0,0,0,0,0,0,0,0,0,0,0,0,0,0,0,0,0,0,0,0,0,0,0,0,0,0,0,0,0,0,0,0,0,0,0,0,0,0,0,0,0,0,0,0,0,0,0,0,0,0,0,0,0,0,0,0,0,0,0,0,0,0,0,
0,0,0,0,0,0,0,0,0,0,0,0,0,0,0,0,0,0,0,0,0,0,0,0,0,0,0,0,0,0,0,0,0,0,0,0,0,0,0,0,0,0,0,0,0,0,0,0,0,0,0,0,0,0,0,0,0,0,0,0,0,0,0,0,0,0,0,0,0,0,0,0,0,0,0,0,0,0,0,0,0,0,0,0,0,0,0,0,0,0,0,0,0,0,0,0,0,0,0,0,0,0,0,0,0,0,0,0,0,0,0,0,0,0,0,0,0,0,0,0,0,0,0,0,0,0,0,0,0,0,0,0,0,0,0,0,0,0,0,0,0,0,0,0,0,0,0,0,0,0,
0,0,0,0,0,0,0,0,0,0,0,0,0,0,0,0,0,0,0,0,0,0,0,0,0,0,0,0,0,0,0,0,0,0,0,0,0,0,0,0,0,0,0,0,0,0,0,0,0,0,0,0,0,0,0,0,0,0,0,0,0,0,0,0,0,0,0,0,0,0,0,0,0,0,0,0,0,0,0,0,0,0,0,0,0,0,0,0,0,0,0,0,0,0,0,0,0,0,0,0,0,0,0,0,0,0,0,0,0,0,0,0,0,0,0,0,0,0,0,0,0,0,0,0,0,0,0,0,0,0,0,0,0,0,0,0,0,0,0,0,0,0,0,0,0,0,0,0,0,0,
0,0,0,0,0,0,0,0,0,0,0,0,0,0,0,0,0,0,0,0,0,0,0,0,0,0,0,0,0,0,0,0,0,0,0,0,0,0,0,0,0,0,0,0,0,0,0,0,0,0,0,0,0,0,0,0,0,0,0,0,0,0,0,0,0,0,0,0,0,0,0,0,0,0,0,0,0,0,0,0,0,0,0,0,0,0,0,0,0,0,0,0,0,0,0,0,0,0,0,0,0,0,0,0,0,0,0,0,0,0,0,0,0,0,0,0,0,0,0,0,0,0,0,0,0,0,0,0,0,0,0,0,0,0,0,0,0,0,0,0,0,0,0,0,0,0,0,0,0,0,
0,0,0,0,0,0,0,0,0,0,0,0,0,0,0,0,0,0,0,0,0,0,0,0,0,0,0,0,0,0,0,0,0,0,0,0,0,0,0,0,0,0,0,0,0,0,0,0,0,0,0,0,0,0,0,0,0,0,0,0,0,0,0,0,0,0,0,0,0,0,0,0,0,0,0,0,0,0,0,0,0,0,0,0,0,0,0,0,0,0,0,0,0,0,0,0,0,0,0,0,0,0,0,0,0,0,0,0,0,0,0,0,0,0,0,0,0,0,0,0,0,0,0,0,0,0,0,0,0,0,0,0,0,0,0,0,0,0,0,0,0,0,0,0,0,0,0,0,0,0,
0,0,0,0,0,0,0,0,0,0,0,0,0,0,0,0,0,0,0,0,0,0,0,0,0,0,0,0,0,0,0,0,0,0,0,0,0,0,0,0,0,0,0,0,0,0,0,0,0,0,0,0,0,0,0,0,0,0,0,0,0,0,0,0,0,0,0,0,0,0,0,0,0,0,0,0,0,0,0,0,0,0,0,0,0,0,0,0,0,0,0,0,0,0,0,0,0,0,0,0,0,0,0,0,0,0,0,0,0,0,0,0,0,0,0,0,0,0,0,0,0,0,0,0,0,0,0,0,0,0,0,0,0,0,0,0,0,0,0,0,0,0,0,0,0,0,0,0,0,0,
0,0,0,0,0,0,0,0,0,0,0,0,0,0,0,0,0,0,0,0,0,0,0,0,0,0,0,0,0,0,0,0,0,0,0,0,0,0,0,0,0,0,0,0,0,0,0,0,0,0,0,0,0,0,0,0,0,0,0,0,0,0,0,0,0,0,0,0,0,0,0,0,0,0,0,0,0,0,0,0,0,0,0,0,0,0,0,0,0,0,0,0,0,0,0,0,0,0,0,0,0,0,0,0,0,0,0,0,0,0,0,0,0,0,0,0,0,0,0,0,0,0,0,0,0,0,0,0,0,0,0,0,0,0,0,0,0,0,0,0,0,0,0,0,0,0,0,0,0,0,
0,0,0,0,0,0,0,0,0,0,0,0,0,0,0,0,0,0,0,0,0,0,0,0,0,0,0,0,0,0,0,0,0,0,0,0,0,0,0,0,0,0,0,0,0,0,0,0,0,0,0,0,0,0,0,0,0,0,0,0,0,0,0,0,0,0,0,0,0,0,0,0,0,0,0,0,0,0,0,0,0,0,0,0,0,0,0,0,0,0,0,0,0,0,0,0,0,0,0,0,0,0,0,0,0,0,0,0,0,0,0,0,0,0,0,0,0,0,0,0,0,0,0,0,0,0,0,0,0,0,0,0,0,0,0,0,0,0,0,0,0,0,0,0,0,0,0,0,0,0,
0,0,0,0,0,0,0,0,0,0,0,0,0,0,0,0,0,0,0,0,0,0,0,0,0,0,0,0,0,0,0,0,0,0,0,0,0,0,0,0,0,0,0,0,0,0,0,0,0,0,0,0,0,0,0,0,0,0,0,0,0,0,0,0,0,0,0,0,0,0,0,0,0,0,0,0,0,0,0,0,0,0,0,0,0,0,0,0,0,0,0,0,0,0,0,0,0,0,0,0,0,0,0,0,0,0,0,0,0,0,0,0,0,0,0,0,0,0,0,0,0,0,0,0,0,0,0,0,0,0,0,0,0,0,0,0,0,0,0,0,0,0,0,0,0,0,0,0,0,0,
0,0,0,0,0,0,0,0,0,0,0,0,0,0,0,0,0,0,0,0,0,0,0,0,0,0,0,0,0,0,0,0,0,0,0,0,0,0,0,0,0,0,0,0,0,0,0,0,0,0,0,0,0,0,0,0,0,0,0,0,0,0,0,0,0,0,0,0,0,0,0,0,0,0,0,0,0,0,0,0,0,0,0,0,0,0,0,0,0,0,0,0,0,0,0,0,0,0,0,0,0,0,0,0,0,0,0,0,0,0,0,0,0,0,0,0,0,0,0,0,0,0,0,0,0,0,0,0,0,0,0,0,0,0,0,0,0,0,0,0,0,0,0,0,0,0,0,0,0,0,
0,0,0,0,0,0,0,0,0,0,0,0,0,0,0,0,0,0,0,0,0,0,0,0,0,0,0,0,0,0,0,0,0,0,0,0,0,0,0,0,0,0,0,0,0,0,0,0,0,0,0,0,0,0,0,0,0,0,0,0,0,0,0,0,0,0,0,0,0,0,0,0,0,0,0,0,0,0,0,0,0,0,0,0,0,0,0,0,0,0,0,0,0,0,0,0,0,0,0,0,0,0,0,0,0,0,0,0,0,0,0,0,0,0,0,0,0,0,0,0,0,0,0,0,0,0,0,0,0,0,0,0,0,0,0,0,0,0,0,0,0,0,0,0,0,0,0,0,0,0,
0,0,0,0,0,0,0,0,0,0,0,0,0,0,0,0,0,0,0,0,0,0,0,0,0,0,0,0,0,0,0,0,0,0,0,0,0,0,0,0,0,0,0,0,0,0,0,0,0,0,0,0,0,0,0,0,0,0,0,0,0,0,0,0,0,0,0,0,0,0,0,0,0,0,0,0,0,0,0,0,0,0,0,0,0,0,0,0,0,0,0,0,0,0,0,0,0,0,0,0,0,0,0,0,0,0,0,0,0,0,0,0,0,0,0,0,0,0,0,0,0,0,0,0,0,0,0,0,0,0,0,0,0,0,0,0,0,0,0,0,0,0,0,0,0,0,0,0,0,0,
0,0,0,0,0,0,0,0,0,0,0,0,0,0,0,0,0,0,0,0,0,0,0,0,0,0,0,0,0,0,0,0,0,0,0,0,0,0,0,0,0,0,0,0,0,0,0,0,0,0,0,0,0,0,0,0,0,0,0,0,0,0,0,0,0,0,0,0,0,0,0,0,0,0,0,0,0,0,0,0,0,0,0,0,0,0,0,0,0,0,0,0,0,0,0,0,0,0,0,0,0,0,0,0,0,0,0,0,0,0,0,0,0,0,0,0,0,0,0,0,0,0,0,0,0,0,0,0,0,0,0,0,0,0,0,0,0,0,0,0,0,0,0,0,0,0,0,0,0,0,
0,0,0,0,0,0,0,0,0,0,0,0,0,0,0,0,0,0,0,0,0,0,0,0,0,0,0,0,0,0,0,0,0,0,0,0,0,0,0,0,0,0,0,0,0,0,0,0,0,0,0,0,0,0,0,0,0,0,0,0,0,0,0,0,0,0,0,0,0,0,0,0,0,0,0,0,0,0,0,0,0,0,0,0,0,0,0,0,0,0,0,0,0,0,0,0,0,0,0,0,0,0,0,0,0,0,0,0,0,0,0,0,0,0,0,0,0,0,0,0,0,0,0,0,0,0,0,0,0,0,0,0,0,0,0,0,0,0,0,0,0,0,0,0,0,0,0,0,0,0,
0,0,0,0,0,0,0,0,0,0,0,0,0,0,0,0,0,0,0,0,0,0,0,0,0,0,0,0,0,0,0,0,0,0,0,0,0,0,0,0,0,0,0,0,0,0,0,0,0,0,0,0,0,0,0,0,0,0,0,0,0,0,0,0,0,0,0,0,0,0,0,0,0,0,0,0,0,0,0,0,0,0,0,0,0,0,0,0,0,0,0,0,0,0,0,0,0,0,0,0,0,0,0,0,0,0,0,0,0,0,0,0,0,0,0,0,0,0,0,0,0,0,0,0,0,0,0,0,0,0,0,0,0,0,0,0,0,0,0,0,0,0,0,0,0,0,0,0,0,0
</data>
 </layer>
 <layer id="7" name="saku" width="150" height="100">
  <data encoding="csv">
0,0,0,0,0,0,0,0,0,0,0,0,0,0,0,0,0,0,0,0,0,0,0,0,0,0,0,0,0,0,0,0,0,0,0,0,0,0,0,0,0,0,0,0,0,0,0,0,0,0,0,0,0,0,0,0,0,0,0,0,0,0,0,0,0,0,0,0,0,0,0,0,0,0,0,0,0,0,0,0,0,0,0,0,0,0,0,0,0,0,0,0,0,0,0,0,0,0,0,0,0,0,0,0,0,0,0,0,0,0,0,0,0,0,0,0,0,0,0,0,0,0,0,0,0,0,0,0,0,0,0,0,0,0,0,0,0,0,0,0,0,0,0,0,0,0,0,0,0,0,
0,0,0,0,0,0,0,0,0,0,0,0,0,0,0,0,0,0,0,0,0,0,0,0,0,0,0,0,0,0,0,0,0,0,0,0,0,0,0,0,0,0,0,0,0,0,0,0,0,0,0,0,0,0,0,0,0,0,0,0,0,0,0,0,0,0,0,0,0,0,0,0,0,0,0,0,0,0,0,0,0,0,0,0,0,0,0,0,0,0,0,0,0,0,0,0,0,0,0,0,0,0,0,0,0,0,0,0,0,0,0,0,0,0,0,0,0,0,0,0,0,0,0,0,0,0,0,0,0,0,0,0,0,0,0,0,0,0,0,0,0,0,0,0,0,0,0,0,0,0,
0,0,0,0,0,0,0,0,0,0,0,0,0,0,0,0,0,0,0,0,0,0,0,0,0,0,0,0,0,0,0,0,0,0,0,0,0,0,0,0,0,0,0,0,0,0,0,0,0,0,0,0,0,0,0,0,0,0,0,0,0,0,0,0,0,0,0,0,0,0,0,0,0,0,0,0,0,0,0,0,0,0,0,0,0,0,0,0,0,0,0,0,0,0,0,0,0,0,0,0,0,0,0,0,0,0,0,0,0,0,0,0,0,0,0,0,0,0,0,0,0,0,0,0,0,0,0,0,0,0,0,0,0,0,0,0,0,0,0,0,0,0,0,0,0,0,0,0,0,0,
0,0,0,0,0,0,0,0,0,0,0,0,0,0,0,0,0,0,0,0,0,0,0,0,0,0,0,0,0,0,0,0,0,0,0,0,0,0,0,0,0,0,0,0,0,0,0,0,0,0,0,0,0,0,0,0,0,0,0,0,0,0,0,0,0,0,0,0,0,0,0,0,0,0,0,0,0,0,0,0,0,0,0,0,0,0,0,0,0,0,0,0,0,0,0,0,0,0,0,0,0,0,0,0,0,0,0,0,0,0,0,0,0,0,0,0,0,0,0,0,0,0,0,0,0,0,0,0,0,0,0,0,0,0,0,0,0,0,0,0,0,0,0,0,0,0,0,0,0,0,
0,0,0,0,0,0,0,0,0,0,0,0,0,0,0,0,0,0,0,0,0,0,0,0,0,0,0,0,0,0,0,0,0,0,0,0,0,0,0,0,0,0,0,0,0,0,0,0,0,0,0,0,0,0,0,0,0,0,0,0,0,0,0,0,0,0,0,0,0,0,0,0,0,0,0,0,0,0,0,0,0,0,0,0,0,0,0,0,0,0,0,0,0,0,0,0,0,0,0,0,0,0,0,0,0,0,0,0,0,0,0,0,0,0,0,0,0,0,0,0,0,0,0,0,0,0,0,0,0,0,0,0,0,0,0,0,0,0,0,0,0,0,0,0,0,0,0,0,0,0,
0,0,0,0,0,0,0,0,0,0,0,0,0,0,0,0,0,0,0,0,0,0,0,0,0,0,0,0,0,0,0,0,0,0,0,0,0,0,0,0,0,0,0,0,0,0,0,0,0,0,0,0,0,0,0,0,0,0,0,0,0,0,0,0,0,0,0,0,0,0,0,0,0,0,0,0,0,0,0,0,0,0,0,0,0,0,0,0,0,0,0,0,0,0,0,0,0,0,0,0,0,0,0,0,0,0,0,0,0,0,0,0,0,0,0,0,0,0,0,0,0,0,0,0,0,0,0,0,0,0,0,0,0,0,0,0,0,0,0,0,0,0,0,0,0,0,0,0,0,0,
0,0,0,0,0,0,0,0,0,0,0,0,0,0,0,0,0,0,0,0,0,0,0,0,0,0,0,0,0,0,0,0,0,0,0,0,0,0,0,0,0,0,0,0,0,0,0,0,0,0,0,0,0,0,0,0,0,0,0,0,0,0,0,0,0,0,0,0,0,0,0,0,0,0,0,0,0,0,0,0,0,0,0,0,0,0,0,0,0,0,0,0,0,0,0,0,0,0,0,0,0,0,0,0,0,0,0,0,0,0,0,0,0,0,0,0,0,0,0,0,0,0,0,0,0,0,0,0,0,0,0,0,0,0,0,0,0,0,0,0,0,0,0,0,0,0,0,0,0,0,
0,0,0,0,0,0,0,0,0,0,0,0,0,0,0,0,0,0,0,0,0,0,0,0,0,0,0,0,0,0,0,0,0,0,0,0,0,0,0,0,0,0,0,0,0,0,0,0,0,0,0,0,0,0,0,0,0,0,0,0,0,0,0,0,0,0,0,0,0,0,0,0,0,0,0,0,0,0,0,0,0,0,0,0,0,0,0,0,0,0,0,0,0,0,0,0,0,0,0,0,0,0,0,0,0,0,0,0,0,0,0,0,0,0,0,0,0,0,0,0,0,0,0,0,0,0,0,0,0,0,0,0,0,0,0,0,0,0,0,0,0,0,0,0,0,0,0,0,0,0,
0,0,0,0,0,0,0,0,0,0,0,0,0,0,0,0,0,0,0,0,0,0,0,0,0,0,0,0,0,0,0,0,0,0,0,0,0,0,0,0,0,0,0,0,0,0,0,0,0,0,0,0,0,0,0,0,0,0,0,0,0,0,0,0,0,0,0,0,0,0,0,0,0,0,0,0,0,0,0,0,0,0,0,0,0,0,0,0,0,0,0,0,0,0,0,0,0,0,0,0,0,0,0,0,0,0,0,0,0,0,0,0,0,0,0,0,0,0,0,0,0,0,0,0,0,0,0,0,0,0,0,0,0,0,0,0,0,0,0,0,0,0,0,0,0,0,0,0,0,0,
0,0,0,0,0,0,0,0,0,0,0,0,0,0,0,0,0,0,0,0,0,0,0,0,0,0,0,0,0,0,0,0,0,0,0,0,0,0,0,0,0,0,0,0,0,0,0,0,0,0,0,0,0,0,0,0,0,0,0,0,0,0,0,0,0,0,0,0,0,0,0,0,0,0,0,0,0,0,0,0,0,0,0,0,0,0,0,0,0,0,0,0,0,0,0,0,0,0,0,0,0,0,0,0,0,0,0,0,0,0,0,0,0,0,0,0,0,0,0,0,0,0,0,0,0,0,0,0,0,0,0,0,0,0,0,0,0,0,0,0,0,0,0,0,0,0,0,0,0,0,
0,0,0,0,0,0,0,0,0,0,0,0,0,0,0,0,0,0,0,0,0,0,0,0,0,0,0,0,0,0,0,0,0,0,0,0,0,0,0,0,0,0,0,0,0,0,0,0,0,0,0,0,0,0,0,0,0,0,0,0,0,0,0,0,0,0,0,0,0,0,0,0,0,0,0,0,0,0,0,0,0,0,0,0,0,0,0,0,0,0,0,0,0,0,0,0,0,0,0,0,0,0,0,0,0,0,0,0,0,0,0,0,0,0,0,0,0,0,0,0,0,0,0,0,0,0,0,0,0,0,0,0,0,0,0,0,0,0,0,0,0,0,0,0,0,0,0,0,0,0,
0,0,0,0,0,0,0,0,0,0,0,0,0,0,0,0,0,0,0,0,0,0,0,0,0,0,0,0,0,0,0,0,0,0,0,0,0,0,0,0,0,0,0,0,0,0,0,0,0,0,0,0,0,0,0,0,0,0,0,0,0,0,0,0,0,0,0,0,0,0,0,0,0,0,0,0,0,0,0,0,0,0,0,0,0,0,0,0,0,0,0,0,0,0,0,0,0,0,0,0,0,0,0,0,0,0,0,0,0,0,0,0,0,0,0,0,0,0,0,0,0,0,0,0,0,0,0,0,0,0,0,0,0,0,0,0,0,0,0,0,0,0,0,0,0,0,0,0,0,0,
0,0,0,0,0,0,0,0,0,0,0,0,0,0,0,0,0,0,0,0,0,0,0,0,0,0,0,0,0,0,0,0,0,0,0,0,0,0,0,0,0,0,0,0,0,0,0,0,0,0,0,0,0,0,0,0,0,0,0,0,0,0,0,0,0,0,0,0,0,0,0,0,0,0,0,0,0,0,0,0,0,0,0,0,0,0,0,0,0,0,0,0,0,0,0,0,0,0,0,0,0,0,0,0,0,0,0,0,0,0,0,0,0,0,0,0,0,0,0,0,0,0,0,0,0,0,0,0,0,0,0,0,0,0,0,0,0,0,0,0,0,0,0,0,0,0,0,0,0,0,
0,0,0,0,0,0,0,0,0,0,0,0,0,0,0,0,0,0,0,0,0,0,0,0,0,0,0,0,0,0,0,0,0,0,0,0,0,0,0,0,0,0,0,0,0,0,0,0,0,0,0,0,0,0,0,0,0,0,0,0,0,0,0,0,0,0,0,0,0,0,0,0,0,0,0,0,0,0,0,0,0,0,0,0,0,0,0,0,0,0,0,0,0,0,0,0,0,0,0,0,0,0,0,0,0,0,0,0,0,0,0,0,0,0,0,0,0,0,0,0,0,0,0,0,0,0,0,0,0,0,0,0,0,0,0,0,0,0,0,0,0,0,0,0,0,0,0,0,0,0,
0,0,0,0,0,0,0,0,0,0,0,0,0,0,0,0,0,0,0,0,0,0,0,0,0,0,0,0,0,0,0,0,0,0,0,0,0,0,0,0,0,0,0,0,0,0,0,0,0,0,0,0,0,0,0,0,0,0,0,0,0,0,0,0,0,0,0,0,0,0,0,0,0,0,0,0,0,0,0,0,0,0,0,0,0,0,0,0,0,0,0,0,0,0,0,0,0,0,0,0,0,0,0,0,0,0,0,0,0,0,0,0,0,0,0,0,0,0,0,0,0,0,0,0,0,0,0,0,0,0,0,0,0,0,0,0,0,0,0,0,0,0,0,0,0,0,0,0,0,0,
0,0,0,0,0,0,0,0,0,0,0,0,0,0,0,0,0,0,0,0,0,0,0,0,0,0,0,0,0,0,0,0,0,0,0,0,0,0,0,0,0,0,0,0,0,0,0,0,0,0,0,0,0,0,0,0,0,0,0,0,0,0,0,0,0,0,0,0,0,0,0,0,0,0,0,0,0,0,0,0,0,0,0,0,0,0,0,0,0,0,0,0,0,0,0,0,0,0,0,0,0,0,0,0,0,0,0,0,0,0,0,0,0,0,0,0,0,0,0,0,0,0,0,0,0,0,0,0,0,0,0,0,0,0,0,0,0,0,0,0,0,0,0,0,0,0,0,0,0,0,
0,0,0,0,0,0,0,0,0,0,0,0,0,0,0,0,0,0,0,0,0,0,0,0,0,0,0,0,0,0,0,0,0,0,0,0,0,0,0,0,0,0,0,0,0,0,0,0,0,0,0,0,0,0,0,0,0,0,0,0,0,0,0,0,0,0,0,0,0,0,0,0,0,0,0,0,0,0,0,0,0,0,0,0,0,0,0,0,0,0,0,0,0,0,0,0,0,0,0,0,0,0,0,0,0,0,0,0,0,0,0,0,0,0,0,0,0,0,0,0,0,0,0,0,0,0,0,0,0,0,0,0,0,0,0,0,0,0,0,0,0,0,0,0,0,0,0,0,0,0,
0,0,0,0,0,0,0,0,0,0,0,0,0,0,0,0,0,0,0,0,0,0,0,0,0,0,0,0,0,0,0,0,0,0,0,0,0,0,0,0,0,0,0,0,0,0,0,0,0,0,0,0,0,0,0,0,0,0,0,0,0,0,0,0,0,0,0,0,0,0,0,0,0,0,0,0,0,0,0,0,0,0,0,0,0,0,0,0,0,0,0,0,0,0,0,0,0,0,0,0,0,0,0,0,0,0,0,0,0,0,0,0,0,0,0,0,0,0,0,0,0,0,0,0,0,0,0,0,0,0,0,0,0,0,0,0,0,0,0,0,0,0,0,0,0,0,0,0,0,0,
133,0,0,0,133,0,0,0,0,133,0,0,0,133,0,0,0,0,0,0,0,0,0,0,0,0,0,0,0,0,0,0,0,0,0,0,0,0,0,0,0,0,0,0,0,0,0,0,0,0,0,0,0,0,0,0,0,0,0,0,0,0,0,0,0,0,0,0,0,0,0,0,0,0,0,0,0,0,0,0,0,0,0,0,0,0,0,0,0,0,0,0,0,0,0,0,0,0,0,0,0,0,0,0,0,0,0,0,0,0,0,0,0,0,0,0,0,0,0,0,0,0,0,0,0,0,0,0,0,0,0,0,0,0,0,0,0,0,0,0,0,0,0,0,0,0,0,0,0,0,
0,0,0,0,0,0,0,0,0,0,0,0,0,0,0,0,0,0,0,0,0,0,0,0,0,0,0,0,0,0,0,0,0,0,0,0,0,0,0,0,0,0,0,0,0,0,0,0,0,0,0,0,0,0,0,0,0,0,0,0,0,0,0,0,0,0,0,0,0,0,0,0,0,0,0,0,0,0,0,0,0,0,0,0,0,0,0,0,0,0,0,0,0,0,0,0,0,0,0,0,0,0,0,0,0,0,0,0,0,0,0,0,0,0,0,0,0,0,0,0,0,0,0,0,0,0,0,0,0,0,0,0,0,0,0,0,0,0,0,0,0,0,0,0,0,0,0,0,0,0,
0,0,0,0,0,0,0,0,0,0,0,0,0,0,0,0,0,0,0,0,0,0,0,0,0,0,0,0,0,0,0,0,0,0,0,0,0,0,0,0,0,0,0,0,0,0,0,0,0,0,0,0,0,0,0,0,0,0,0,0,0,0,0,0,0,0,0,0,0,0,0,0,0,0,0,0,0,0,0,0,0,0,0,0,0,0,0,0,0,0,0,0,0,0,0,0,0,0,0,0,0,0,0,0,0,0,0,0,0,0,0,0,0,0,0,0,0,0,0,0,0,0,0,0,0,0,0,0,0,0,0,0,0,0,0,0,0,0,0,0,0,0,0,0,0,0,0,0,0,0,
0,0,0,0,0,0,0,0,0,0,0,0,0,0,0,0,0,0,0,0,0,0,0,0,0,0,0,0,0,0,0,0,0,0,0,0,0,0,0,0,0,0,0,0,0,0,0,0,0,0,0,0,0,0,0,0,0,0,0,0,0,0,0,0,0,0,0,0,0,0,0,0,0,0,0,0,0,0,0,0,0,0,0,0,0,0,0,0,0,0,0,0,0,0,0,0,0,0,0,0,0,0,0,0,0,0,0,0,0,0,0,0,0,0,0,0,0,0,0,0,0,0,0,0,0,0,0,0,0,0,0,0,0,0,0,0,0,0,0,0,0,0,0,0,0,0,0,0,0,0,
0,0,0,0,0,0,0,0,0,0,0,0,0,0,0,0,0,0,0,0,0,0,0,0,0,0,0,0,0,0,0,0,0,0,0,0,0,0,0,0,0,0,0,0,0,0,0,0,0,0,0,0,0,0,0,0,0,0,0,0,0,0,0,0,0,0,0,0,0,0,0,0,0,0,0,0,0,0,0,0,0,0,0,0,0,0,0,0,0,0,0,0,0,0,0,0,0,0,0,0,0,0,0,0,0,0,0,0,0,0,0,0,0,0,0,0,0,0,0,0,0,0,0,0,0,0,0,0,0,0,0,0,0,0,0,0,0,0,0,0,0,0,0,0,0,0,0,0,0,0,
0,0,0,0,0,0,0,0,0,0,0,0,0,0,0,0,0,0,0,0,0,0,0,0,0,0,0,0,0,0,0,0,0,0,0,0,0,0,0,0,0,0,0,0,0,0,0,0,0,0,0,0,0,0,0,0,0,0,0,0,0,0,0,0,0,0,0,0,0,0,0,0,0,0,0,0,0,0,0,0,0,0,0,0,0,0,0,0,0,0,0,0,0,0,0,0,0,0,0,0,0,0,0,0,0,0,0,0,0,0,0,0,0,0,0,0,0,0,0,0,0,0,0,0,0,0,0,0,0,0,0,0,0,0,0,0,0,0,0,0,0,0,0,0,0,0,0,0,0,0,
0,0,0,0,0,0,0,0,0,0,0,0,0,0,0,0,0,0,0,0,0,0,0,0,0,0,0,0,0,0,0,0,0,0,0,0,0,0,0,0,0,0,0,0,0,0,0,0,0,0,0,0,0,0,0,0,0,0,0,0,0,0,0,0,0,0,0,0,0,0,0,0,0,0,0,0,0,0,0,0,0,0,0,0,0,0,0,0,0,0,0,0,0,0,0,0,0,0,0,0,0,0,0,0,0,0,0,0,0,0,0,0,0,0,0,0,0,0,0,0,0,0,0,0,0,0,0,0,0,0,0,0,0,0,0,0,0,0,0,0,0,0,0,0,0,0,0,0,0,0,
0,0,0,0,0,0,0,0,0,0,0,0,0,0,0,0,0,0,0,0,0,0,0,0,0,0,0,0,0,0,0,0,0,0,0,0,0,0,0,0,0,0,0,0,0,0,0,0,0,0,0,0,0,0,0,0,0,0,0,0,0,0,0,0,0,0,0,0,0,0,0,0,0,0,0,0,0,0,0,0,0,0,0,0,0,0,0,0,0,0,0,0,0,0,0,0,0,0,0,0,0,0,0,0,0,0,0,0,0,0,0,0,0,0,0,0,0,0,0,0,0,0,0,0,0,0,0,0,0,0,0,0,0,0,0,0,0,0,0,0,0,0,0,0,0,0,0,0,0,0,
0,0,0,0,0,0,0,0,0,0,0,0,0,0,0,0,0,0,0,0,0,0,0,0,0,0,0,0,0,0,0,0,0,0,0,0,0,0,0,0,0,0,0,0,0,0,0,0,0,0,0,0,0,0,0,0,0,0,0,0,0,0,0,0,0,0,0,0,0,0,0,0,0,0,0,0,0,0,0,0,0,0,0,0,0,0,0,0,0,0,0,0,0,0,0,0,0,0,0,0,0,0,0,0,0,0,0,0,0,0,0,0,0,0,0,0,0,0,0,0,0,0,0,0,0,0,0,0,0,0,0,0,0,0,0,0,0,0,0,0,0,0,0,0,0,0,0,0,0,0,
0,0,0,0,0,0,0,0,0,0,0,0,0,0,0,0,0,0,0,0,0,0,0,0,0,0,0,0,0,0,0,0,0,0,0,0,0,0,0,0,0,0,0,0,0,0,0,0,0,0,0,0,0,0,0,0,0,0,0,0,0,0,0,0,0,0,0,0,0,0,0,0,0,0,0,0,0,0,0,0,0,0,0,0,0,0,0,0,0,0,0,0,0,0,0,0,0,0,0,0,0,0,0,0,0,0,0,0,0,0,0,0,0,0,0,0,0,0,0,0,0,0,0,0,0,0,0,0,0,0,211,212,212,212,212,212,212,212,212,212,212,212,212,213,0,0,211,212,212,212,
0,0,0,0,0,0,0,0,0,0,0,0,0,0,0,0,0,0,0,0,0,0,0,0,0,0,0,0,0,0,0,0,0,0,0,0,0,0,0,0,0,0,0,0,0,0,0,0,0,0,0,0,0,0,0,0,0,0,0,0,0,0,0,0,0,0,0,0,0,0,0,0,0,0,0,0,0,0,0,0,0,0,0,0,0,0,0,0,0,0,0,0,0,0,0,0,0,0,0,0,0,0,0,0,0,0,0,0,0,0,0,0,0,0,0,0,0,0,0,0,0,0,0,0,0,0,0,0,0,0,0,0,0,0,0,0,0,0,0,0,0,0,0,0,0,0,0,0,0,0,
0,0,0,0,0,0,0,0,0,0,0,0,0,0,0,0,0,0,0,0,0,0,0,0,0,0,0,0,0,0,0,0,0,0,0,0,0,0,0,0,0,0,0,0,0,0,0,0,0,0,0,0,0,0,0,0,0,0,0,0,0,0,0,0,0,0,0,0,0,0,0,0,0,0,0,0,0,0,0,0,0,0,0,0,0,0,0,0,0,0,0,0,0,0,0,0,0,0,0,0,0,0,0,0,0,0,0,0,0,0,0,0,0,0,0,0,0,0,0,0,0,0,0,0,0,0,0,0,0,0,0,0,0,219,220,220,220,220,220,220,220,220,220,221,0,0,0,0,0,0,
0,0,0,0,0,0,0,0,0,0,0,0,0,0,0,0,0,0,0,0,0,0,0,0,0,0,0,0,0,0,0,0,0,0,0,0,0,0,0,0,0,0,0,0,0,0,0,0,0,0,0,0,0,0,0,0,0,0,0,0,0,0,0,0,0,0,0,0,0,0,0,0,0,0,0,0,0,0,0,0,0,0,0,0,0,0,0,0,0,0,0,0,0,0,0,0,0,0,0,0,0,0,0,0,0,0,0,0,0,0,0,0,0,0,0,0,0,0,0,0,0,0,0,0,0,0,0,0,0,0,0,0,0,0,0,0,0,0,0,0,0,0,0,0,0,0,0,0,0,0,
0,0,0,0,0,0,0,0,0,0,0,0,0,0,0,0,0,0,0,0,0,0,0,0,0,0,0,0,0,0,0,0,0,0,0,0,0,0,0,0,0,0,0,0,0,0,0,0,0,0,0,0,0,0,0,0,0,0,0,0,0,0,0,0,0,0,0,0,0,0,0,0,0,0,0,0,0,0,0,0,0,0,0,0,0,0,0,0,0,0,0,0,0,0,0,0,0,0,0,0,0,0,0,0,0,0,0,0,0,0,0,0,0,0,0,0,0,0,0,0,0,0,0,0,0,0,0,0,0,0,0,0,0,0,0,0,0,0,0,0,0,0,0,0,0,0,0,0,0,0,
0,0,0,0,0,0,0,0,0,0,0,0,0,0,0,0,0,0,0,0,0,0,0,0,0,0,0,0,0,0,0,0,0,0,0,0,0,0,0,0,0,0,0,0,0,0,0,0,0,0,0,0,0,0,0,0,0,0,0,0,0,0,0,0,0,0,0,0,0,0,0,0,0,0,0,0,0,0,0,0,0,0,0,0,0,0,0,0,0,0,0,0,0,0,0,0,0,0,0,0,0,0,0,0,0,0,0,0,0,0,0,0,0,0,0,0,0,0,0,0,0,0,0,0,0,0,0,0,0,0,0,0,0,0,0,0,0,0,0,0,0,0,0,0,0,0,0,0,0,0,
0,0,0,0,0,0,0,0,0,0,0,0,0,0,0,0,0,0,0,0,0,0,0,0,0,0,0,0,0,0,0,0,0,0,0,0,0,0,0,0,0,0,0,0,0,0,0,0,0,0,0,0,0,0,0,0,0,0,0,0,0,0,0,0,0,0,0,0,0,0,0,0,0,0,0,0,0,0,0,0,0,0,0,0,0,0,0,0,0,0,0,0,0,0,0,0,0,0,0,0,0,0,0,0,0,0,0,0,0,0,0,0,0,0,0,0,0,0,0,0,0,0,0,0,0,0,0,0,0,0,0,0,0,0,0,0,0,0,0,0,0,0,0,0,0,0,0,0,0,0,
0,0,0,0,0,0,0,0,0,0,0,0,0,0,0,0,0,0,0,0,0,0,0,0,0,0,0,0,0,0,0,0,0,0,0,0,0,0,0,0,0,0,0,0,0,0,0,0,0,0,0,0,0,0,0,0,0,0,0,0,0,0,0,0,0,0,0,0,0,0,0,0,0,0,0,0,0,0,0,0,0,0,0,0,0,0,0,0,0,0,0,0,0,0,0,0,0,0,0,0,0,0,0,0,0,0,0,0,0,0,0,0,0,0,0,0,0,0,0,0,0,0,0,0,0,0,0,0,0,0,0,0,0,0,0,0,0,0,0,0,0,0,0,0,0,0,0,0,0,0,
0,0,0,0,0,0,0,0,0,0,0,0,0,0,0,0,0,0,0,0,0,0,0,0,0,0,0,0,0,0,0,0,0,0,0,0,0,0,0,0,0,0,0,0,0,0,0,0,0,0,0,0,0,0,0,0,0,0,0,0,0,0,0,0,0,0,0,0,0,0,0,0,0,0,0,0,0,0,0,0,0,0,0,0,0,0,0,0,0,0,0,0,0,0,0,0,0,0,0,0,0,0,0,0,0,0,0,0,0,0,0,0,0,0,0,0,0,0,0,0,0,0,0,0,0,0,0,0,0,0,0,0,0,0,0,0,0,0,0,0,0,0,0,0,0,0,0,0,0,0,
0,0,0,0,0,0,0,0,0,0,0,0,0,0,0,0,0,0,0,0,0,0,0,0,0,0,0,0,0,0,0,0,0,0,0,0,0,0,0,0,0,0,0,0,0,0,0,0,0,0,0,0,0,0,0,0,0,0,0,0,0,0,0,0,0,0,0,0,0,0,0,0,0,0,0,0,0,0,0,0,0,0,0,0,0,0,0,0,0,0,0,0,0,0,0,0,0,0,0,0,0,0,0,0,0,0,0,0,0,0,0,0,0,0,0,0,0,0,0,0,0,0,0,0,0,0,0,0,0,0,0,0,0,0,0,0,0,0,0,0,0,0,0,0,0,0,0,0,0,0,
0,0,0,0,0,0,0,0,0,0,0,0,0,0,0,0,0,0,0,0,0,0,0,0,0,0,0,0,0,0,0,0,0,0,0,0,0,0,0,0,0,0,0,0,0,0,0,0,0,0,0,0,0,0,0,0,0,0,0,0,0,0,0,0,0,0,0,0,0,0,0,0,0,0,0,0,0,0,0,0,0,0,0,0,0,0,0,0,0,0,0,0,0,0,0,0,0,0,0,0,0,0,0,0,0,0,0,0,0,0,0,0,0,0,0,0,0,0,0,0,0,0,0,0,0,0,0,0,0,0,0,0,0,0,0,0,0,0,0,0,0,0,0,0,0,0,0,0,0,0,
0,0,0,0,0,0,0,0,0,0,0,0,0,0,0,0,0,0,0,0,0,0,0,0,0,0,0,0,0,0,0,0,0,0,0,0,0,0,0,0,0,0,0,0,0,0,0,0,0,0,0,0,0,0,0,0,0,0,0,0,0,0,0,0,0,0,0,0,0,0,0,0,0,0,0,0,0,0,0,0,0,0,0,0,0,0,0,0,0,0,0,0,0,0,0,0,0,0,0,0,0,0,0,0,0,0,0,0,0,0,0,0,0,0,0,0,0,0,0,0,0,0,0,0,0,0,0,0,0,0,0,0,0,0,0,0,0,0,0,0,0,0,0,0,0,0,0,0,0,0,
0,0,0,0,0,0,0,0,0,0,0,0,0,0,0,0,0,0,0,0,0,0,0,0,0,0,0,0,0,0,0,0,0,0,0,0,0,0,0,0,0,0,0,0,0,0,0,0,0,0,0,0,0,0,0,0,0,0,0,0,0,0,0,0,0,0,0,0,0,0,0,0,0,0,0,0,0,0,0,0,0,0,0,0,0,0,0,0,0,0,0,0,0,0,0,0,0,0,0,0,0,0,0,0,0,0,0,0,0,0,0,0,0,0,0,0,0,0,0,0,0,0,0,0,0,0,0,0,0,0,0,0,0,0,0,0,0,0,0,0,0,0,0,0,0,0,0,0,0,0,
0,0,0,0,0,0,0,0,0,0,0,0,0,0,0,0,0,0,0,0,0,0,0,0,0,0,0,0,0,0,0,0,0,0,0,0,0,0,0,0,0,0,0,0,0,0,0,0,0,0,0,0,0,0,0,0,0,0,0,0,0,0,0,0,0,0,0,0,0,0,0,0,0,0,0,0,0,0,0,0,0,0,0,0,0,0,0,0,0,0,0,0,0,0,0,0,0,0,0,0,0,0,0,0,0,0,0,0,0,0,0,0,0,0,0,0,0,0,0,0,0,0,0,0,0,0,0,0,0,0,0,0,0,0,0,0,0,0,0,0,0,0,0,0,0,0,0,0,0,0,
0,0,0,0,0,0,0,0,0,0,0,0,0,0,0,0,0,0,0,0,0,0,0,0,0,0,0,0,0,0,0,0,0,0,0,0,0,0,0,0,0,0,0,0,0,0,0,0,0,0,0,0,0,0,0,0,0,0,0,0,0,0,0,0,0,0,0,0,0,0,0,0,0,0,0,0,0,0,0,0,0,0,0,0,0,0,0,0,0,0,0,0,0,0,0,0,0,0,0,0,0,0,0,0,0,0,0,0,0,0,0,0,0,0,0,0,0,0,0,0,0,0,0,0,0,0,0,0,0,0,0,0,0,0,0,0,0,0,0,0,0,0,0,0,0,0,0,0,0,0,
0,0,0,0,0,0,0,0,0,0,0,0,0,0,0,0,0,0,0,0,0,0,0,0,0,0,0,0,0,0,0,0,0,0,0,0,0,0,0,0,0,0,0,0,0,0,0,0,0,0,0,0,0,0,0,0,0,0,0,0,0,0,0,0,0,0,0,0,0,0,0,0,0,0,0,0,0,0,0,0,0,0,0,0,0,0,0,0,0,0,0,0,0,0,0,0,0,0,0,0,0,0,0,0,0,0,0,0,0,0,0,0,0,0,0,0,0,0,0,0,0,0,0,0,0,0,0,0,0,0,0,0,0,0,0,0,0,0,0,0,0,0,0,0,0,0,0,0,0,0,
0,0,0,0,0,0,0,0,0,0,0,0,0,0,0,0,0,0,0,0,0,0,0,0,0,0,0,0,0,0,0,0,0,0,0,0,0,0,0,0,0,0,0,0,0,0,0,0,0,0,0,0,0,0,0,0,0,0,0,0,0,0,0,0,0,0,0,0,0,0,0,0,0,0,0,0,0,0,0,0,0,0,0,0,0,0,0,0,0,0,0,0,0,0,0,0,0,0,0,0,0,0,0,0,0,0,0,0,0,0,0,0,0,0,0,0,0,0,0,0,0,0,0,0,0,0,0,0,0,0,0,0,0,0,0,0,0,0,0,0,0,0,0,0,0,0,0,0,0,0,
0,0,0,0,0,0,0,0,0,0,0,0,0,0,0,0,0,0,0,0,0,0,0,0,0,0,0,0,0,0,0,0,0,0,0,0,0,0,0,0,0,0,0,0,0,0,0,0,0,0,0,0,0,0,0,0,0,0,0,0,0,0,0,0,0,0,0,0,0,0,0,0,0,0,0,0,0,0,0,0,0,0,0,0,0,0,0,0,0,0,0,0,0,0,0,0,0,0,0,0,0,0,0,0,0,0,0,0,0,0,0,0,0,0,0,0,0,0,0,0,0,0,0,0,0,0,0,0,0,0,0,0,0,0,0,0,0,0,0,0,0,0,0,0,0,0,0,0,0,0,
0,0,0,0,0,0,0,0,0,0,0,0,0,0,0,0,0,0,0,0,0,0,0,0,0,0,0,0,0,0,0,0,0,0,0,0,0,0,0,0,0,0,0,0,0,0,0,0,0,0,0,0,0,0,0,0,0,0,0,0,0,0,0,0,0,0,0,0,0,0,0,0,0,0,0,0,0,0,0,0,0,0,0,0,0,0,0,0,0,0,0,0,0,0,0,0,0,0,0,0,0,0,0,0,0,0,0,0,0,0,0,0,0,0,0,0,0,0,0,0,0,0,0,0,0,0,0,0,0,0,0,0,0,0,0,0,0,0,0,0,0,0,0,0,0,0,0,0,0,0,
0,0,0,0,0,0,0,0,0,0,0,0,0,0,0,0,0,0,0,0,0,0,0,0,0,0,0,0,0,0,0,0,0,0,0,0,0,0,0,0,0,0,0,0,0,0,0,0,0,0,0,0,0,0,0,0,0,0,0,0,0,0,0,0,0,0,0,0,0,0,0,0,0,0,0,0,0,0,0,0,0,0,0,0,0,0,0,0,0,0,0,0,0,0,0,0,0,0,0,0,0,0,0,0,0,0,0,0,0,0,0,0,0,0,0,0,0,0,0,0,0,0,0,0,0,0,0,0,0,0,0,0,0,0,0,0,0,0,0,0,0,0,0,0,0,0,0,0,0,0,
0,0,0,0,0,0,0,0,0,0,0,0,0,0,0,0,0,0,0,0,0,0,0,0,0,0,0,0,0,0,0,0,0,0,0,0,0,0,0,0,0,0,0,0,0,0,0,0,0,0,0,0,0,0,0,0,0,0,0,0,0,0,0,0,0,0,0,0,0,0,0,0,0,0,0,0,0,0,0,0,0,0,0,0,0,0,0,0,0,0,0,0,0,0,0,0,0,0,0,0,0,0,0,0,0,0,0,0,0,0,0,0,0,0,0,0,0,0,0,0,0,0,0,0,0,0,0,0,0,0,0,0,0,0,0,0,0,0,0,0,0,0,0,0,0,0,0,0,0,0,
0,0,0,0,0,0,0,0,0,0,0,0,0,0,0,0,0,0,0,0,0,0,0,0,0,0,0,0,0,0,0,0,0,0,0,0,0,0,0,0,0,0,0,0,0,0,0,0,0,0,0,0,0,0,0,0,0,0,0,0,0,0,0,0,0,0,0,0,0,0,0,0,0,0,0,0,0,0,0,0,0,0,0,0,0,0,0,0,0,0,0,0,0,0,0,0,0,0,0,0,0,0,0,0,0,0,0,0,0,0,0,0,0,0,0,0,0,0,0,0,0,0,0,0,0,0,0,0,0,0,0,0,0,0,0,0,0,0,0,0,0,0,0,0,0,0,0,0,0,0,
0,0,0,0,0,0,0,0,0,0,0,0,0,0,0,0,0,0,0,0,0,0,0,0,0,0,0,0,0,0,0,0,0,0,0,0,0,0,0,0,0,0,0,0,0,0,0,0,0,0,0,0,0,0,0,0,0,0,0,0,0,0,0,0,0,0,0,0,0,0,0,0,0,0,0,0,0,0,0,0,0,0,0,0,0,0,0,0,0,0,0,0,0,0,0,0,0,0,0,0,0,0,0,0,0,0,0,0,0,0,0,0,0,0,0,0,0,0,0,0,0,0,0,0,0,0,0,0,0,0,0,0,0,0,0,0,0,0,0,0,0,0,0,0,0,0,0,0,0,0,
0,0,0,0,0,0,0,0,0,0,0,0,0,0,0,0,0,0,0,0,0,0,0,0,0,0,0,0,0,0,0,0,0,0,0,0,0,0,0,0,0,0,0,0,0,0,0,0,0,0,0,0,0,0,0,0,0,0,0,0,0,0,0,0,0,0,0,0,0,0,0,0,0,0,0,0,0,0,0,0,0,0,0,0,0,0,0,0,0,0,0,0,0,0,0,0,0,0,0,0,0,0,0,0,0,0,0,0,0,0,0,0,0,0,0,0,0,0,0,0,0,0,0,0,0,0,0,0,0,0,0,0,0,0,0,0,0,0,0,0,0,0,0,0,0,0,0,0,0,0,
0,0,0,0,0,0,0,0,0,0,0,0,0,0,0,0,0,0,0,0,0,0,0,0,0,0,0,0,0,0,0,0,0,0,0,0,0,0,0,0,0,0,0,0,0,0,0,0,0,0,0,0,0,0,0,0,0,0,0,0,0,0,0,0,0,0,0,0,0,0,0,0,0,0,0,0,0,0,0,0,0,0,0,0,0,0,0,0,0,0,0,0,0,0,0,0,0,0,0,0,0,0,0,0,0,0,0,0,0,0,0,0,0,0,0,0,0,0,0,0,0,0,0,0,0,0,0,0,0,0,0,0,0,0,0,0,0,0,0,0,0,0,0,0,0,0,0,0,0,0,
0,0,0,0,0,0,0,0,0,0,0,0,0,0,0,0,0,0,0,0,0,0,0,0,0,0,0,0,0,0,0,0,0,0,0,0,0,0,0,0,0,0,0,0,0,0,0,0,0,0,0,0,0,0,0,0,0,0,0,0,0,0,0,0,0,0,0,0,0,0,0,0,0,0,0,0,0,0,0,0,0,0,0,0,0,0,0,0,0,0,0,0,0,0,0,0,0,0,0,0,0,0,0,0,0,0,0,0,0,0,0,0,0,0,0,0,0,0,0,0,0,0,0,0,0,0,0,0,0,0,0,0,0,0,0,0,0,0,0,0,0,0,0,0,0,0,0,0,0,0,
0,0,0,0,0,0,0,0,0,0,0,0,0,0,0,0,0,0,0,0,0,0,0,0,0,0,0,0,0,0,0,0,0,0,0,0,0,0,0,0,0,0,0,0,0,0,0,0,0,0,0,0,0,0,0,0,0,0,0,0,0,0,0,0,0,0,0,0,0,0,0,0,0,0,0,0,0,0,0,0,0,0,0,0,0,0,0,0,0,0,0,0,0,0,0,0,0,0,0,0,0,0,0,0,0,0,0,0,0,0,0,0,0,0,0,0,0,0,0,0,0,0,0,0,0,0,0,0,0,0,0,0,0,0,0,0,0,0,0,0,0,0,0,0,0,0,0,0,0,0,
0,0,0,0,0,0,0,0,0,0,0,0,0,0,0,0,0,0,0,0,0,0,0,0,0,0,0,0,0,0,0,0,0,0,0,0,0,0,0,0,0,0,0,0,0,0,0,0,0,0,0,0,0,0,0,0,0,0,0,0,0,0,0,0,0,0,0,0,0,0,0,0,0,0,0,0,0,0,0,0,0,0,0,0,0,0,0,0,0,0,215,215,215,215,215,215,215,215,215,215,215,215,0,0,0,0,215,215,215,215,215,215,215,215,215,215,215,215,215,0,0,0,0,215,215,215,215,215,215,215,0,0,0,0,0,0,0,0,0,0,0,0,0,0,0,0,0,0,0,0,
0,0,0,0,0,0,0,0,0,0,0,0,0,0,0,0,0,0,0,0,0,0,0,0,0,0,0,0,0,0,0,0,0,0,0,0,0,0,0,0,0,0,0,0,0,0,0,0,0,0,0,0,0,0,0,0,0,0,0,0,0,0,0,0,0,0,0,0,0,0,0,0,0,0,0,0,0,0,0,0,0,0,0,0,0,0,0,0,0,0,0,0,0,0,0,0,0,0,0,0,0,0,0,0,0,0,0,0,0,0,0,0,0,0,0,0,0,0,0,0,0,0,0,0,0,0,0,0,0,0,0,0,0,0,0,0,0,0,0,0,0,0,0,0,0,0,0,0,0,0,
0,0,0,0,0,0,0,0,0,0,0,0,0,0,0,0,0,0,0,0,0,0,0,0,0,0,0,0,0,0,0,0,0,0,0,0,0,0,0,0,0,0,0,0,0,0,0,0,0,0,0,0,0,0,0,0,0,0,0,0,0,0,0,0,0,0,0,0,0,0,0,0,0,0,0,0,0,0,0,0,0,0,0,0,0,0,0,0,0,0,0,0,0,0,0,0,0,0,0,0,0,0,0,0,0,0,0,0,0,0,0,0,0,0,0,0,0,0,0,0,0,0,0,0,0,0,0,0,0,0,0,0,0,0,0,0,0,0,0,0,0,0,0,0,0,0,0,0,0,0,
0,0,0,0,0,0,0,0,0,0,0,0,0,0,0,0,0,0,0,0,0,0,0,0,0,0,0,0,0,0,0,0,0,0,0,0,0,0,0,0,0,0,0,0,0,0,0,0,0,0,0,0,0,0,0,0,0,0,0,0,0,0,0,0,0,0,0,0,0,0,0,0,0,0,0,0,0,0,0,0,0,0,0,0,0,0,0,0,0,0,0,0,0,0,0,0,0,0,0,0,0,0,0,0,0,0,0,0,0,0,0,0,0,0,0,0,0,0,0,0,0,0,0,0,0,0,0,0,0,0,0,0,0,0,0,0,0,0,0,0,0,0,0,0,0,0,0,0,0,0,
0,0,0,0,0,0,0,0,0,0,0,0,0,0,0,0,0,0,0,0,0,0,0,0,0,0,0,0,0,0,0,0,0,0,0,0,0,0,0,0,0,0,0,0,0,0,0,0,0,0,0,0,0,0,0,0,0,0,0,0,0,0,0,0,0,0,0,0,0,0,0,0,0,0,0,0,0,0,0,0,0,0,0,0,0,0,0,0,0,0,0,0,0,0,0,0,0,0,0,0,0,0,0,0,0,0,0,0,0,0,0,0,0,0,0,0,0,0,0,0,0,0,0,0,0,0,0,0,0,0,0,0,0,0,0,0,0,0,0,0,0,0,0,0,0,0,0,0,0,0,
0,0,0,0,0,0,0,0,0,0,0,0,0,0,0,0,0,0,0,0,0,0,0,0,0,0,0,0,0,0,0,0,0,0,0,0,0,0,0,0,0,0,0,0,0,0,0,0,0,0,0,0,0,0,0,0,0,0,0,0,0,0,0,0,0,0,0,0,0,0,0,0,0,0,0,0,0,0,0,0,0,0,0,0,0,0,0,0,0,0,0,0,0,0,0,0,0,0,0,0,0,0,0,0,0,0,0,0,0,0,0,0,0,0,0,0,0,0,0,0,0,0,0,0,0,0,0,0,0,0,0,0,0,0,0,0,0,0,0,0,0,0,0,0,0,0,0,0,0,0,
0,0,0,0,0,0,0,0,0,0,0,0,0,0,0,0,0,0,0,0,0,0,0,0,0,0,0,0,0,0,0,0,0,0,0,0,0,0,0,0,0,0,0,0,0,0,0,0,0,0,0,0,0,0,0,0,0,0,0,0,0,0,0,0,0,0,0,0,0,0,0,0,0,0,0,0,0,0,0,0,0,0,0,0,0,0,0,0,0,0,0,0,0,0,0,0,0,0,0,0,0,0,0,0,0,0,0,0,0,0,0,0,0,0,0,0,0,0,0,0,0,0,0,0,0,0,0,0,0,0,0,0,0,0,0,0,0,0,0,0,0,0,0,0,0,0,0,0,0,0,
0,0,0,0,0,0,0,0,0,0,0,0,0,0,0,0,0,0,0,0,0,0,0,0,0,0,0,0,0,0,0,0,0,0,0,0,0,0,0,0,0,0,0,0,0,0,0,0,0,0,0,0,0,0,0,0,0,0,0,0,0,0,0,0,0,0,0,0,0,0,0,0,0,0,0,0,0,0,0,0,0,0,0,0,0,0,0,0,0,0,0,0,0,0,0,0,0,0,0,0,0,0,0,0,0,0,0,0,0,0,0,0,0,0,0,0,0,0,0,0,0,0,0,0,0,0,0,0,0,0,0,0,0,0,0,0,0,0,0,0,0,0,0,0,0,0,0,0,0,0,
0,0,0,0,0,0,0,0,0,0,0,0,0,0,0,0,0,0,0,0,0,0,0,0,0,0,0,0,0,0,0,0,0,0,0,0,0,0,0,0,0,0,0,0,0,0,0,0,0,0,0,0,0,0,0,0,0,0,0,0,0,0,0,0,0,0,0,0,0,0,0,0,0,0,0,0,0,0,0,0,0,0,0,0,0,0,0,0,0,0,0,0,0,0,0,0,0,0,0,0,0,0,0,0,0,0,0,0,0,0,0,0,0,0,0,0,0,0,0,0,0,0,0,0,0,0,0,0,0,0,0,0,0,0,0,0,0,0,0,0,0,0,0,0,0,0,0,0,0,0,
0,0,0,0,0,0,0,0,0,0,0,0,0,0,0,0,0,0,0,0,0,0,0,0,0,0,0,0,0,0,0,0,0,0,0,0,0,0,0,0,0,0,0,0,0,0,0,0,0,0,0,0,0,0,0,0,0,0,0,0,0,0,0,0,0,0,0,0,0,0,0,0,0,0,0,0,0,0,0,0,0,0,0,0,0,0,0,0,0,0,0,0,0,0,0,0,0,0,0,0,0,0,0,0,0,0,0,0,0,0,0,0,0,0,0,0,0,0,0,0,0,0,0,0,0,0,0,0,0,0,0,0,0,215,215,0,0,0,215,215,215,0,0,0,215,215,0,0,0,0,
0,0,0,0,0,0,0,0,0,0,0,0,0,0,0,0,0,0,0,0,0,0,0,0,0,0,0,0,0,0,0,0,0,0,0,0,0,0,0,0,0,0,0,0,0,0,0,0,0,0,0,0,0,0,0,0,0,0,0,0,0,0,0,0,0,0,0,0,0,0,0,0,0,0,0,0,0,0,0,0,0,0,0,0,0,0,0,0,0,0,0,0,0,0,0,0,0,0,0,0,0,0,0,0,0,0,0,0,0,0,0,0,0,0,0,0,0,0,0,0,0,0,0,0,0,0,0,0,0,0,0,0,0,0,0,0,0,0,0,0,0,0,0,0,0,0,0,0,0,0,
0,0,0,0,0,0,0,0,0,0,0,0,0,0,0,0,0,0,0,0,0,0,0,0,0,0,0,0,0,0,0,0,0,0,0,0,0,0,0,0,0,0,0,0,0,0,0,0,0,0,0,0,0,0,0,0,0,0,0,0,0,0,0,0,0,0,0,0,0,0,0,0,0,0,0,0,0,0,0,0,0,0,0,0,0,0,0,0,0,0,0,0,0,0,0,0,0,0,0,0,0,0,0,0,0,0,0,0,0,0,0,0,0,0,0,0,0,0,0,0,0,0,0,0,0,0,0,0,0,0,0,0,0,0,0,0,0,0,0,0,0,0,0,0,0,0,0,0,0,0,
0,0,0,0,0,0,0,0,0,0,0,0,0,0,0,0,0,0,0,0,0,0,0,0,0,0,0,0,0,0,0,0,0,0,0,0,0,0,0,0,0,0,0,0,0,0,0,0,0,0,0,0,0,0,0,0,0,0,0,0,0,0,0,0,0,0,0,0,0,0,0,0,0,0,0,0,0,0,0,0,0,0,0,0,0,0,0,0,0,0,0,0,0,0,0,0,0,0,0,0,0,0,0,0,0,0,0,0,0,0,0,0,0,0,0,0,0,0,0,0,0,0,0,0,0,0,0,0,0,0,0,0,0,0,0,0,0,0,0,0,0,0,0,0,0,0,0,0,0,0,
0,0,0,0,0,0,0,0,0,0,0,0,0,0,0,0,0,0,0,0,0,0,0,0,0,0,0,0,0,0,0,0,0,0,0,0,0,0,0,0,0,0,0,0,0,0,0,0,0,0,0,0,0,0,0,0,0,0,0,0,0,0,0,0,0,0,0,0,0,0,0,0,0,0,0,0,0,0,0,0,0,0,0,0,0,0,0,0,0,0,0,0,0,0,0,0,0,0,0,0,0,0,0,0,0,0,0,0,0,0,0,0,0,0,0,0,0,0,0,0,0,0,0,0,0,0,0,0,0,0,0,0,0,0,0,0,0,0,0,0,0,0,0,0,0,0,0,0,0,0,
0,0,0,0,0,0,0,0,0,0,0,0,0,0,0,0,0,0,0,0,0,0,0,0,0,0,0,0,0,0,0,0,0,0,0,0,0,0,0,0,0,0,0,0,0,0,0,0,0,0,0,0,0,0,0,0,0,0,0,0,0,0,0,0,0,0,0,0,0,0,0,0,0,0,0,0,0,0,0,0,0,0,0,0,0,0,0,0,0,0,0,0,0,0,0,0,0,0,0,0,0,0,0,0,0,0,0,0,0,0,0,0,0,0,0,0,0,0,0,0,0,0,0,0,0,0,0,0,0,0,0,0,0,0,0,0,0,0,0,0,0,0,0,0,0,0,0,0,0,0,
0,0,0,0,0,0,0,0,0,0,0,0,0,0,0,0,0,0,0,0,0,0,0,0,0,0,0,0,0,0,0,0,0,0,0,0,0,0,0,0,0,0,0,0,0,0,0,0,0,0,0,0,0,0,0,0,0,0,0,0,0,0,0,0,0,0,0,0,0,0,0,0,0,0,0,0,0,0,0,0,0,0,0,0,0,0,0,0,0,0,0,0,0,0,0,0,0,0,0,0,0,0,0,0,0,0,0,0,0,0,0,0,0,0,0,0,0,0,0,0,0,0,0,0,0,0,0,0,0,0,0,0,0,0,0,0,0,0,0,0,0,0,0,0,0,0,0,0,0,0,
0,0,0,0,0,0,0,0,0,0,0,0,0,0,0,0,0,0,0,0,0,0,0,0,0,0,0,0,0,0,0,0,0,0,0,0,0,0,0,0,0,0,0,0,0,0,0,0,0,0,0,0,0,0,0,0,0,0,0,0,0,0,0,0,0,0,0,0,0,0,0,0,0,0,0,0,0,0,0,0,0,0,0,0,0,0,0,0,0,0,0,0,0,0,0,0,0,0,0,0,0,0,0,0,0,0,0,0,0,0,0,0,0,0,0,0,0,0,0,0,0,0,0,0,0,0,0,0,0,0,0,0,0,0,0,0,0,0,0,0,0,0,0,0,0,0,0,0,0,0,
0,0,0,0,0,0,0,0,0,0,0,0,0,0,0,0,0,0,0,0,0,0,0,0,0,0,0,0,0,0,0,0,0,0,0,0,0,0,0,0,0,0,0,0,0,0,0,0,0,0,0,0,0,0,0,0,0,0,0,0,0,0,0,0,0,0,0,0,0,0,0,0,0,0,0,0,0,0,0,0,0,0,0,0,0,0,0,0,0,0,0,0,0,0,0,0,0,0,0,0,0,0,0,0,0,0,0,0,0,0,0,0,0,0,0,0,0,0,0,0,0,0,0,0,0,0,0,0,0,0,0,0,0,0,0,0,0,0,0,0,0,0,0,0,0,0,0,0,0,0,
0,0,0,0,0,0,0,0,0,0,0,0,0,0,0,0,0,0,0,0,0,0,0,0,0,0,0,0,0,0,0,0,0,0,0,0,0,0,0,0,0,0,0,0,0,0,0,0,0,0,0,0,0,0,0,0,0,0,0,0,0,0,0,0,0,0,0,0,0,0,0,0,0,0,0,0,0,0,0,0,0,0,0,0,0,0,0,0,0,0,0,0,0,0,0,0,0,0,0,0,0,0,0,0,0,0,0,0,0,0,0,0,0,0,0,0,0,0,0,0,0,0,0,0,0,0,0,0,0,0,0,0,0,0,0,0,0,0,0,0,0,0,0,0,0,0,0,0,0,0,
0,0,0,0,0,0,0,0,0,0,0,0,0,0,0,0,0,0,0,0,0,0,0,0,0,0,0,0,0,0,0,0,0,0,0,0,0,0,0,0,0,0,0,0,0,0,0,0,0,0,0,0,0,0,0,0,0,0,0,0,0,0,0,0,0,0,0,0,0,0,0,0,0,0,0,0,0,0,0,0,0,0,0,0,0,0,0,0,0,0,0,0,0,0,0,0,0,0,0,0,0,0,0,0,0,0,0,0,0,0,0,0,0,0,0,0,0,0,0,0,0,0,0,0,0,0,0,0,0,0,0,0,0,0,0,0,0,0,0,0,0,0,0,0,0,0,0,0,0,0,
0,0,0,0,0,0,0,0,0,0,0,0,0,0,0,0,0,0,0,0,0,0,0,0,0,0,0,0,0,0,0,0,0,0,0,0,0,0,0,0,0,0,0,0,0,0,0,0,0,0,0,0,0,0,0,0,0,0,0,0,0,0,0,0,0,0,0,0,0,0,0,0,0,0,0,0,0,0,0,0,0,0,0,0,0,0,0,0,0,0,0,0,0,0,0,0,0,0,0,0,0,0,0,0,0,0,0,0,0,0,0,0,0,0,0,0,0,0,0,0,0,0,0,0,0,0,0,0,0,0,0,0,0,0,0,0,0,0,0,0,0,0,0,0,0,0,0,0,0,0,
0,0,0,0,0,0,0,0,0,0,0,0,0,0,0,0,0,0,0,0,0,0,0,0,0,0,0,0,0,0,0,0,0,0,0,0,0,0,0,0,0,0,0,0,0,0,0,0,0,0,0,0,0,0,0,0,0,0,0,0,0,0,0,0,0,0,0,0,0,0,0,0,0,0,0,0,0,0,0,0,0,0,0,0,0,0,0,0,0,0,0,0,0,0,0,0,0,0,0,0,0,0,0,0,0,0,0,0,0,0,0,0,0,0,0,0,0,0,0,0,0,0,0,0,0,0,0,0,0,0,0,0,0,0,0,0,0,0,0,0,0,0,0,0,0,0,0,0,0,0,
0,0,0,0,0,0,0,0,0,0,0,0,0,0,0,0,0,0,0,0,0,0,0,0,0,0,0,0,0,0,0,0,0,0,0,0,0,0,0,0,0,0,0,0,0,0,0,0,0,0,0,0,0,0,0,0,0,0,0,0,0,0,0,0,0,0,0,0,0,0,0,0,0,0,0,0,0,0,0,0,0,0,0,0,0,0,0,0,0,0,0,0,0,0,0,0,0,0,0,0,0,0,0,0,0,0,0,0,0,0,0,0,0,0,0,0,0,0,0,0,0,0,0,0,0,0,0,0,0,0,0,0,0,0,0,0,0,0,0,0,0,0,0,0,0,0,0,0,0,0,
0,0,0,0,0,0,0,0,0,0,0,0,0,0,0,0,0,0,0,0,0,0,0,0,0,0,0,0,0,0,0,0,0,0,0,0,0,0,0,0,0,0,0,0,0,0,0,0,0,0,0,0,0,0,0,0,0,0,0,0,0,0,0,0,0,0,0,0,0,0,0,0,0,0,0,0,0,0,0,0,0,0,0,0,0,0,0,0,0,0,0,0,0,0,0,0,0,0,0,0,0,0,0,0,0,0,0,0,0,0,0,0,0,0,0,0,0,0,0,0,0,0,0,0,0,0,0,236,237,238,0,0,252,253,254,0,0,0,0,0,0,0,0,0,0,0,0,0,0,0,
0,0,0,0,0,0,0,0,0,0,0,0,0,0,0,0,0,0,0,0,0,0,0,0,0,0,0,0,0,0,0,0,0,0,0,0,0,0,0,0,0,0,0,0,0,0,0,0,0,0,0,0,0,0,0,0,0,0,0,0,0,0,0,0,0,0,0,0,0,0,0,0,0,0,0,0,0,0,0,0,0,0,0,0,0,0,0,0,0,0,0,0,0,0,0,0,0,0,0,0,0,0,0,0,0,0,0,0,0,0,0,0,0,0,0,0,0,0,0,0,0,0,0,0,0,0,0,244,245,246,0,0,260,261,262,0,0,0,0,0,0,0,0,0,0,0,0,0,0,0,
0,0,0,0,0,0,0,0,0,0,0,0,0,0,0,0,0,0,0,0,0,0,0,0,0,0,0,0,0,0,0,0,0,0,0,0,0,0,0,0,0,0,0,0,0,0,0,0,0,0,0,0,0,0,0,0,0,0,0,0,0,0,0,0,0,0,0,0,0,0,0,0,0,0,0,0,0,0,0,0,0,0,0,0,0,0,0,0,0,0,142,142,0,0,0,134,134,0,0,0,0,0,0,0,0,0,0,0,0,0,0,0,0,0,0,0,0,0,0,0,0,0,0,0,0,0,0,134,0,0,0,0,0,0,0,134,0,0,0,0,0,0,0,142,0,0,0,0,0,0,
0,0,0,0,0,0,0,0,0,0,0,0,0,0,0,0,0,0,0,0,0,0,0,0,0,0,0,0,0,0,0,0,0,0,0,0,0,0,0,0,0,0,0,0,0,0,0,0,0,0,0,0,0,0,0,0,0,0,0,0,0,0,0,0,0,215,215,215,215,215,215,215,215,215,215,215,215,215,215,215,215,215,215,215,215,215,215,215,215,215,215,215,0,215,215,215,215,215,0,215,215,0,0,0,0,0,0,0,0,0,0,0,0,0,0,0,0,0,0,0,0,0,0,0,0,0,0,215,215,215,0,0,215,215,215,215,215,0,0,0,215,215,215,215,215,215,0,0,0,215,
0,0,0,0,0,0,0,0,0,0,0,0,0,0,0,0,0,0,0,0,0,0,0,0,0,0,0,0,0,0,0,0,0,0,0,0,0,0,0,0,0,0,0,0,0,0,0,0,0,0,0,0,0,0,0,0,0,0,0,0,0,0,0,0,0,0,0,0,0,0,0,0,0,0,0,0,0,0,0,0,0,0,0,0,0,0,0,0,0,0,0,0,0,0,0,0,0,0,0,0,0,0,0,0,0,0,0,0,0,0,0,0,0,0,0,0,0,0,0,0,0,0,0,0,0,0,0,0,0,0,0,0,0,0,0,0,0,0,0,0,0,0,0,0,0,0,0,0,0,0,
0,0,0,0,0,0,0,0,0,0,0,0,0,0,0,0,0,0,0,0,0,0,0,0,0,0,0,0,0,0,0,0,0,0,0,0,0,0,0,0,150,0,0,0,134,134,0,0,0,0,0,150,0,0,0,0,0,0,0,0,142,0,0,0,0,0,0,0,0,0,0,0,0,0,0,0,0,0,0,0,0,0,0,0,0,0,0,0,0,0,0,0,0,0,0,0,0,0,0,0,0,0,0,0,0,0,0,0,0,0,0,0,0,0,0,0,0,0,0,0,0,0,0,0,0,0,0,0,0,0,0,0,0,0,0,0,0,0,0,0,0,0,0,0,0,0,0,0,0,0,
0,0,0,0,0,0,0,0,0,0,0,0,0,0,0,0,0,0,0,0,0,0,0,0,0,0,0,0,0,0,0,0,0,0,0,142,0,0,0,142,158,0,0,0,134,134,0,0,0,0,0,158,0,0,0,0,142,0,0,0,0,0,0,0,0,0,0,0,0,0,0,0,0,0,0,0,0,0,0,0,0,0,0,0,0,0,0,0,0,0,0,0,0,0,0,0,0,0,0,0,0,0,0,0,0,0,0,0,0,0,0,0,0,0,0,0,0,0,0,0,0,0,0,0,0,0,0,0,0,0,0,0,0,0,0,0,0,0,0,0,0,0,0,0,0,0,0,0,0,0,
0,0,0,0,0,0,0,0,0,0,0,0,0,0,0,0,0,0,0,0,0,0,0,0,0,0,0,0,0,0,0,0,0,0,215,215,215,0,215,215,215,215,215,0,215,215,215,215,0,215,215,215,215,215,0,215,215,215,215,0,215,0,0,0,0,0,0,0,0,0,0,0,0,0,0,0,0,0,0,0,0,0,0,0,0,0,0,0,0,0,0,0,0,0,0,0,0,0,0,0,0,0,0,0,0,0,0,0,0,0,0,0,0,0,0,0,0,0,0,0,0,0,0,0,0,0,0,0,0,0,0,0,0,0,0,0,0,0,0,0,0,0,0,0,0,0,0,0,0,0,
0,0,0,0,0,0,0,0,0,0,0,0,0,0,0,0,0,0,0,0,0,0,0,0,0,0,0,0,0,0,0,0,0,0,0,0,0,0,0,0,0,0,0,0,0,0,0,0,0,0,0,0,0,0,0,0,0,0,0,0,0,0,0,0,0,0,0,0,0,0,0,0,0,0,0,0,0,0,0,0,0,0,0,0,0,0,0,0,0,0,0,0,0,0,0,0,0,0,0,0,0,0,0,0,0,0,0,0,0,0,0,0,0,0,0,0,0,0,0,0,0,0,0,0,0,0,0,0,0,0,0,0,0,0,0,0,0,0,0,0,0,0,0,0,0,0,0,0,0,0,
0,0,0,0,0,0,0,0,0,0,0,0,0,0,0,0,0,0,0,0,0,0,0,0,0,0,0,0,0,0,0,0,0,0,0,0,0,0,0,0,0,0,0,0,0,0,0,0,0,0,0,0,0,0,0,0,0,0,0,0,0,0,0,0,0,0,0,0,0,0,0,0,0,0,0,0,0,0,0,0,0,0,0,0,0,0,0,0,0,0,0,0,0,0,0,0,0,0,0,0,0,0,0,0,0,0,0,0,0,0,0,0,0,0,0,0,0,0,0,0,0,0,0,0,0,0,0,0,0,0,0,0,0,0,0,0,0,0,0,0,0,0,0,0,0,0,0,0,0,0,
0,0,0,0,0,0,0,0,0,0,0,0,0,0,0,0,0,0,0,0,0,0,0,0,0,0,0,0,0,0,0,0,0,0,0,0,0,0,0,0,0,0,0,0,0,0,0,0,0,0,0,0,0,0,0,0,0,0,0,0,0,0,0,0,0,0,0,0,0,0,0,0,0,0,0,0,0,0,0,0,0,0,0,0,0,0,0,0,0,0,0,0,0,0,0,0,0,0,0,0,0,0,0,0,0,0,0,0,0,0,0,0,0,0,0,0,0,0,0,0,0,0,0,0,0,0,0,0,0,0,0,0,0,0,0,0,0,0,0,0,0,0,0,0,0,0,0,0,0,0,
0,0,0,0,0,0,0,0,0,0,0,0,0,0,0,0,0,0,0,0,0,0,0,0,0,0,0,0,0,0,0,0,0,0,0,0,0,0,0,0,0,0,0,0,0,0,0,0,0,0,0,0,0,0,0,0,0,0,0,0,0,0,0,0,0,0,0,0,0,0,0,0,0,0,0,0,0,0,0,0,0,0,0,0,0,0,0,0,0,0,0,0,0,0,0,0,0,0,0,0,0,0,0,0,0,0,0,0,0,0,0,0,0,0,0,0,0,0,0,0,0,0,0,0,0,0,0,0,0,0,0,0,0,0,0,0,0,0,0,0,0,0,0,0,0,0,0,0,0,0,
0,0,0,0,0,0,0,0,0,0,0,0,0,0,0,0,0,0,0,0,0,0,0,0,0,0,0,0,0,0,0,0,0,0,0,0,0,0,0,0,0,0,0,0,0,0,0,0,0,0,0,0,0,0,0,0,0,0,0,0,0,0,0,0,0,0,0,0,0,0,0,0,0,0,0,0,0,0,0,0,0,0,0,0,0,0,0,0,0,0,0,0,0,0,0,0,0,0,0,0,0,0,0,0,0,0,0,0,0,0,0,0,0,0,0,0,0,0,0,0,0,0,0,0,0,0,0,0,0,0,0,0,0,0,0,0,0,0,0,0,0,0,0,0,0,0,0,0,0,0,
0,0,0,0,0,0,0,0,0,0,0,0,0,0,0,0,0,0,0,0,0,0,0,0,0,0,0,0,0,0,0,0,0,0,0,0,0,0,0,0,0,0,0,0,0,0,0,0,0,0,0,0,0,0,0,0,0,0,0,0,0,0,0,0,0,0,0,0,0,0,0,0,0,0,0,0,0,0,0,0,0,0,0,0,0,0,0,0,0,0,0,0,0,0,0,0,0,0,0,0,0,0,0,0,0,0,0,0,0,0,0,0,0,0,0,0,0,0,0,0,0,0,0,0,0,0,0,0,0,0,0,0,0,0,0,0,0,0,0,0,0,0,0,0,0,0,0,0,0,0,
0,0,0,0,0,0,0,0,0,0,0,0,0,0,0,0,0,0,0,0,0,0,0,0,0,0,0,0,0,0,0,0,0,0,0,0,0,0,0,0,0,0,0,0,0,0,0,0,0,0,0,0,0,0,0,0,0,0,0,0,0,0,0,0,0,0,0,0,0,0,0,0,0,0,0,0,0,0,0,0,0,0,0,0,0,0,0,0,0,0,0,0,0,0,0,0,0,0,0,0,0,0,0,0,0,0,0,0,0,0,0,0,0,0,0,0,0,0,0,0,0,0,0,0,0,0,0,0,0,0,0,0,0,0,0,0,0,0,0,0,0,0,0,0,0,0,0,0,0,0,
0,0,0,0,0,0,0,0,0,0,0,0,0,0,0,0,0,0,0,0,0,0,0,0,0,0,0,0,0,0,0,0,0,0,0,0,0,0,0,0,0,0,0,0,0,0,0,0,0,0,0,0,0,0,0,0,0,0,0,0,0,0,0,0,0,0,0,0,0,0,0,0,0,0,0,0,0,0,0,0,0,0,0,0,0,0,0,0,0,0,0,0,0,0,0,0,0,0,0,0,0,0,0,0,0,0,0,0,0,0,0,0,0,0,0,0,0,0,0,0,0,0,0,0,0,0,0,0,0,0,0,0,0,0,0,0,0,0,0,0,0,0,0,0,0,0,0,0,0,0,
0,0,0,0,0,0,0,0,0,0,0,0,0,0,0,0,0,0,0,0,0,0,0,0,0,0,0,0,0,0,0,0,0,0,0,0,0,0,0,0,0,0,0,0,0,0,0,0,0,0,0,0,0,0,0,0,0,0,0,0,0,0,0,0,0,0,0,0,0,0,0,0,0,0,0,0,0,0,0,0,0,0,0,0,0,0,0,0,0,0,0,0,0,0,0,0,0,0,0,0,0,0,0,0,0,0,0,0,0,0,0,0,0,0,0,0,0,0,0,0,0,0,0,0,0,0,0,0,0,0,0,0,0,0,0,0,0,0,0,0,0,0,0,0,0,0,0,0,0,0,
0,0,0,0,0,0,0,0,0,0,0,0,0,0,0,0,0,0,0,0,0,0,0,0,0,0,0,0,0,0,0,0,0,0,0,0,0,0,0,0,0,0,0,0,0,0,0,0,0,0,0,0,0,0,0,0,0,0,0,0,0,0,0,0,0,0,0,0,0,0,0,0,0,0,0,0,0,0,0,0,0,0,0,0,0,0,0,0,0,0,0,0,0,0,0,0,0,0,0,0,0,0,0,0,0,0,0,0,0,0,0,0,0,0,0,0,0,0,0,0,0,0,0,0,0,0,0,0,0,0,0,0,0,0,0,0,0,0,0,0,0,0,0,0,0,0,0,0,0,0,
0,0,0,0,0,0,0,0,0,0,0,0,0,0,0,0,0,0,0,0,0,0,0,0,0,0,0,0,0,0,0,0,0,0,0,0,0,0,0,0,0,0,0,0,0,0,0,0,0,0,0,0,0,0,0,0,0,0,0,0,0,0,0,0,0,0,0,0,0,0,0,0,0,0,0,0,0,0,0,0,0,0,0,0,0,0,0,0,0,0,0,0,0,0,0,0,0,0,0,0,0,0,0,0,0,0,0,0,0,0,0,0,0,0,0,0,0,0,0,0,0,0,0,0,0,0,0,0,0,0,0,0,0,0,0,0,0,0,0,0,0,0,0,0,0,0,0,0,0,0,
0,0,0,0,0,0,0,0,0,0,0,0,0,0,0,0,0,0,0,0,0,0,0,0,0,0,0,0,0,0,0,0,0,0,0,0,0,0,0,0,0,0,0,0,0,0,0,0,0,0,0,0,0,0,0,0,0,0,0,0,0,0,0,0,0,0,0,0,0,0,0,0,0,0,0,0,0,0,0,0,0,0,0,0,0,0,0,0,0,0,0,0,0,0,0,0,0,0,0,0,0,0,0,0,0,0,0,0,0,0,0,0,0,0,0,0,0,0,0,0,0,0,0,0,0,0,0,0,0,0,0,0,0,0,0,0,0,0,0,0,0,0,0,0,0,0,0,0,0,0,
0,0,0,0,0,0,0,0,0,0,0,0,0,0,0,0,0,0,0,0,0,0,0,0,0,0,0,0,0,0,0,0,0,0,0,0,0,0,0,0,0,0,0,0,0,0,0,0,0,0,0,0,0,0,0,0,0,0,0,0,0,0,0,0,0,0,0,0,0,0,0,0,0,0,0,0,0,0,0,0,0,0,0,0,0,0,0,0,0,0,0,0,0,0,0,0,0,0,0,0,0,0,0,0,0,0,0,0,0,0,0,0,0,0,0,0,0,0,0,0,0,0,0,0,0,0,0,0,0,0,0,0,0,0,0,0,0,0,0,0,0,0,0,0,0,0,0,0,0,0,
0,0,0,0,0,0,0,0,0,0,0,0,0,0,0,0,0,0,0,0,0,0,0,0,0,0,0,0,0,0,0,0,0,0,0,0,0,0,0,0,0,0,0,0,0,0,0,0,0,0,0,0,0,0,0,0,0,0,0,0,0,0,0,0,0,0,0,0,0,0,0,0,0,0,0,0,0,0,0,0,0,0,0,0,0,0,0,0,0,0,0,0,0,0,0,0,0,0,0,0,0,0,0,0,0,0,0,0,0,0,0,0,0,0,0,0,0,0,0,0,0,0,0,0,0,0,0,0,0,0,0,0,0,0,0,0,0,0,0,0,0,0,0,0,0,0,0,0,0,0,
0,0,0,0,0,0,0,0,0,0,0,0,0,0,0,0,0,0,0,0,0,0,0,0,0,0,0,0,0,0,0,0,0,0,0,0,0,0,0,0,0,0,0,0,0,0,0,0,0,0,0,0,0,0,0,0,0,0,0,0,0,0,0,0,0,0,0,0,0,0,0,0,0,0,0,0,0,0,0,0,0,0,0,0,0,0,0,0,0,0,0,0,0,0,0,0,0,0,0,0,0,0,0,0,0,0,0,0,0,0,0,0,0,0,0,0,0,0,0,0,0,0,0,0,0,0,0,0,0,0,0,0,0,0,0,0,0,0,0,0,0,0,0,0,0,0,0,0,0,0
</data>
 </layer>
 <layer id="6" name="object2" width="150" height="100">
  <data encoding="csv">
0,0,0,0,0,0,0,0,0,0,0,0,0,0,0,0,120,149,0,0,0,0,0,0,0,0,0,0,0,0,149,118,0,0,0,0,0,0,0,0,0,0,0,0,0,0,0,0,0,0,318,0,0,0,0,317,0,0,0,0,0,0,0,0,0,0,0,0,0,0,0,0,0,0,0,0,0,0,0,0,0,0,0,0,0,0,0,0,0,0,0,0,0,0,0,0,0,0,0,0,0,0,0,0,0,0,0,0,0,0,0,0,0,0,0,0,0,0,0,120,149,0,0,0,0,0,0,0,0,0,0,0,0,149,118,0,0,0,0,0,0,0,0,0,0,0,0,0,0,0,
0,0,0,0,0,0,0,0,0,0,0,0,0,0,0,0,128,0,0,0,0,0,0,0,0,0,0,0,0,0,0,126,0,0,0,0,0,0,0,0,0,0,0,0,0,0,0,0,0,0,326,0,0,0,0,325,0,0,0,0,0,0,0,0,0,0,0,0,0,0,0,0,0,0,0,0,0,0,0,318,0,0,0,0,317,0,0,0,0,0,0,0,0,0,0,0,0,0,0,0,0,0,0,0,0,0,0,0,0,0,0,0,0,0,0,0,0,0,0,128,0,0,0,0,0,0,0,0,0,0,0,0,0,0,126,0,0,0,0,0,0,0,0,0,0,0,0,0,0,0,
0,0,0,0,0,0,0,0,0,0,0,0,0,0,0,0,0,149,0,0,0,0,0,0,0,0,0,0,0,0,149,0,0,0,0,0,0,0,0,0,0,0,0,0,0,0,0,0,0,0,334,0,0,0,0,333,0,0,0,0,0,0,0,0,0,0,0,0,0,0,0,0,0,0,0,0,0,0,0,326,0,0,0,0,325,0,0,0,0,0,0,0,0,0,0,0,0,0,0,0,0,0,0,0,0,0,0,0,0,0,0,0,0,0,0,0,0,0,0,0,149,0,0,0,0,0,0,0,0,0,0,0,0,149,0,0,0,0,0,0,0,0,0,0,0,0,0,0,0,0,
0,0,0,0,0,0,0,0,0,0,0,0,0,0,0,0,120,149,0,0,0,0,0,0,0,0,0,0,0,0,149,118,0,0,0,0,0,0,0,0,0,0,0,0,0,0,0,0,0,0,0,0,0,0,0,0,0,0,0,0,0,0,0,0,0,0,0,0,0,0,0,0,0,0,0,0,0,0,0,334,0,0,0,0,333,0,0,0,0,0,0,0,0,0,0,0,0,0,0,0,0,0,0,0,0,0,0,0,0,0,0,0,0,0,0,0,0,0,0,120,149,0,0,0,0,0,0,0,0,0,0,0,0,149,118,0,0,0,0,0,0,0,0,0,0,0,0,0,0,0,
0,0,0,0,0,0,0,0,0,0,0,0,0,0,0,0,128,0,0,0,0,0,0,0,0,0,0,0,0,0,0,126,0,0,0,0,0,0,0,0,0,0,0,0,0,0,0,0,0,0,0,0,0,0,0,0,0,0,0,0,0,0,0,0,0,0,0,0,0,0,0,0,0,0,0,0,0,0,0,0,0,0,0,0,0,0,0,0,0,0,0,0,0,0,0,0,0,0,0,0,0,0,0,0,0,0,0,0,0,0,0,0,0,0,0,0,0,0,0,128,0,0,0,0,0,0,0,0,0,0,0,0,0,0,126,0,0,0,0,0,0,0,0,0,0,0,0,0,0,0,
0,0,0,0,0,0,0,0,0,0,0,0,0,0,0,0,0,0,0,0,0,0,0,0,0,0,0,0,0,0,0,0,0,0,0,0,0,0,0,0,0,0,0,0,0,0,0,0,0,0,0,0,0,0,0,0,0,0,0,0,0,0,0,0,0,0,0,0,0,0,0,0,0,0,0,0,0,0,0,0,0,0,0,0,0,0,0,0,0,0,0,0,0,0,0,0,0,0,0,0,0,0,0,0,0,0,0,0,0,0,0,0,0,0,0,0,0,0,0,0,0,0,0,0,0,0,0,0,0,0,0,0,0,0,0,0,0,0,0,0,0,0,0,0,0,0,0,0,0,0,
133,133,133,133,133,133,133,133,133,133,133,133,133,133,133,133,0,0,0,0,0,0,0,0,0,0,0,0,0,0,0,0,133,133,133,133,133,133,133,133,133,133,133,133,133,133,133,133,133,133,0,0,0,0,0,0,133,133,133,133,133,133,133,133,133,133,133,133,133,133,133,133,133,133,133,133,133,133,0,0,0,0,0,0,0,133,133,133,133,133,133,133,133,133,133,133,133,133,133,133,133,133,133,133,133,133,133,133,133,133,133,133,133,133,133,133,133,133,133,0,0,0,0,0,0,0,0,0,0,0,0,0,0,0,0,133,133,133,133,133,133,133,133,133,133,133,133,133,133,133,
0,0,0,0,0,0,0,0,0,0,0,0,0,0,0,0,0,0,0,0,0,0,0,0,0,0,0,0,0,0,0,0,0,0,0,0,0,0,0,0,0,0,0,0,0,0,0,0,0,0,0,0,0,0,0,0,0,0,0,0,0,0,0,0,0,0,0,0,0,0,0,0,0,0,0,0,0,0,0,0,0,0,0,0,0,0,0,0,0,0,0,0,0,0,0,0,0,0,0,0,0,0,0,0,0,0,0,0,0,0,0,0,0,0,0,0,0,0,0,0,0,0,0,0,0,0,0,0,0,0,0,0,0,0,0,0,0,0,0,0,0,0,0,0,0,0,0,0,0,0,
0,0,0,0,0,0,0,0,0,0,0,0,0,0,0,0,0,0,0,0,0,0,0,0,0,0,0,0,0,0,0,0,0,0,0,0,0,0,0,0,0,0,0,0,0,0,0,0,0,0,0,0,0,0,0,0,0,0,0,0,0,0,0,0,0,0,0,0,0,0,0,0,0,0,0,0,0,0,0,0,0,0,0,0,0,0,0,0,0,0,0,0,0,0,0,0,0,0,0,0,0,0,0,0,0,0,0,0,0,0,0,0,0,0,0,0,0,0,0,0,0,0,0,0,0,0,0,0,0,0,0,0,0,0,0,0,0,0,0,0,0,0,0,0,0,0,0,0,0,0,
0,0,0,0,0,0,0,0,0,0,0,0,0,0,0,0,0,0,0,0,0,0,0,0,0,0,0,0,0,0,0,0,0,0,0,0,0,0,0,0,0,0,0,0,0,0,0,0,0,0,0,0,0,0,0,0,0,0,0,0,0,0,0,0,0,0,0,0,0,0,0,0,0,0,0,0,0,0,0,0,0,0,0,0,0,0,0,0,0,0,0,0,0,0,0,0,0,0,0,0,0,0,0,0,0,0,0,0,0,0,0,0,0,0,0,0,0,0,0,0,0,0,0,0,0,0,0,0,0,0,0,0,0,0,0,0,0,0,0,0,0,0,0,0,0,0,0,0,0,0,
0,0,0,0,0,0,0,0,0,0,0,0,0,0,0,0,0,0,0,0,0,0,0,0,0,0,0,0,0,0,0,0,0,0,0,0,0,0,0,0,0,0,0,0,0,0,0,0,0,0,0,0,0,0,0,0,0,0,0,0,0,0,0,0,0,0,0,0,0,0,0,0,0,0,0,0,0,0,0,0,0,0,0,0,0,0,0,0,0,0,0,0,0,0,0,0,0,0,0,0,0,0,0,0,0,0,0,0,0,0,0,0,0,0,0,0,0,0,0,0,0,0,0,0,0,0,0,0,0,0,0,0,0,0,0,0,0,0,0,0,0,0,0,0,0,0,0,0,0,0,
0,0,0,0,0,0,0,0,0,0,0,0,0,0,0,0,0,0,0,0,0,0,0,0,0,0,0,0,0,0,0,0,0,0,0,0,0,0,0,0,0,0,0,0,0,0,0,0,0,0,0,0,0,0,0,0,0,0,0,0,0,0,0,0,0,0,0,0,0,0,0,0,0,0,0,0,0,0,0,0,0,0,0,0,0,0,0,0,0,0,0,0,0,0,0,0,0,0,0,0,0,0,0,0,0,0,0,0,0,0,0,0,0,0,0,0,0,0,0,0,0,0,0,0,0,0,0,0,0,0,0,0,0,0,0,0,0,0,0,0,0,0,0,0,0,0,0,0,0,0,
0,0,0,0,0,0,0,0,0,0,0,0,0,0,0,0,0,0,0,0,0,0,0,0,0,0,0,0,0,0,0,0,0,0,0,0,0,0,0,0,0,0,0,0,0,0,0,0,0,0,0,0,0,0,0,0,0,0,0,0,0,0,0,0,0,0,0,0,0,0,0,0,0,0,0,0,0,0,0,0,0,0,0,0,0,0,0,0,0,0,0,0,0,0,0,0,0,0,0,0,0,0,0,0,0,0,0,0,0,0,0,0,0,0,0,0,0,0,0,0,0,0,0,0,0,0,0,0,0,0,0,0,0,0,0,0,0,0,0,0,0,0,0,0,0,0,0,0,0,0,
0,0,0,0,0,0,0,0,0,0,0,0,0,0,0,0,0,0,0,0,0,0,0,0,0,0,0,0,0,0,0,0,0,0,0,0,0,0,0,0,0,0,0,0,0,0,0,0,0,0,0,0,0,0,0,0,0,0,0,0,0,0,0,0,0,0,0,0,0,0,0,0,0,0,0,0,0,0,0,0,0,0,0,0,0,0,0,0,0,0,0,0,0,0,0,0,0,0,0,0,0,0,0,0,0,0,0,0,0,0,0,0,0,0,0,0,0,0,0,0,0,0,0,0,0,0,0,0,0,0,0,0,0,0,0,0,0,0,0,0,0,0,0,0,0,0,0,0,0,0,
0,0,0,0,0,0,0,0,0,0,0,0,0,0,0,0,0,0,0,0,0,0,0,0,0,0,0,0,0,0,0,0,0,0,0,0,0,0,0,0,0,0,0,0,0,0,0,0,0,0,0,0,0,0,0,0,0,0,0,0,0,0,0,0,0,0,0,0,0,0,0,0,0,0,0,0,0,0,0,0,0,0,0,0,0,0,0,0,0,0,0,0,0,0,0,0,0,0,0,0,0,0,0,0,0,0,0,0,0,0,0,0,0,0,0,0,0,0,0,0,0,0,0,0,0,0,0,0,0,0,0,0,0,0,0,0,0,0,0,0,0,0,0,0,0,0,0,0,0,0,
0,0,0,0,0,0,0,0,0,0,0,0,0,0,0,0,0,0,0,0,0,0,0,0,0,0,0,0,0,0,0,0,0,0,0,0,0,0,0,0,0,0,0,0,0,0,0,0,0,0,0,0,0,0,0,0,0,0,0,0,0,0,0,0,0,0,0,0,0,0,0,0,0,0,0,0,0,0,0,0,0,0,0,0,0,0,0,0,0,0,0,0,0,0,0,0,0,0,0,0,0,0,0,0,0,0,0,0,0,0,0,0,0,0,0,0,0,0,0,0,0,0,0,0,0,0,0,0,0,0,0,0,0,0,0,0,0,0,0,0,0,0,0,0,0,0,0,0,0,0,
0,0,0,0,0,0,0,0,0,0,0,0,0,0,0,0,0,0,0,0,0,0,0,0,0,0,0,0,0,0,0,0,0,0,0,0,0,0,0,0,0,0,0,0,0,0,0,0,0,0,0,0,0,0,0,0,0,0,0,0,0,0,0,0,0,0,0,0,0,0,0,0,0,0,0,0,0,0,0,0,0,0,0,0,0,0,0,0,0,0,0,0,0,0,0,0,0,0,0,0,0,0,0,0,0,0,0,0,0,0,0,0,0,0,0,0,0,0,0,0,0,0,0,0,0,0,0,0,0,0,0,0,0,0,0,0,0,0,0,0,0,0,0,0,0,0,0,0,0,0,
0,0,0,0,0,0,0,0,0,0,0,0,0,0,0,0,0,0,0,0,0,0,0,0,0,0,0,0,0,0,0,0,0,0,0,0,0,0,0,0,0,0,0,0,0,0,0,0,0,0,0,0,0,0,0,0,0,0,0,0,0,0,0,0,0,0,0,0,0,0,0,0,0,0,0,0,0,0,0,0,0,0,0,0,0,0,0,0,0,0,0,0,0,0,0,0,0,0,0,0,0,0,0,0,0,0,0,0,0,0,0,0,0,0,0,0,0,0,0,0,0,0,0,0,0,0,0,0,0,0,0,0,0,0,0,0,0,0,0,0,0,0,0,0,0,0,0,0,0,0,
0,133,133,133,0,133,133,133,133,0,133,133,133,0,133,133,0,0,0,0,0,0,0,0,0,0,0,0,0,0,0,0,133,133,133,133,133,133,133,133,133,133,133,133,133,133,133,133,133,133,133,133,133,133,133,133,133,133,133,133,133,133,133,133,133,133,133,133,133,133,133,133,133,133,133,133,133,133,0,0,0,0,0,0,0,0,0,0,0,0,0,0,0,0,0,0,0,0,0,0,0,0,0,0,0,0,0,0,0,0,0,0,0,0,0,0,0,0,0,0,0,0,0,0,0,0,0,0,0,0,0,0,0,0,0,0,0,0,0,0,0,0,0,0,0,0,0,0,0,0,
0,0,0,0,0,0,0,0,0,0,0,0,0,0,0,0,0,0,0,0,0,0,0,0,0,0,0,0,0,0,0,0,0,0,0,0,0,0,0,0,0,0,0,0,0,0,0,0,0,0,0,0,0,0,0,0,0,0,0,0,0,0,0,0,0,0,0,0,0,0,0,0,0,0,0,0,0,0,0,0,0,0,0,0,0,0,0,0,0,0,0,0,0,0,0,0,0,0,0,0,0,0,0,0,0,0,0,0,0,0,0,0,0,0,0,0,0,0,0,0,0,0,0,0,0,0,0,0,0,0,0,0,0,0,0,0,0,0,0,0,0,0,0,0,0,0,0,0,0,0,
0,0,0,0,0,0,0,0,0,0,0,0,0,0,0,0,0,149,0,0,0,0,0,0,0,0,0,0,0,0,149,0,0,0,0,0,0,0,0,0,0,0,0,0,0,0,0,0,0,0,0,0,0,0,0,0,0,0,0,0,0,0,0,0,0,0,0,0,0,0,0,0,0,0,0,0,0,0,0,0,0,0,0,0,0,0,317,0,0,0,0,0,0,0,0,0,0,0,0,0,0,0,0,0,0,0,0,0,0,318,0,0,317,0,0,0,0,0,0,0,0,0,0,0,0,0,0,318,0,0,317,0,0,0,0,0,0,0,0,0,0,0,0,318,0,0,317,0,0,0,
115,115,115,115,0,0,151,152,0,0,0,0,0,0,0,0,120,0,0,0,0,0,0,0,0,0,0,0,0,0,0,118,0,0,0,0,0,0,0,0,0,0,0,0,0,0,0,0,0,0,0,0,0,0,0,0,0,0,0,0,0,0,0,0,0,0,0,0,0,0,0,0,0,0,0,0,0,0,0,0,0,0,0,0,0,0,325,0,0,0,0,0,0,0,0,0,0,0,0,0,0,0,0,0,0,0,0,0,0,326,0,0,325,0,0,0,0,0,0,0,0,0,0,0,0,0,0,326,0,0,325,0,0,0,0,0,0,0,0,0,0,0,0,326,0,0,325,0,0,0,
0,0,0,0,0,0,0,0,0,0,0,0,0,0,0,0,128,149,0,0,0,0,0,0,0,0,0,0,0,0,149,126,0,0,0,0,0,0,0,0,0,0,0,0,0,0,0,0,0,0,0,0,0,0,0,0,0,0,0,0,0,0,0,0,0,0,0,0,0,0,0,0,0,0,0,0,0,120,118,0,0,0,0,0,0,0,333,0,0,0,0,208,208,208,208,0,0,0,0,0,0,0,0,0,0,255,0,0,0,334,0,0,333,0,0,0,0,0,0,0,0,0,0,0,0,0,0,334,0,0,333,0,0,0,0,0,0,0,0,0,0,0,0,334,0,0,333,0,0,0,
0,0,0,0,0,0,0,0,0,0,0,0,0,0,0,0,0,149,0,0,0,0,0,0,0,0,0,0,0,0,149,0,0,0,0,0,0,0,0,0,0,0,0,0,0,0,0,0,0,0,0,0,0,0,0,0,0,0,0,0,0,0,0,0,0,0,0,0,0,0,0,0,0,0,0,0,0,128,126,0,0,0,0,0,0,0,0,0,0,0,0,0,0,0,0,0,0,0,0,0,0,0,0,0,0,255,0,0,0,318,0,0,317,0,0,0,0,0,0,0,0,0,0,0,0,0,0,318,0,0,317,0,0,0,0,0,0,0,0,0,0,0,0,0,0,0,0,0,0,0,
0,0,0,0,0,0,0,0,0,0,0,0,0,0,0,0,0,0,0,0,0,0,0,0,0,0,0,0,0,0,0,0,0,0,0,0,0,0,0,0,0,0,0,0,0,0,0,0,0,0,0,0,0,0,0,0,0,0,0,0,0,0,0,0,0,0,0,0,0,0,0,0,0,0,0,0,0,0,0,0,0,0,0,0,0,0,0,0,0,0,0,0,0,0,0,0,0,0,0,0,0,0,0,0,0,255,0,0,0,326,0,0,325,0,0,0,0,0,0,0,0,0,0,0,0,0,0,326,0,0,325,0,0,0,0,0,0,0,0,0,0,0,0,318,0,0,317,0,0,0,
0,0,0,0,0,0,0,0,0,0,0,0,0,0,0,0,0,0,0,0,0,0,0,0,0,0,0,0,0,0,149,0,0,0,0,0,0,0,0,0,0,0,0,0,0,0,0,0,0,0,0,0,0,0,0,0,0,0,0,0,0,0,0,0,0,0,0,0,0,0,0,0,0,0,0,0,0,0,0,0,0,0,0,0,0,0,317,0,0,0,0,0,0,0,0,0,0,0,0,0,0,0,0,0,0,255,0,0,0,334,0,0,333,0,0,0,0,0,0,0,0,0,0,0,0,0,0,334,0,0,333,0,0,0,0,0,0,0,0,0,0,0,0,326,0,0,325,0,0,0,
0,0,0,0,0,0,0,0,0,0,0,0,0,0,0,0,0,0,0,0,0,0,0,0,0,0,0,0,0,0,149,0,0,0,0,0,0,0,0,0,0,0,0,0,0,0,0,0,0,0,0,0,0,0,0,0,0,0,0,0,0,0,0,0,0,0,0,0,0,0,0,0,0,0,0,0,0,0,0,0,0,0,0,0,0,0,325,0,0,0,0,0,0,0,0,0,0,0,0,0,0,0,0,208,208,255,0,0,0,0,0,0,0,0,0,0,0,0,0,0,0,0,0,0,0,0,0,0,0,0,0,0,0,0,0,0,0,0,0,0,0,0,0,334,0,0,333,0,0,0,
0,0,0,0,0,0,0,0,0,0,0,0,0,0,0,0,0,0,0,0,0,0,0,0,0,0,0,0,0,0,0,0,0,0,0,0,0,0,0,0,0,0,0,0,0,0,0,0,0,0,0,0,0,0,0,0,0,0,0,0,0,0,0,0,0,0,0,0,0,0,0,0,0,0,0,0,0,0,0,0,0,0,0,0,0,0,333,0,0,0,224,0,0,0,0,0,0,0,0,0,0,0,0,0,0,255,290,290,290,290,0,0,290,290,290,290,290,290,290,0,0,0,290,290,290,290,290,290,0,0,0,0,0,0,0,0,0,0,0,0,0,0,0,0,0,0,0,0,0,0,
0,0,0,0,0,0,163,164,0,0,0,0,165,166,123,0,120,149,0,0,0,0,0,0,0,0,0,0,0,0,149,0,0,0,0,0,0,0,0,0,0,0,0,0,0,0,0,0,0,0,0,0,0,0,0,0,0,0,0,0,0,0,0,0,0,0,0,0,0,0,0,0,0,0,0,0,0,0,0,0,0,0,0,0,0,0,0,0,0,0,224,0,0,0,0,0,0,0,0,0,0,0,0,0,0,255,297,0,0,0,0,0,0,0,0,0,0,0,0,0,0,0,0,0,0,0,0,298,0,0,0,0,0,0,0,0,0,0,0,0,0,0,0,0,0,0,0,0,0,0,
0,0,0,0,0,0,171,172,0,0,0,0,0,0,123,0,128,149,0,0,0,0,0,0,0,0,0,0,0,0,149,0,0,0,0,0,0,0,0,0,0,0,0,0,0,0,0,0,0,0,0,0,0,0,0,0,0,0,0,0,0,0,0,0,0,0,0,0,0,0,0,0,0,0,0,0,0,120,118,0,0,0,0,0,0,0,0,0,0,0,224,0,0,0,0,0,0,0,0,0,0,0,0,0,0,255,297,0,0,0,0,0,0,0,0,0,0,0,0,0,0,0,0,0,0,0,0,0,0,0,0,0,0,0,0,0,0,0,0,0,0,0,0,0,0,0,0,0,0,0,
0,0,0,0,0,0,179,180,0,0,0,0,165,166,123,0,0,0,0,0,0,0,0,0,0,0,0,0,0,0,0,0,0,0,0,0,0,0,0,0,0,0,0,0,0,0,0,0,0,0,0,0,0,0,0,0,0,0,0,0,0,0,0,0,0,0,0,0,0,0,0,0,0,0,0,0,0,128,126,0,0,0,0,0,0,0,0,0,0,0,224,0,0,0,0,0,0,0,0,0,0,0,0,0,0,255,0,0,0,0,0,0,0,0,0,0,0,0,0,0,0,0,0,0,0,0,0,0,0,0,0,0,0,0,0,0,0,0,0,0,0,0,0,0,0,0,0,0,0,0,
0,0,0,0,0,0,0,0,0,0,0,0,173,174,123,0,0,141,0,0,0,0,0,0,0,0,0,0,0,0,141,118,0,0,0,0,0,0,0,0,0,0,0,0,0,0,0,0,0,0,0,0,0,0,0,0,0,0,0,0,0,0,0,0,0,0,0,0,0,0,0,0,0,0,0,0,0,0,0,0,0,0,0,0,0,0,0,0,0,0,0,0,0,0,0,0,0,0,0,0,0,0,0,0,0,0,0,0,0,0,0,0,0,0,0,0,0,0,0,0,0,0,0,0,0,0,0,0,0,0,0,0,318,0,0,0,0,0,0,0,0,0,0,0,0,0,0,0,0,0,
0,0,0,0,0,0,0,0,0,0,0,0,181,182,123,0,0,141,0,0,0,0,0,0,0,0,0,0,0,0,141,126,0,0,0,0,0,0,0,0,0,0,0,0,0,0,0,0,0,0,0,0,0,0,0,0,0,0,0,0,0,0,0,0,0,0,0,0,0,0,0,0,0,0,0,0,0,0,0,0,0,0,0,0,0,0,0,0,0,0,0,0,0,0,0,0,0,0,0,0,0,0,0,0,0,0,0,0,0,0,0,0,0,0,0,0,0,0,0,0,0,0,0,0,0,0,0,298,0,0,0,0,326,263,263,263,263,263,263,263,263,263,263,263,263,263,317,0,0,0,
0,0,0,0,0,0,0,0,0,0,0,0,0,0,123,0,120,0,0,0,0,0,0,0,0,0,0,0,0,0,0,0,0,0,0,0,0,0,0,0,0,0,0,0,0,0,0,0,0,268,268,0,0,0,0,0,268,268,0,0,0,0,0,0,0,0,0,0,0,0,0,0,0,0,0,0,0,0,0,0,0,0,0,0,0,0,0,0,0,0,0,0,0,0,0,0,0,0,0,0,0,0,0,0,0,0,0,0,0,208,208,208,208,208,208,208,208,208,0,0,0,0,208,208,208,208,208,208,0,0,0,0,334,0,0,0,0,0,256,0,0,0,241,242,243,0,325,0,0,0,
167,168,0,0,0,0,0,0,0,0,0,0,0,0,123,0,128,141,0,0,0,0,0,0,0,0,0,0,0,0,141,0,0,0,0,0,0,0,0,0,0,0,0,0,0,0,0,0,0,0,0,0,0,0,0,0,0,0,0,0,0,0,0,0,0,0,0,0,0,0,0,0,0,0,0,0,0,0,0,0,0,0,0,0,0,0,0,0,0,0,264,264,264,264,264,264,264,264,264,264,264,264,317,0,0,0,0,0,0,0,0,0,0,0,0,0,0,0,0,0,0,0,0,0,0,0,0,0,0,0,0,0,0,0,252,253,254,0,256,0,0,0,249,250,251,0,333,0,0,0,
175,176,0,0,0,0,0,0,0,0,0,0,0,0,123,0,0,141,0,0,0,0,0,0,0,0,0,0,0,0,141,0,0,0,0,0,0,0,0,0,0,0,0,0,0,0,0,0,0,0,0,0,0,0,0,0,0,0,0,0,0,0,0,0,0,0,0,0,0,0,0,0,0,0,0,0,0,120,118,0,0,0,0,0,0,0,0,0,0,0,0,0,0,0,0,256,0,0,0,0,0,142,325,0,0,318,0,0,0,0,0,0,0,0,0,0,0,0,0,317,0,0,0,0,0,0,0,0,0,0,0,0,0,0,260,261,262,0,256,0,0,0,0,0,0,0,0,0,0,0,
183,184,0,0,0,0,0,0,0,0,0,0,0,0,123,0,0,0,0,0,0,0,0,0,0,0,0,0,0,0,0,0,0,0,0,0,0,0,0,0,0,0,0,0,0,0,269,0,0,0,0,0,0,0,0,0,0,0,0,0,270,0,0,0,0,0,0,0,0,0,0,0,0,0,0,0,0,128,126,0,0,0,0,0,0,0,317,0,0,0,0,0,0,0,0,256,0,0,0,0,0,0,333,0,0,326,247,263,263,263,263,263,263,263,263,263,263,263,248,325,0,0,0,263,263,263,263,263,263,263,317,0,0,0,0,0,0,0,256,0,0,0,0,0,0,0,0,0,0,0,
0,0,0,0,0,0,0,0,0,0,0,0,0,0,123,0,0,149,0,0,0,0,0,0,0,0,0,0,0,0,141,0,0,0,0,0,0,0,0,0,0,0,0,0,0,0,269,0,0,0,0,0,0,0,0,0,0,0,0,0,270,0,0,0,0,0,0,0,0,0,0,0,0,0,0,0,0,0,0,0,0,0,0,0,0,0,325,0,0,0,0,0,0,0,0,256,0,0,0,0,0,0,0,0,0,334,0,0,0,0,0,0,256,0,0,0,0,0,0,333,0,0,0,134,0,0,0,0,0,256,325,0,0,0,0,0,0,0,256,0,0,0,0,0,0,0,0,0,0,0,
0,0,0,0,0,0,0,0,0,0,0,0,0,0,123,0,0,149,0,0,0,0,0,0,0,0,0,0,0,0,141,0,0,0,0,0,0,0,0,0,0,0,0,0,0,0,0,0,0,0,0,0,0,0,0,0,0,0,0,0,0,0,0,0,0,0,0,0,0,0,0,0,0,0,0,0,0,0,0,0,0,0,0,0,0,0,333,0,0,0,0,0,0,0,0,142,0,0,0,0,0,142,0,0,0,0,0,0,0,0,0,0,256,0,0,0,0,0,0,0,0,0,0,134,0,252,253,254,0,256,333,0,0,263,263,263,263,263,263,263,263,263,263,263,263,263,0,0,0,0,
0,0,0,0,163,164,0,0,0,0,0,0,0,0,123,0,120,0,0,0,0,0,0,0,0,0,0,0,0,0,0,0,0,0,0,0,0,0,0,0,0,0,0,0,0,0,0,0,0,0,0,0,337,357,377,0,0,0,0,0,0,0,0,0,0,0,0,0,0,0,0,0,0,0,0,0,0,0,0,0,0,0,0,0,0,0,0,0,0,0,264,264,264,264,264,264,264,264,264,264,264,264,0,0,0,0,0,0,0,0,0,0,256,0,0,0,0,0,0,0,0,0,0,0,0,260,261,262,0,256,0,0,0,0,0,0,0,0,256,0,0,0,0,0,0,0,0,0,0,0,
0,0,0,0,171,172,0,0,0,0,0,0,0,0,123,0,128,149,0,0,0,0,0,0,0,0,0,0,0,0,141,0,0,0,0,0,0,0,0,0,0,0,0,0,0,0,0,0,0,0,0,0,347,367,387,0,0,0,0,0,0,0,0,0,0,0,0,0,0,0,0,0,0,0,0,0,0,0,0,0,0,0,0,0,0,0,0,0,0,0,0,0,0,0,0,256,0,0,0,142,142,142,0,0,0,0,0,0,0,0,0,0,256,0,0,0,0,0,0,0,0,0,318,0,0,0,0,0,0,256,0,0,0,0,0,0,0,0,256,0,0,257,258,259,0,0,0,0,0,0,
0,0,0,0,179,180,0,0,0,0,0,0,0,0,123,0,0,149,0,0,0,0,0,0,0,0,0,0,0,0,141,118,0,0,0,0,0,0,0,0,0,0,0,0,0,0,0,0,0,0,0,0,0,0,0,0,0,0,0,0,0,0,0,0,0,0,0,0,0,0,0,0,0,0,0,0,0,0,0,0,0,0,0,0,0,0,0,0,0,0,0,0,0,0,0,142,0,0,0,0,0,0,0,0,0,0,0,0,0,0,0,0,256,0,0,0,0,0,0,0,0,0,326,134,0,0,0,0,0,256,0,0,0,0,0,236,237,238,256,0,0,265,266,267,0,0,0,0,0,0,
0,0,0,0,0,0,0,0,0,0,0,0,0,0,123,0,0,0,0,0,0,0,0,0,0,0,0,0,0,0,0,126,0,0,0,0,0,0,0,0,0,0,0,0,0,0,269,0,0,0,0,0,0,0,0,0,0,0,0,0,270,0,0,0,0,0,0,0,0,0,0,0,0,0,0,0,0,0,0,0,0,0,0,0,0,0,0,0,0,0,0,0,0,0,0,142,0,0,0,0,0,0,0,0,0,0,264,264,264,264,264,264,264,264,264,264,264,264,264,317,0,0,334,264,264,264,264,264,264,264,0,0,318,0,0,244,245,246,256,0,0,0,0,0,0,0,317,0,0,0,
0,0,0,0,0,0,0,0,0,0,0,0,0,0,123,0,0,149,0,0,0,0,0,0,0,0,0,0,0,0,149,0,0,0,0,0,0,0,0,0,0,0,0,0,0,0,269,0,0,0,0,0,0,0,0,0,0,0,0,0,270,0,0,0,0,0,0,0,0,0,0,0,0,0,0,0,0,0,0,0,0,0,0,0,0,0,317,0,0,0,0,0,0,0,0,256,0,0,0,0,0,0,317,0,0,0,0,0,0,0,0,0,256,0,0,0,0,0,0,325,0,0,0,157,0,0,0,0,0,256,0,0,326,0,0,0,0,0,256,0,0,0,0,0,0,0,325,0,0,0,
0,0,0,0,0,0,0,0,0,0,0,0,0,0,123,0,0,149,0,0,0,0,0,0,0,0,0,0,0,0,149,0,0,0,0,0,0,0,0,0,0,0,0,0,0,0,0,0,0,0,0,0,0,0,0,0,0,0,0,0,0,0,0,0,0,0,0,0,0,0,0,0,0,0,0,0,0,0,0,0,0,0,0,0,0,0,325,0,0,0,264,264,264,264,264,264,264,264,264,264,264,264,325,0,0,0,0,0,0,0,0,0,256,0,0,0,0,0,0,333,0,0,0,0,0,257,258,259,0,256,0,0,334,263,263,263,263,263,263,263,263,263,263,263,263,263,333,0,0,0,
0,0,0,0,0,0,0,0,0,0,0,0,0,0,123,0,120,0,0,0,0,0,0,0,0,0,0,0,0,0,149,0,0,0,0,0,0,0,0,0,0,0,0,0,0,0,0,0,0,0,0,0,0,0,0,0,0,0,0,0,0,0,0,0,0,0,0,0,0,0,0,0,0,0,0,0,0,120,118,0,0,0,0,0,0,0,333,0,0,0,0,0,0,0,0,256,142,0,0,0,0,142,333,0,0,0,0,0,0,0,0,0,256,0,0,0,0,0,0,0,0,0,0,0,0,265,266,267,0,256,0,0,0,142,0,0,0,0,142,0,0,0,0,0,0,142,0,0,0,0,
167,168,0,0,0,0,0,0,0,0,0,0,0,0,123,0,128,149,0,0,0,0,0,0,0,0,0,0,0,0,149,0,0,0,0,0,0,0,0,0,0,0,0,0,0,0,0,0,0,271,271,0,0,0,0,0,271,271,0,0,0,0,0,0,0,0,0,0,0,0,0,0,0,0,0,0,0,128,126,0,0,0,0,0,0,0,0,0,0,0,0,0,0,0,0,256,0,0,0,0,0,0,0,0,0,318,0,0,0,0,0,0,256,0,0,0,0,0,0,0,0,0,0,157,0,0,0,0,0,256,0,0,0,142,0,257,258,259,256,0,0,252,253,254,0,0,0,0,0,0,
175,176,0,0,0,0,0,0,0,0,0,0,0,0,123,0,0,149,0,0,0,0,0,0,0,0,0,0,0,0,149,0,0,0,0,0,0,0,0,0,0,0,0,0,0,0,0,0,0,0,0,0,0,0,0,0,0,0,0,0,0,0,0,0,0,0,0,0,0,0,0,0,0,0,0,0,0,0,0,0,0,0,0,0,0,0,0,0,0,0,0,0,0,0,0,256,0,0,0,0,0,0,0,0,0,326,0,0,0,0,0,0,256,0,0,0,0,0,0,0,0,0,318,157,0,0,0,0,0,256,0,0,0,0,0,265,266,267,256,0,0,260,261,262,0,0,0,0,0,0,
183,184,0,0,0,0,0,0,0,0,0,0,0,0,123,0,0,0,0,0,0,0,0,0,0,0,0,0,0,0,0,0,0,0,0,0,0,0,0,0,0,0,0,0,0,0,0,0,0,0,0,0,0,0,0,0,0,0,0,0,0,0,0,0,0,0,0,0,0,0,0,0,0,0,0,0,0,0,0,0,0,0,0,0,0,0,0,0,0,0,0,0,0,0,0,256,142,0,0,0,0,0,0,0,0,334,264,264,264,264,264,264,264,264,264,264,264,264,264,0,0,0,326,264,264,264,264,264,264,264,0,0,0,0,0,0,0,0,256,0,0,0,0,0,0,0,0,0,0,0,
0,0,0,0,0,0,0,0,0,0,0,0,0,0,0,0,0,0,0,0,0,0,0,0,0,0,0,0,0,0,149,0,0,0,0,0,0,0,0,0,0,0,0,0,0,0,0,0,0,0,0,0,0,0,0,0,0,0,0,0,0,0,0,0,0,0,0,0,0,0,0,0,0,0,0,0,0,0,0,0,0,0,0,0,0,0,317,0,0,0,264,264,264,264,264,264,264,264,264,264,264,264,0,0,0,0,0,0,0,0,0,0,256,0,0,0,0,0,0,0,0,0,334,0,0,0,0,0,0,256,317,0,0,142,0,0,0,0,142,0,0,0,0,0,0,142,0,0,0,0,
0,0,0,0,0,0,0,0,0,0,0,0,0,0,0,0,0,0,0,0,0,0,0,0,0,0,0,0,0,0,149,0,0,0,0,0,0,0,0,0,0,0,0,0,0,0,0,0,0,0,0,0,0,0,0,0,0,0,0,0,0,0,0,0,0,0,0,0,0,0,0,0,0,0,0,0,0,0,0,0,0,0,0,0,0,0,325,0,0,0,0,0,0,0,0,256,134,0,0,0,0,134,0,0,0,0,0,0,0,0,0,0,256,0,0,0,0,0,0,0,0,0,0,0,0,236,237,238,0,256,325,0,0,263,263,263,263,263,263,263,263,263,263,263,263,263,317,0,0,0,
0,0,0,0,0,0,0,0,0,0,0,0,0,0,0,0,0,0,0,0,0,0,0,0,0,0,0,0,0,0,0,118,0,0,0,0,0,0,0,0,0,0,0,0,0,0,0,0,0,0,0,0,0,0,0,0,0,0,0,0,0,0,0,0,0,0,0,0,0,0,0,0,0,0,0,0,0,0,0,0,0,0,0,0,0,0,333,0,0,0,0,0,0,0,0,256,0,0,0,0,0,0,0,0,0,0,0,0,0,0,0,0,256,0,0,0,0,0,0,0,0,0,0,0,0,244,245,246,0,134,333,0,0,157,0,0,0,0,256,0,0,0,0,0,0,0,325,0,0,0,
0,0,0,0,0,0,0,0,0,0,0,0,0,0,123,0,120,141,0,0,0,0,0,0,0,0,0,0,0,0,149,126,0,0,0,0,0,0,0,0,0,0,0,0,0,0,0,0,0,0,0,0,0,0,0,0,0,0,0,0,0,0,0,0,0,0,0,0,0,0,0,0,0,0,0,0,0,0,0,0,0,0,0,0,0,0,0,0,0,0,0,0,0,0,0,256,0,0,0,0,0,0,317,0,0,0,0,0,0,0,0,0,256,0,0,0,0,0,0,317,0,0,0,134,0,0,0,0,0,134,0,0,0,157,0,252,253,254,256,0,236,237,238,0,0,0,333,0,0,0,
0,0,0,0,0,0,0,0,0,0,0,0,0,0,123,0,128,141,0,0,0,0,0,0,0,0,0,0,0,0,149,0,0,0,0,0,0,0,0,0,0,0,0,0,0,0,0,0,0,0,0,0,0,0,0,0,0,0,0,0,0,0,0,0,0,0,0,0,0,0,0,0,0,0,0,0,0,120,118,0,0,0,0,0,0,0,0,0,0,0,0,0,0,0,0,256,134,0,0,0,0,142,325,0,0,0,0,0,0,0,0,0,256,0,0,0,0,0,0,325,0,0,0,134,0,0,0,0,0,256,0,0,0,0,0,260,261,262,256,0,244,245,246,0,0,0,0,0,0,0,
0,0,0,0,0,0,0,0,0,0,0,0,0,0,123,0,0,0,0,0,0,0,0,0,0,0,0,0,0,0,0,0,0,0,0,0,0,0,0,0,0,0,0,0,0,0,0,0,0,0,0,0,0,0,0,0,0,0,0,0,0,0,0,0,0,0,0,0,0,0,0,0,0,0,0,0,0,128,126,0,0,0,0,0,0,0,0,0,0,0,264,264,264,264,264,264,264,264,264,264,264,264,333,0,0,0,264,264,264,264,264,264,264,264,264,264,264,264,264,333,0,0,0,264,264,264,264,264,264,264,0,0,318,0,0,0,0,0,256,0,0,0,0,0,0,0,0,0,0,0,
0,0,0,0,0,0,0,0,0,0,0,0,0,0,123,0,0,149,0,0,0,0,0,0,0,0,0,0,0,0,149,0,0,0,0,0,0,0,0,0,0,0,0,0,0,0,0,0,0,0,0,0,0,0,0,0,0,0,0,0,0,0,0,0,0,0,0,0,0,0,0,0,0,0,0,0,0,0,0,0,0,0,0,0,0,0,0,0,0,0,0,0,0,0,0,0,0,0,0,0,0,0,0,0,0,0,0,0,0,0,0,0,0,0,0,0,0,0,0,0,0,0,0,0,0,0,0,0,0,0,0,0,326,157,0,0,0,0,256,0,0,0,0,0,0,0,0,0,0,0,
0,0,0,0,0,0,0,0,167,168,0,0,0,0,123,0,0,149,0,0,0,0,0,0,0,0,0,0,0,0,149,0,0,0,0,0,0,0,0,0,0,0,0,0,0,0,0,0,0,0,0,0,0,0,0,0,0,0,0,0,0,0,0,0,0,0,0,0,0,0,0,0,0,0,0,0,0,0,0,0,0,0,0,0,0,0,0,0,0,0,0,0,0,0,0,0,0,0,0,0,0,0,0,0,0,0,0,0,0,0,0,0,0,0,0,0,0,0,0,0,0,0,0,0,0,0,0,0,0,0,0,0,334,157,263,263,263,263,263,263,263,263,263,263,263,248,0,0,0,0,
0,0,0,0,0,0,0,0,175,176,0,0,0,0,123,0,120,0,0,0,0,0,0,0,0,0,0,0,0,0,0,0,0,0,0,0,0,0,0,0,0,0,0,0,0,0,0,0,0,0,0,0,0,0,0,0,0,0,0,0,0,0,0,0,0,0,0,0,0,0,0,0,0,0,0,0,0,0,0,0,0,0,0,0,0,0,317,0,0,0,0,0,0,0,0,0,0,0,0,0,0,0,0,0,0,0,0,0,0,0,0,0,0,0,0,0,0,0,0,0,0,0,0,0,0,0,0,0,0,0,0,0,0,134,134,134,0,0,256,0,0,0,0,0,0,256,0,0,0,0,
0,0,0,0,0,0,0,0,183,184,0,0,0,0,123,0,128,141,0,0,0,0,0,0,0,0,0,0,0,0,149,0,0,0,0,0,0,0,0,0,0,0,0,0,0,0,0,0,0,0,0,0,0,0,0,0,0,0,0,0,0,0,0,0,0,0,0,0,0,0,0,0,0,0,0,0,0,0,0,0,0,0,0,0,0,0,325,0,0,0,0,0,0,0,0,0,0,0,0,0,0,317,0,0,0,0,0,0,0,0,0,0,0,0,0,0,0,0,0,0,0,0,0,0,0,0,0,0,0,0,0,0,0,255,0,0,0,0,256,0,0,0,0,0,0,256,0,0,0,0,
0,0,0,0,0,0,0,0,0,0,0,0,0,0,123,0,0,149,0,0,0,0,0,0,0,0,0,0,0,0,149,0,0,0,0,0,0,0,0,0,0,0,0,0,0,0,0,0,0,0,0,0,0,0,0,0,0,0,0,0,0,0,0,0,0,0,0,0,0,0,0,0,0,0,0,0,0,0,0,0,0,0,0,0,0,0,333,0,0,0,264,264,264,264,264,264,264,264,264,264,264,325,0,0,0,0,0,290,290,290,290,290,0,291,0,291,0,290,290,290,290,290,290,317,0,0,0,0,0,0,0,0,0,255,0,225,226,227,256,134,0,0,0,0,0,134,0,0,0,0,
0,0,0,0,0,0,0,0,0,0,0,0,0,0,123,0,0,0,0,0,0,0,0,0,0,0,0,0,0,0,0,0,0,0,0,0,0,0,0,0,0,0,0,0,0,0,0,0,0,0,0,0,0,0,0,0,0,0,0,0,0,0,0,0,0,0,0,0,0,0,0,0,0,0,0,0,0,0,0,0,0,0,0,0,0,0,0,0,0,0,0,0,0,0,256,0,0,0,0,0,0,333,0,0,0,0,0,297,0,0,0,0,0,0,0,0,0,0,0,0,0,120,298,325,0,0,0,0,0,0,0,0,0,255,0,233,234,235,256,134,0,0,0,0,0,134,0,0,0,0,
0,0,0,0,0,0,0,0,0,0,0,0,0,0,123,0,0,149,0,0,0,0,0,0,0,0,0,0,0,0,149,0,0,0,0,0,0,0,0,0,0,0,0,0,0,0,0,0,0,0,0,0,0,0,0,0,0,0,0,0,0,0,0,0,0,0,0,0,0,0,0,0,0,0,0,0,0,120,118,0,0,0,0,0,0,0,0,0,0,0,0,0,0,0,256,0,0,0,0,0,0,0,0,0,0,0,0,297,0,0,0,0,0,0,0,0,0,0,0,0,0,128,298,333,0,0,0,0,0,0,0,0,318,255,0,0,0,0,256,0,0,0,0,0,0,256,317,0,0,0,
0,0,0,0,0,0,0,0,0,0,0,0,0,0,123,0,120,149,0,0,0,0,0,0,0,0,0,0,0,0,149,118,0,0,0,0,0,0,0,0,0,0,0,0,0,0,0,0,0,0,0,0,0,0,0,0,0,0,0,0,0,0,0,0,0,0,0,0,0,0,0,0,0,0,0,0,0,128,126,0,0,0,0,0,0,0,317,0,0,0,0,0,0,0,256,0,0,0,0,0,0,0,0,0,0,0,318,297,0,0,0,0,0,0,0,0,0,0,0,0,0,0,298,0,0,0,0,0,0,0,0,0,326,255,0,231,0,232,256,0,0,231,0,232,0,256,325,0,0,0,
116,0,0,0,0,116,116,116,116,0,0,0,0,116,0,0,128,0,0,0,0,0,0,0,0,0,0,0,0,0,0,126,0,0,0,0,0,0,0,0,0,0,0,0,0,0,0,0,0,0,0,0,0,0,0,0,0,0,0,0,0,0,0,0,0,0,0,0,0,0,0,0,0,0,0,0,0,0,0,0,0,0,0,0,0,0,325,0,0,0,0,0,0,0,256,0,0,0,0,0,0,0,0,0,0,0,326,297,118,0,0,0,0,120,118,0,0,0,0,0,0,0,298,0,0,0,0,0,0,0,0,0,334,264,264,239,0,240,264,264,264,239,0,240,264,264,333,0,0,0,
0,0,0,0,0,0,0,0,0,0,0,0,0,0,0,0,0,141,0,0,0,0,0,0,0,0,0,0,0,0,149,0,0,0,0,0,0,0,0,0,0,0,0,0,0,0,0,0,0,0,0,0,0,0,0,0,0,0,0,0,0,0,0,0,0,0,0,0,0,0,0,0,0,0,0,0,0,0,0,0,0,0,0,0,0,0,333,0,0,0,264,264,264,264,264,264,264,264,264,264,264,0,0,0,0,0,334,297,126,0,0,0,0,128,126,0,0,0,0,0,0,0,298,0,0,0,0,0,0,0,0,0,0,0,0,0,0,0,0,0,0,0,0,0,0,0,0,0,0,0,
0,0,0,0,0,0,0,0,0,0,0,0,0,0,0,0,0,0,0,0,0,0,0,0,0,0,0,0,0,0,0,0,0,0,0,0,0,0,0,0,0,0,0,0,0,0,0,0,0,0,0,0,0,0,0,0,0,0,0,0,0,0,0,0,0,0,0,0,0,0,0,0,0,0,0,0,0,0,0,0,0,0,0,0,0,0,0,0,0,0,0,0,0,0,256,0,0,0,0,0,0,0,0,0,0,0,0,297,0,0,0,0,0,0,0,0,0,0,0,0,0,120,298,0,0,0,0,0,0,0,0,0,0,0,0,0,0,0,0,0,0,0,0,0,0,0,0,0,0,0,
0,0,0,0,0,0,0,0,0,0,0,0,0,0,0,0,0,0,0,0,0,0,0,0,0,0,0,0,0,0,0,0,0,0,0,0,0,0,0,0,0,0,0,0,0,0,0,0,0,0,0,0,0,0,0,0,0,0,0,0,0,0,0,0,0,0,0,0,0,0,0,0,0,0,0,0,0,0,0,0,0,0,0,0,0,0,0,0,0,0,0,0,0,0,256,0,0,0,0,0,0,0,0,0,0,0,0,297,0,0,0,0,0,0,0,0,0,0,0,0,0,128,298,317,0,0,0,247,263,248,0,0,247,263,248,247,248,0,0,247,263,263,248,247,248,0,0,247,263,248,
0,0,0,0,0,0,0,0,0,0,0,0,0,0,0,0,0,0,0,0,0,0,0,0,0,0,0,0,0,0,0,0,0,0,0,0,0,0,0,0,0,0,0,0,0,0,0,0,0,0,0,0,0,0,0,0,0,0,0,0,0,0,0,0,0,0,0,0,0,0,0,0,0,0,0,0,0,0,0,0,0,0,0,0,0,0,0,0,0,0,0,0,0,0,256,0,0,0,0,0,0,317,0,0,0,0,0,0,0,0,0,0,0,0,0,0,0,0,0,0,0,0,0,325,0,0,0,255,0,0,0,0,0,0,256,255,0,0,0,0,0,0,256,255,0,0,0,0,0,256,
0,0,0,0,0,0,0,0,0,0,0,0,0,0,0,0,0,0,0,0,0,0,0,0,0,0,0,0,0,0,0,0,0,0,0,0,0,0,0,0,0,0,0,0,0,0,0,0,0,0,0,0,0,0,0,0,0,0,0,0,0,0,0,0,0,0,0,0,0,0,0,0,0,0,0,0,0,0,0,0,0,0,0,0,0,0,0,0,0,0,0,0,0,0,256,0,0,0,0,0,0,325,0,0,0,0,0,305,0,0,0,0,0,0,0,0,0,0,0,0,0,0,306,333,0,0,0,255,0,0,0,0,0,0,256,255,0,0,0,0,0,0,256,255,0,0,0,0,0,256,
0,0,0,0,0,0,0,0,0,0,0,0,0,0,0,0,0,0,0,0,0,0,0,0,0,0,0,0,0,0,0,0,0,0,0,0,0,0,0,0,0,0,0,0,0,0,0,0,0,0,0,0,0,0,0,0,0,0,0,0,0,0,0,0,0,0,0,0,0,0,0,0,0,0,0,0,0,0,0,0,0,0,0,0,0,0,317,0,0,0,264,264,264,264,264,264,264,264,264,264,264,333,0,0,0,0,0,0,0,0,0,0,0,0,0,0,0,0,0,0,0,0,0,0,0,0,0,255,0,0,0,0,0,0,256,255,0,0,0,0,0,0,256,255,0,0,0,0,0,256,
0,0,0,0,0,0,0,0,0,0,0,0,0,0,0,0,0,0,0,0,0,0,0,0,0,0,0,0,0,0,0,0,0,0,0,0,0,0,0,0,0,0,0,0,0,0,0,0,0,0,0,0,0,277,0,0,0,0,0,0,0,0,0,0,0,0,0,0,0,0,0,0,0,0,0,0,0,277,0,0,0,0,0,0,0,0,325,0,0,0,0,0,0,0,256,0,0,0,0,0,0,0,0,0,0,0,0,305,0,0,0,0,0,0,0,0,0,0,0,0,0,0,306,0,0,0,0,255,0,0,0,0,0,0,256,255,0,0,0,0,0,0,256,255,0,0,0,0,0,256,
0,0,0,0,0,0,0,0,0,0,0,0,0,0,0,0,0,0,0,0,0,0,0,0,0,0,0,0,0,0,0,0,0,0,0,0,0,0,0,0,0,0,0,0,0,0,0,0,0,0,0,0,0,285,0,0,0,0,0,0,0,0,0,0,0,0,0,0,0,0,0,0,0,0,0,0,0,285,0,0,0,0,0,0,0,0,333,0,0,0,0,0,0,0,256,0,0,0,0,0,0,0,0,0,0,0,0,0,0,0,0,0,0,120,118,0,0,0,0,0,0,0,0,0,0,0,318,255,0,0,0,0,0,0,256,255,0,0,0,0,0,0,256,255,0,0,0,0,0,256,
0,0,0,0,0,0,0,0,0,0,0,0,0,0,0,0,0,0,0,0,0,0,0,0,0,0,0,0,0,0,0,0,0,0,0,0,0,0,0,0,0,0,0,0,0,0,0,0,0,0,0,0,0,293,0,0,0,0,0,0,0,0,0,0,0,0,0,0,0,0,0,0,0,0,0,0,0,293,0,0,0,0,0,0,0,0,0,0,0,0,0,0,0,0,256,0,0,0,0,0,0,0,0,0,0,0,0,297,0,0,0,0,0,128,126,0,0,0,0,0,0,120,298,0,0,0,326,255,0,0,0,0,0,0,256,255,0,0,0,0,0,0,256,255,0,0,0,0,0,256,
0,0,0,0,0,0,0,0,0,0,0,0,0,0,0,0,120,149,0,0,0,0,0,0,0,0,0,0,0,0,149,0,0,0,0,0,0,0,0,0,0,0,0,0,0,0,0,0,0,0,0,0,0,0,0,0,0,0,0,0,0,0,0,0,0,0,0,0,0,0,0,0,0,0,0,0,0,0,0,0,0,0,0,0,0,0,0,0,0,0,0,0,0,0,256,0,0,0,0,0,0,0,0,0,0,0,0,297,0,0,0,0,0,0,0,0,0,0,0,0,0,128,298,0,0,0,334,264,264,264,264,264,264,264,264,264,264,264,264,264,264,264,264,264,264,264,264,264,264,264,
0,0,0,0,0,0,0,0,0,0,0,0,0,0,0,0,128,149,0,0,0,0,0,0,0,0,0,0,0,0,149,118,0,0,247,263,263,263,263,248,0,0,0,0,0,0,0,0,0,0,0,0,0,0,0,0,0,0,0,0,0,0,0,0,0,0,0,0,0,0,0,0,0,0,0,0,0,0,0,0,0,0,0,0,0,0,0,0,0,0,263,263,263,263,248,263,263,263,263,263,248,0,0,0,0,0,318,297,0,0,0,0,0,0,0,0,0,0,0,0,0,0,298,0,0,0,0,255,0,0,0,0,0,0,256,255,0,0,0,0,0,0,256,255,0,0,0,0,0,256,
0,0,0,0,0,0,0,0,0,0,0,0,0,0,0,0,0,0,0,0,0,0,0,0,0,0,0,0,0,0,0,126,0,0,0,0,0,0,0,256,134,0,0,0,134,157,157,0,0,157,157,142,142,0,0,142,142,0,0,0,142,0,0,0,0,157,0,0,0,157,157,0,0,0,157,157,0,0,0,157,157,0,0,0,157,157,0,0,0,157,0,0,0,0,256,0,0,0,0,0,256,0,0,0,0,0,326,297,118,0,0,0,0,0,0,0,0,0,0,0,0,0,298,0,0,0,0,134,0,0,0,0,0,0,134,142,0,0,0,0,0,0,142,255,0,0,0,0,0,256,
0,0,0,0,0,0,0,0,0,0,0,0,0,0,0,0,0,149,0,0,0,0,0,0,0,0,0,0,0,0,149,0,0,0,0,0,0,0,0,256,0,0,0,0,0,255,0,0,0,0,0,255,0,0,0,0,255,0,0,0,256,0,0,0,0,255,0,0,0,0,255,0,0,0,0,255,0,0,0,0,255,0,0,0,0,255,0,0,0,256,0,0,0,0,256,0,0,0,0,0,256,0,0,0,0,0,334,297,126,0,0,0,0,0,0,0,0,0,0,0,0,0,298,0,0,0,0,134,0,0,0,0,0,0,134,255,0,0,0,0,0,0,256,255,0,0,0,0,0,256,
0,0,0,0,0,0,0,0,0,0,0,0,0,0,0,0,0,149,0,0,0,0,0,0,0,0,0,0,0,0,149,0,0,0,0,0,0,0,0,256,0,0,0,0,0,255,0,0,0,0,0,255,0,0,0,0,255,0,0,0,256,0,0,0,0,255,0,0,0,0,255,0,0,0,0,255,0,0,0,0,255,0,0,0,0,255,0,0,0,256,0,0,0,0,256,0,0,0,0,0,256,0,0,0,0,0,0,297,0,0,0,271,0,0,0,0,0,0,0,0,0,0,298,317,0,0,0,255,0,0,0,0,0,0,256,255,0,0,0,0,0,0,256,255,0,0,0,0,0,256,
0,0,0,0,0,0,0,0,0,0,0,0,0,0,0,0,120,0,0,0,0,0,0,0,0,0,0,0,0,0,0,0,0,0,264,264,264,264,264,264,0,0,0,0,0,255,0,0,0,0,0,255,0,0,0,0,255,0,0,0,256,0,0,0,313,255,260,261,262,0,255,244,245,246,0,255,244,245,246,0,255,265,266,267,0,255,260,261,262,256,0,0,0,0,256,0,0,0,0,0,256,0,0,0,0,0,0,297,0,0,0,0,0,0,0,0,0,0,0,0,0,0,298,325,0,0,0,255,0,0,0,0,0,0,256,255,134,0,0,0,0,0,256,255,0,0,0,0,0,256,
0,0,0,0,0,0,0,0,0,0,0,0,0,0,0,0,128,149,0,0,0,0,0,0,0,0,0,0,0,0,149,0,0,0,0,0,0,0,0,256,263,263,263,263,263,263,263,263,263,263,263,263,263,263,263,263,263,263,263,263,263,0,0,0,321,255,0,0,0,0,255,0,0,0,0,255,0,0,0,0,255,0,0,0,0,255,0,0,0,256,0,231,0,232,256,0,0,231,0,232,256,0,0,0,0,0,0,290,290,290,290,290,290,290,0,291,0,291,0,290,290,290,290,333,0,0,0,255,0,231,0,232,0,0,256,255,134,231,0,232,134,134,256,255,142,142,231,0,232,256,
0,0,0,0,0,0,0,0,0,0,0,0,0,0,0,0,0,149,0,0,0,0,0,0,0,0,0,0,0,0,149,0,0,0,0,0,0,0,0,256,0,0,0,0,0,255,0,0,0,0,0,255,0,0,0,0,255,0,0,0,256,0,0,0,329,264,264,264,264,264,264,264,264,264,264,264,264,264,264,264,264,264,264,264,264,264,264,264,264,264,264,239,0,240,240,264,264,239,0,240,240,0,0,0,0,0,0,0,0,0,0,0,0,0,0,0,0,0,0,0,0,0,0,0,0,0,0,264,264,239,0,240,264,264,264,264,264,239,0,240,264,264,264,264,264,264,239,0,264,264,
0,0,0,0,0,0,0,0,0,0,0,0,167,168,0,0,0,0,0,0,0,0,0,0,0,0,0,0,0,0,0,0,0,0,264,264,264,264,264,264,0,0,0,0,0,255,0,0,0,0,0,255,0,0,0,0,255,0,0,0,256,0,0,0,0,0,0,0,0,0,0,0,0,0,0,0,0,0,0,0,0,0,0,0,0,0,0,0,0,0,0,0,0,0,0,0,0,0,0,0,0,0,0,0,0,0,0,0,0,0,0,0,0,0,0,0,0,0,0,0,0,0,0,0,0,0,0,0,0,0,0,0,0,0,0,0,0,0,0,0,0,0,0,0,0,0,0,0,0,0,
0,0,0,0,0,0,0,0,0,0,0,0,175,176,0,0,0,149,0,0,0,0,0,0,0,0,0,0,0,0,149,118,0,0,255,0,249,250,251,256,0,0,0,0,0,255,0,0,0,0,0,255,0,0,0,0,255,0,0,0,256,0,0,0,0,0,0,0,0,0,0,0,0,0,0,0,0,0,0,0,0,0,0,0,0,0,0,0,0,0,0,0,0,0,0,0,0,0,0,0,0,0,0,0,0,0,0,0,0,0,0,0,0,0,0,0,0,0,0,0,0,0,0,0,0,0,0,0,0,0,0,0,0,0,0,0,0,0,0,0,0,0,0,0,0,0,0,0,0,0,
0,0,0,0,0,0,0,0,0,0,0,0,0,0,0,0,0,149,0,0,0,0,0,0,0,0,0,0,0,0,149,126,0,0,255,0,231,0,232,256,0,0,231,0,232,255,0,231,0,232,0,255,0,231,0,232,255,0,142,0,256,0,0,0,0,0,0,0,0,0,0,0,0,0,0,0,0,0,0,0,0,0,0,0,0,0,0,0,0,0,0,0,0,0,0,0,0,0,0,0,0,0,0,0,0,0,0,0,0,0,0,0,0,0,0,0,0,0,0,0,0,0,0,0,0,0,0,0,0,0,0,0,0,0,0,0,0,0,0,0,0,0,0,0,0,0,0,0,0,0,
0,0,0,0,0,0,0,0,0,0,0,0,0,0,0,0,120,0,0,0,0,0,0,0,0,0,0,0,0,0,0,0,0,0,264,264,239,0,240,264,264,264,239,0,240,264,264,239,0,240,264,264,264,239,0,240,264,264,0,0,240,0,0,0,0,0,0,0,0,0,0,0,0,0,0,0,0,231,0,232,0,0,0,0,247,0,0,0,0,0,0,0,0,0,0,0,248,0,0,0,0,0,231,0,232,0,0,0,231,0,232,0,0,0,0,0,231,0,0,232,0,0,0,0,247,0,0,0,0,248,247,0,0,0,248,247,0,0,0,248,0,0,0,0,263,263,263,263,263,248,
0,0,0,0,0,0,0,0,0,0,0,0,0,0,0,0,128,149,0,0,0,0,0,0,0,0,0,0,0,0,149,0,0,0,0,0,0,0,0,0,0,0,0,0,0,0,0,0,0,0,0,0,0,0,0,0,0,0,0,0,0,0,0,0,318,264,264,264,264,264,264,264,264,264,264,264,264,239,0,240,264,317,0,0,255,0,0,0,0,0,0,0,0,0,0,0,256,317,0,0,264,264,239,0,240,264,264,264,239,0,240,264,264,264,264,264,239,0,0,240,317,0,0,0,142,142,0,0,0,142,142,0,0,0,142,142,0,0,0,142,317,0,0,0,142,0,0,0,0,256,
0,0,0,0,0,0,0,0,0,0,0,0,0,0,0,0,0,149,0,0,0,0,0,0,0,0,0,0,0,0,149,0,0,0,0,0,0,0,0,0,0,0,0,0,0,0,0,0,0,0,0,0,0,0,0,0,0,0,0,0,0,0,0,0,326,0,0,0,0,0,0,0,0,0,134,0,0,0,0,0,256,325,0,0,255,0,0,0,0,0,0,0,0,0,0,0,256,325,0,0,142,142,0,0,0,142,142,255,0,0,0,0,0,134,142,0,0,0,0,256,325,0,0,0,255,0,0,0,0,256,255,0,0,0,256,255,0,0,0,256,325,0,0,0,142,0,0,0,0,256,
0,0,0,0,0,0,163,164,163,164,0,0,0,0,0,0,0,0,0,0,0,0,0,0,0,0,0,0,0,0,0,0,0,0,247,263,263,263,263,248,0,0,0,247,263,263,263,263,248,263,0,0,0,263,248,263,263,263,263,263,248,0,0,0,334,0,0,0,0,0,0,0,0,0,256,0,0,0,0,0,256,333,0,0,255,0,0,0,0,0,0,0,0,0,0,0,256,333,0,0,255,0,0,0,0,0,256,255,0,0,0,0,0,256,142,0,0,0,0,256,333,0,0,0,255,0,0,0,0,256,255,0,0,0,256,255,0,0,0,256,333,0,0,0,0,0,0,0,0,256,
0,0,0,0,0,0,171,172,171,172,0,0,0,0,0,0,0,0,0,0,0,0,0,0,0,0,0,0,0,0,149,0,0,0,0,0,0,0,0,256,317,0,0,0,0,0,0,0,256,142,0,0,0,0,142,0,0,0,0,0,0,0,0,0,0,0,0,0,0,0,0,0,0,0,134,0,0,0,0,0,256,0,0,0,255,0,0,0,0,0,0,0,0,0,0,0,256,0,0,0,255,0,0,0,0,0,256,255,0,0,0,0,0,256,142,0,0,0,0,256,0,0,0,0,255,0,0,0,0,256,255,0,0,0,256,255,0,0,0,256,0,0,0,0,0,0,0,0,0,256,
0,0,0,0,0,0,179,180,179,180,0,0,0,0,0,0,0,0,0,0,0,0,0,0,0,0,0,0,0,0,149,118,0,0,0,0,0,0,0,256,325,0,0,0,0,0,0,0,256,0,0,0,0,0,256,0,0,0,0,0,0,0,0,0,0,0,0,0,134,134,0,0,0,0,256,142,0,0,0,0,256,0,0,0,255,0,0,0,0,0,0,0,0,0,0,0,256,0,0,0,255,0,0,0,0,0,256,255,0,0,0,0,0,256,142,0,0,0,0,256,0,0,0,318,255,0,0,0,0,256,255,0,0,0,256,255,0,0,0,256,0,0,0,318,142,0,0,0,0,256,
0,0,0,0,0,0,0,0,0,0,0,0,0,0,0,0,0,0,0,0,0,0,0,0,0,0,0,0,0,0,0,126,0,0,0,0,0,0,0,256,333,0,0,0,0,0,0,0,256,0,0,0,0,0,256,0,0,0,0,0,0,0,0,0,0,0,0,0,0,0,0,0,0,0,134,142,0,0,0,0,256,0,0,0,255,0,0,0,0,0,0,0,0,0,0,0,256,0,0,0,264,264,264,264,264,264,264,264,264,264,264,264,264,264,264,264,264,264,264,264,0,0,0,326,264,264,264,264,264,264,264,264,264,264,264,264,264,264,264,264,0,0,0,326,142,263,263,263,263,263,
0,0,0,0,0,0,0,0,0,0,0,0,0,0,0,0,120,149,0,0,0,0,0,0,0,0,0,0,0,0,149,0,0,0,264,264,264,264,264,264,0,0,0,0,0,0,0,0,256,0,0,0,0,0,256,0,0,0,0,0,0,0,0,0,0,0,0,0,0,0,0,134,134,0,256,150,0,0,0,150,0,0,0,0,255,0,0,0,0,0,0,0,0,0,0,0,256,0,0,318,0,0,0,0,0,0,0,0,0,256,255,0,0,0,0,0,0,0,0,0,0,0,0,334,0,0,0,0,0,0,0,256,255,0,0,0,0,0,0,0,0,0,0,334,0,0,0,0,142,256,
0,0,0,0,0,0,0,0,0,0,0,0,0,0,0,0,128,149,0,0,0,0,0,0,0,0,0,0,0,0,149,0,0,0,0,0,0,0,0,256,0,0,0,264,264,264,264,264,264,264,264,264,264,264,264,264,264,264,264,264,264,0,0,0,0,157,263,263,263,263,263,263,263,263,263,158,263,263,263,158,263,0,0,0,255,0,0,0,0,0,0,0,0,0,0,0,256,0,0,326,0,0,0,0,0,0,0,0,0,256,255,0,0,0,0,0,0,0,0,0,0,0,0,0,0,0,0,0,0,0,0,256,142,0,0,0,0,0,0,0,0,0,0,0,0,0,0,0,0,256,
0,0,0,0,0,0,0,0,0,0,0,0,0,0,0,0,0,0,0,0,0,0,0,0,0,0,0,0,0,0,0,0,0,0,0,0,0,0,0,256,0,0,0,0,0,0,0,0,0,0,0,256,0,0,0,0,0,0,0,0,0,0,0,0,0,157,0,0,0,0,150,0,0,150,256,0,0,0,0,0,142,0,0,318,255,0,0,0,0,0,0,0,0,0,0,0,256,0,0,334,0,0,0,0,0,0,0,0,0,256,255,0,0,0,0,0,0,0,0,0,0,0,0,0,0,0,0,0,0,0,0,256,142,0,0,0,0,0,0,0,0,0,0,0,0,0,0,0,0,256,
0,0,0,0,0,0,0,0,0,0,0,0,0,0,0,0,0,149,0,0,0,0,0,0,0,0,0,0,0,0,149,0,0,0,0,0,0,0,0,256,0,0,0,0,0,0,0,0,0,0,0,256,0,0,0,0,0,0,0,0,0,0,0,0,0,157,0,0,0,0,158,142,142,158,256,0,0,0,0,0,142,0,0,326,263,263,263,263,263,263,247,263,263,263,263,263,263,0,0,0,0,0,0,0,0,0,0,0,0,256,255,0,0,0,0,0,0,0,0,0,317,0,0,0,0,0,0,0,0,0,0,256,255,0,0,0,0,0,0,0,0,0,0,0,0,0,0,0,0,256,
0,0,0,0,0,0,0,0,0,0,0,0,0,0,0,0,0,149,0,0,0,0,0,0,0,0,0,0,0,0,149,0,0,0,0,0,0,0,0,256,317,0,0,0,0,0,0,0,0,0,0,256,0,0,0,0,0,0,0,0,0,317,0,0,0,0,0,0,0,0,0,0,0,0,256,0,0,0,0,0,142,0,0,334,255,0,0,0,0,0,255,142,142,142,142,142,256,0,0,0,0,0,0,0,0,0,0,0,0,256,255,0,0,0,0,0,0,0,0,0,325,0,0,0,0,0,0,0,0,0,0,256,255,0,0,0,0,0,0,0,317,0,0,0,0,0,0,0,142,256,
0,0,0,0,0,0,0,0,0,0,0,0,0,0,0,0,120,0,0,0,0,0,0,0,0,0,0,0,0,0,0,0,0,0,0,0,0,0,0,256,325,0,0,0,0,0,0,0,0,0,0,256,0,0,0,0,0,0,0,0,0,325,0,0,0,0,0,0,0,0,0,0,0,0,256,0,0,0,0,0,142,0,0,0,0,0,0,0,0,0,255,0,0,0,0,0,0,0,0,0,264,264,264,264,264,264,264,264,264,264,264,264,264,264,264,264,264,264,264,264,333,0,0,0,264,264,264,264,264,264,264,264,264,264,264,264,264,264,264,264,325,0,0,0,142,263,263,263,263,263,
0,0,0,0,0,0,0,0,0,0,0,0,0,0,0,0,128,149,0,0,0,0,0,0,0,0,0,0,0,0,149,118,0,0,264,264,264,264,264,264,333,0,0,264,264,264,264,264,264,264,264,264,264,264,264,264,264,264,264,264,264,333,0,0,0,0,0,0,0,0,0,0,0,0,256,0,0,0,0,0,0,0,0,0,0,0,0,0,0,0,255,0,0,0,0,0,0,317,0,0,0,0,0,0,0,0,0,0,0,142,142,0,0,0,0,0,0,0,0,0,0,0,0,0,0,0,0,0,0,0,0,256,255,0,0,0,0,0,0,0,333,0,0,0,0,0,0,0,0,256,
0,0,0,0,0,0,0,0,0,0,0,0,0,0,0,0,0,149,0,0,0,0,0,0,0,0,0,0,0,0,149,126,0,0,0,0,0,0,0,256,0,0,0,0,0,0,0,0,0,0,0,256,0,0,0,0,0,0,0,0,0,0,0,0,0,157,0,0,0,0,150,0,0,150,256,0,0,0,0,0,0,0,0,0,0,0,0,0,0,0,255,0,0,0,0,0,0,325,0,0,0,0,0,0,0,0,0,0,0,142,142,0,0,0,0,0,0,0,0,0,0,0,0,0,0,0,0,0,0,0,0,256,255,0,0,0,0,0,0,0,0,0,0,0,0,0,0,0,0,256,
0,0,0,0,0,0,0,0,0,0,0,0,0,0,0,0,0,0,0,0,0,0,0,0,0,0,0,0,0,0,0,0,0,0,0,0,0,0,0,256,0,0,0,0,0,0,0,0,0,0,0,256,0,0,0,0,0,0,0,0,0,0,0,0,0,157,0,0,0,0,158,142,142,158,256,0,0,0,0,0,142,0,0,0,0,0,0,0,0,0,255,0,0,0,0,0,0,333,0,0,0,0,0,0,0,0,0,0,0,142,142,0,0,0,0,0,0,0,0,0,0,0,0,0,0,0,0,0,0,0,0,256,255,0,0,0,0,0,0,0,0,0,0,0,0,0,0,0,0,256
</data>
 </layer>
 <layer id="5" name="object" width="150" height="100">
  <data encoding="csv">
163,164,0,0,0,0,165,166,0,167,168,0,167,168,0,0,136,148,0,0,0,0,0,0,0,0,0,0,0,0,148,136,0,0,167,168,0,0,151,152,0,163,164,0,165,166,167,168,0,0,320,0,0,0,0,319,0,0,165,166,165,166,0,163,164,0,151,152,0,163,164,0,163,164,0,175,176,0,0,0,0,0,0,0,0,0,0,167,168,165,166,175,176,163,164,151,152,165,166,165,166,167,168,175,176,0,0,167,168,151,152,165,166,163,164,167,168,0,0,136,147,0,0,0,0,0,0,0,0,0,0,0,0,148,136,0,0,173,174,173,174,163,164,151,152,163,164,163,164,167,
171,172,0,163,164,0,173,174,0,175,176,0,175,176,0,0,144,156,0,0,0,0,0,0,0,0,0,0,0,0,156,144,0,0,175,176,163,164,159,160,0,171,172,0,173,174,175,176,0,0,328,0,0,0,0,327,0,0,173,174,173,174,0,171,172,0,159,160,0,171,172,0,171,172,0,175,176,0,0,320,0,0,0,0,319,0,0,175,176,173,174,183,184,171,172,159,160,173,174,173,174,175,176,183,184,163,164,175,176,159,160,173,174,171,172,175,176,0,0,144,155,0,0,0,0,0,0,0,0,0,0,0,0,156,144,0,0,181,182,173,174,175,176,159,160,171,172,171,172,171,
179,180,0,171,172,0,181,182,0,183,184,0,183,184,0,0,0,0,0,0,0,0,0,0,0,0,0,0,0,0,0,0,0,0,183,184,171,172,179,180,0,179,180,0,181,182,183,184,0,0,336,0,0,0,0,335,0,0,181,182,181,182,0,179,180,0,179,180,0,179,180,0,179,180,0,183,184,0,0,328,0,0,0,0,327,0,0,183,184,181,182,179,180,179,180,175,176,181,182,181,182,179,180,191,192,179,180,183,184,179,180,181,182,179,180,183,184,0,0,0,0,0,0,0,0,0,0,0,0,0,0,0,0,0,0,0,0,173,174,181,182,183,184,183,184,179,180,179,180,179,
187,188,157,187,188,157,189,190,157,187,188,157,191,192,0,0,136,148,0,0,0,0,0,0,0,0,0,0,0,0,148,136,0,0,187,188,191,192,187,188,157,187,188,157,189,190,191,192,0,0,0,0,0,0,0,0,0,0,181,182,189,190,157,187,188,157,187,188,157,187,188,157,187,188,157,191,192,0,0,336,0,0,0,0,335,0,0,191,192,189,190,187,188,187,188,187,188,189,190,189,190,187,188,187,188,187,188,187,188,187,188,189,190,187,188,191,192,0,0,136,148,0,0,0,0,0,0,0,0,0,0,0,0,147,136,0,0,181,182,189,190,187,188,191,192,187,188,187,188,187,
0,0,0,0,0,0,0,0,0,0,0,0,0,0,0,0,144,156,0,0,0,0,0,0,0,0,0,0,0,0,156,144,0,0,0,0,0,0,0,0,0,0,0,0,0,0,0,0,0,0,0,0,0,0,0,0,0,0,0,0,0,0,0,0,0,0,0,0,0,0,0,0,0,0,0,0,0,0,0,0,0,0,0,0,0,0,0,0,0,0,0,0,0,0,0,0,0,0,0,0,0,0,0,0,0,0,0,0,0,0,0,0,0,0,0,0,0,0,0,144,156,0,0,0,0,0,0,0,0,0,0,0,0,155,144,0,0,0,0,0,0,0,0,0,0,0,0,0,0,0,
0,0,0,0,0,0,0,0,0,0,0,0,0,0,0,0,0,0,0,0,0,0,0,0,0,0,0,0,0,0,0,0,0,0,0,0,0,0,0,0,0,0,0,0,0,0,0,0,0,0,0,0,0,0,0,0,0,0,0,0,0,0,0,0,0,0,0,0,0,0,0,0,0,0,0,0,0,0,0,0,0,0,0,0,0,0,0,0,0,0,0,0,0,0,0,0,0,0,0,0,0,0,0,0,0,0,0,0,0,0,0,0,0,0,0,0,0,0,0,0,0,0,0,0,0,0,0,0,0,0,0,0,0,0,0,0,0,0,0,0,0,0,0,0,0,0,0,0,0,0,
0,0,0,0,0,0,0,0,0,0,0,0,0,0,0,0,0,0,0,0,0,0,0,0,0,0,0,0,0,0,0,0,0,0,0,0,0,0,0,0,0,0,0,0,0,0,0,0,0,0,0,0,0,0,0,0,0,0,0,0,0,0,0,0,0,0,0,0,0,0,0,0,0,0,0,0,0,0,0,0,0,0,0,0,0,0,0,0,0,0,0,0,0,0,0,0,0,0,0,0,0,0,0,0,0,0,0,0,0,0,0,0,0,0,0,0,0,0,0,0,0,0,0,0,0,0,0,0,0,0,0,0,0,0,0,0,0,0,0,0,0,0,0,0,0,0,0,0,0,0,
0,0,0,0,0,0,0,0,0,0,0,0,0,0,0,0,0,0,0,0,0,0,0,0,0,0,0,0,0,0,0,0,0,0,0,0,0,0,0,0,0,0,0,0,0,0,0,0,0,0,0,0,0,0,0,0,0,0,0,0,0,0,0,0,0,0,0,0,0,0,0,0,0,0,0,0,0,0,0,0,0,0,0,0,0,0,0,0,0,0,0,0,0,0,0,0,0,0,0,0,0,0,0,0,0,0,0,0,0,0,0,0,0,0,0,0,0,0,0,0,0,0,0,0,0,0,0,0,0,0,0,0,0,0,0,0,0,0,0,0,0,0,0,0,0,0,0,0,0,0,
0,0,0,0,0,0,0,0,0,0,0,0,0,0,0,0,0,0,0,0,0,0,0,0,0,0,0,0,0,0,0,0,0,0,0,0,0,0,0,0,0,0,0,0,0,0,0,0,0,0,0,0,0,0,0,0,0,0,0,0,0,0,0,0,0,0,0,0,0,0,0,0,0,0,0,0,0,0,0,0,0,0,0,0,0,0,0,0,0,0,0,0,0,0,0,0,0,0,0,0,0,0,0,0,0,0,0,0,0,0,0,0,0,0,0,0,0,0,0,0,0,0,0,0,0,0,0,0,0,0,0,0,0,0,0,0,0,0,0,0,0,0,0,0,0,0,0,0,0,0,
0,0,0,0,0,0,0,0,0,0,0,0,0,0,0,0,0,0,0,0,0,0,0,0,0,0,0,0,0,0,0,0,0,0,0,0,0,0,0,0,0,0,0,0,0,0,0,0,0,0,0,0,0,0,0,0,0,0,0,0,0,0,0,0,0,0,0,0,0,0,0,0,0,0,0,0,0,0,0,0,0,0,0,0,0,0,0,0,0,0,0,0,0,0,0,0,0,0,0,0,0,0,0,0,0,0,0,0,0,0,0,0,0,0,0,0,0,0,0,0,0,0,0,0,0,0,0,0,0,0,0,0,0,0,0,0,0,0,0,0,0,0,0,0,0,0,0,0,0,0,
0,0,0,0,0,0,0,0,0,0,0,0,0,0,0,0,0,0,0,0,0,0,0,0,0,0,0,0,0,0,0,0,0,0,0,0,0,0,0,0,0,0,0,0,0,0,0,0,0,0,0,0,0,0,0,0,0,0,0,0,0,0,0,0,0,0,0,0,0,0,0,0,0,0,0,0,0,0,0,0,0,0,0,0,0,0,0,0,0,0,0,0,0,0,0,0,0,0,0,0,0,0,0,0,0,0,0,0,0,0,0,0,0,0,0,0,0,0,0,0,0,0,0,0,0,0,0,0,0,0,0,0,0,0,0,0,0,0,0,0,0,0,0,0,0,0,0,0,0,0,
0,0,0,0,0,0,0,0,0,0,0,0,0,0,0,0,0,0,0,0,0,0,0,0,0,0,0,0,0,0,0,0,0,0,0,0,0,0,0,0,0,0,0,0,0,0,0,0,0,0,0,0,0,0,0,0,0,0,0,0,0,0,0,0,0,0,0,0,0,0,0,0,0,0,0,0,0,0,0,0,0,0,0,0,0,0,0,0,0,0,0,0,0,0,0,0,0,0,0,0,0,0,0,0,0,0,0,0,0,0,0,0,0,0,0,0,0,0,0,0,0,0,0,0,0,0,0,0,0,0,0,0,0,0,0,0,0,0,0,0,0,0,0,0,0,0,0,0,0,0,
0,0,0,0,0,0,0,0,0,0,0,0,0,0,0,0,0,0,0,0,0,0,0,0,0,0,0,0,0,0,0,0,0,0,0,0,0,0,0,0,0,0,0,0,0,0,0,0,0,0,0,0,0,0,0,0,0,0,0,0,0,0,0,0,0,0,0,0,0,0,0,0,0,0,0,0,0,0,0,0,0,0,0,0,0,0,0,0,0,0,0,0,0,0,0,0,0,0,0,0,0,0,0,0,0,0,0,0,0,0,0,0,0,0,0,0,0,0,0,0,0,0,0,0,0,0,0,0,0,0,0,0,0,0,0,0,0,0,0,0,0,0,0,0,0,0,0,0,0,0,
0,0,0,0,0,0,0,0,0,0,0,0,0,0,0,0,0,0,0,0,0,0,0,0,0,0,0,0,0,0,0,0,0,0,0,0,0,0,0,0,0,0,0,0,0,0,0,0,0,0,0,0,0,0,0,0,0,0,0,0,0,0,0,0,0,0,0,0,0,0,0,0,0,0,0,0,0,0,0,0,0,0,0,0,0,0,0,0,0,0,0,0,0,0,0,0,0,0,0,0,0,0,0,0,0,0,0,0,0,0,0,0,0,0,0,0,0,0,0,0,0,0,0,0,0,0,0,0,0,0,0,0,0,0,0,0,0,0,0,0,0,0,0,0,0,0,0,0,0,0,
0,0,0,0,0,0,0,0,0,0,0,0,0,0,0,0,0,0,0,0,0,0,0,0,0,0,0,0,0,0,0,0,0,0,0,0,0,0,0,0,0,0,0,0,0,0,0,0,0,0,0,0,0,0,0,0,0,0,0,0,0,0,0,0,0,0,0,0,0,0,0,0,0,0,0,0,0,0,0,0,0,0,0,0,0,0,0,0,0,0,0,0,0,0,0,0,0,0,0,0,0,0,0,0,0,0,0,0,0,0,0,0,0,0,0,0,0,0,0,0,0,0,0,0,0,0,0,0,0,0,0,0,0,0,0,0,0,0,0,0,0,0,0,0,0,0,0,0,0,0,
0,0,0,0,0,0,0,0,0,0,0,0,0,0,0,0,0,0,0,0,0,0,0,0,0,0,0,0,0,0,0,0,0,0,0,0,0,0,0,0,0,0,0,0,0,0,0,0,0,0,0,0,0,0,0,0,0,0,0,0,0,0,0,0,0,0,0,0,0,0,0,0,0,0,0,0,0,0,0,0,0,0,0,0,0,0,0,0,0,0,0,0,0,0,0,0,0,0,0,0,0,0,0,0,0,0,0,0,0,0,0,0,0,0,0,0,0,0,0,0,0,0,0,0,0,0,0,0,0,0,0,0,0,0,0,0,0,0,0,0,0,0,0,0,0,0,0,0,0,0,
0,0,0,0,0,0,0,0,0,0,0,0,0,0,0,0,0,0,0,0,0,0,0,0,0,0,0,0,0,0,0,0,0,0,0,0,0,0,0,0,0,0,0,0,0,0,0,0,0,0,0,0,0,0,0,0,0,0,0,0,0,0,0,0,0,0,0,0,0,0,0,0,0,0,0,0,0,0,0,0,0,0,0,0,0,0,0,0,0,0,0,0,0,0,0,0,0,0,0,0,0,0,0,0,0,0,0,0,0,0,0,0,0,0,0,0,0,0,0,0,0,0,0,0,0,0,0,0,0,0,0,0,0,0,0,0,0,0,0,0,0,0,0,0,0,0,0,0,0,0,
0,0,0,0,0,0,0,0,0,0,0,0,0,0,0,0,0,0,0,0,0,0,0,0,0,0,0,0,0,0,0,0,0,0,0,0,0,0,0,0,0,0,0,0,0,0,0,0,0,0,0,0,0,0,0,0,0,0,0,0,0,0,0,0,0,0,0,0,0,0,0,0,0,0,0,0,0,0,0,0,0,0,0,0,0,0,0,0,0,0,0,0,0,0,0,0,0,0,0,0,0,0,0,0,0,0,0,0,0,0,0,0,0,0,0,0,0,0,0,0,0,0,0,0,0,0,0,0,0,0,0,0,0,0,0,0,0,0,0,0,0,0,0,0,0,0,0,0,0,0,
0,0,0,0,0,0,0,0,0,0,0,0,0,0,0,0,0,0,0,0,0,0,0,0,0,0,0,0,0,0,0,0,0,0,0,0,0,0,0,0,0,0,0,0,0,0,0,0,0,0,0,0,0,0,0,0,0,0,0,0,0,0,0,0,0,0,0,0,0,0,0,0,0,0,0,0,0,0,0,0,0,0,0,0,0,0,0,219,220,220,220,220,220,220,221,0,0,0,0,0,0,0,0,0,219,220,220,220,220,221,0,0,219,220,220,220,220,220,221,0,0,0,219,220,220,220,220,221,0,0,219,221,0,0,0,219,220,220,220,220,220,220,220,221,0,0,219,220,220,220,
0,0,0,0,0,0,0,0,0,0,0,0,0,0,0,0,0,0,0,0,0,0,0,0,0,0,0,0,0,0,0,0,0,0,0,0,0,0,0,0,0,0,0,0,0,0,0,0,0,0,0,0,0,0,0,0,0,0,0,0,0,0,0,0,0,0,0,0,0,0,0,0,0,0,0,0,0,0,0,0,0,0,0,0,0,0,0,0,0,0,0,0,0,0,0,0,0,0,0,0,0,0,0,0,0,0,0,0,0,0,0,0,0,0,0,0,0,0,0,0,0,0,0,0,0,0,0,0,0,0,0,0,0,0,0,0,0,0,0,0,0,0,0,0,0,0,0,0,0,0,
0,0,0,0,0,0,0,0,0,0,0,0,0,0,0,0,0,148,0,0,0,0,0,0,0,0,0,0,0,0,148,0,0,0,0,0,0,0,0,0,0,0,0,0,0,0,0,0,0,0,0,0,0,0,0,0,0,0,0,0,0,0,0,0,0,0,0,0,0,0,0,0,0,0,0,0,0,0,0,0,0,0,0,0,0,0,319,0,0,0,0,0,0,0,0,0,0,0,0,0,0,0,0,0,0,0,0,0,0,320,0,0,319,0,0,0,0,0,0,0,0,0,0,0,0,0,0,320,0,0,319,0,0,0,0,0,0,0,0,0,0,0,0,320,0,0,319,0,0,0,
0,0,0,0,0,0,0,0,0,0,0,0,0,0,0,0,136,156,0,0,0,0,0,0,0,0,0,0,0,0,156,136,0,0,0,0,0,0,0,0,0,0,0,0,0,0,0,0,0,0,0,0,0,0,0,0,0,0,0,0,0,0,0,0,0,0,0,0,0,0,0,0,0,0,0,0,0,0,0,0,0,0,0,0,0,0,327,0,0,0,0,0,0,0,0,0,0,0,0,0,0,0,0,0,0,0,0,0,0,328,0,0,327,0,0,0,0,0,0,0,0,0,0,0,0,151,152,328,0,0,327,151,152,0,0,0,0,0,0,151,152,0,0,328,0,0,327,151,152,0,
163,164,0,0,167,168,159,160,163,164,163,164,167,168,0,0,144,0,0,0,0,0,0,0,0,0,0,0,0,0,0,144,0,0,150,0,150,0,150,0,150,0,150,0,0,0,150,0,150,0,150,0,150,0,150,0,150,0,150,0,150,0,150,0,150,0,150,0,150,0,150,0,150,0,150,150,0,136,136,0,0,0,0,0,0,0,335,0,0,0,199,0,0,0,0,0,0,0,0,0,0,0,0,0,199,167,168,167,168,336,0,0,335,163,164,163,164,163,164,165,165,165,166,163,164,159,160,336,0,0,335,159,160,163,164,167,168,163,164,159,160,165,166,336,0,0,335,159,160,167,
171,172,0,0,175,176,175,176,175,176,175,176,175,176,0,0,0,148,0,0,0,0,0,0,0,0,0,0,0,0,148,0,0,0,158,0,158,0,158,0,158,0,158,0,0,0,158,0,158,0,158,0,158,0,158,0,158,0,158,0,158,0,158,0,158,0,158,0,158,0,158,0,158,0,158,158,0,144,144,0,0,0,0,0,0,0,0,0,0,0,207,0,0,0,0,0,0,0,0,0,0,0,0,0,207,175,176,175,176,320,0,0,319,171,172,171,172,171,172,173,173,173,174,171,172,175,176,320,0,0,319,175,176,175,176,175,176,175,176,175,176,173,174,0,0,0,0,175,175,176,
179,180,0,0,183,184,183,184,183,184,183,184,183,184,0,0,0,156,0,0,0,0,0,0,0,0,0,0,0,0,156,0,0,0,0,0,0,0,0,0,0,0,0,0,0,0,0,0,0,0,0,0,0,0,0,0,0,0,0,0,0,0,0,0,0,0,0,0,0,0,0,0,0,0,0,0,0,0,0,0,0,0,0,0,0,0,0,0,0,0,0,0,0,0,0,0,0,0,0,195,196,197,198,0,0,183,184,183,184,328,0,0,327,179,180,179,180,179,180,181,181,181,182,179,180,183,184,328,0,0,327,183,184,183,184,183,184,183,184,183,184,181,182,320,0,0,319,183,183,184,
163,164,0,0,163,164,167,168,191,192,191,192,175,176,0,0,0,0,0,0,0,0,0,0,0,0,0,0,0,0,0,0,0,0,150,0,0,150,0,0,0,0,0,0,0,0,0,0,150,0,0,0,0,0,150,0,0,0,0,0,0,0,0,150,0,0,0,268,268,0,0,0,150,0,0,150,0,0,0,0,0,0,0,0,0,0,319,0,0,0,0,0,0,0,0,0,0,0,0,203,204,205,206,0,0,191,192,191,192,336,0,0,335,191,192,183,184,183,184,181,182,181,182,175,176,191,192,336,0,0,335,191,192,191,192,191,192,191,192,191,192,181,182,328,0,0,327,191,191,192,
171,172,0,0,171,172,175,176,0,0,0,0,0,0,0,0,0,148,0,0,0,0,0,0,0,0,0,0,0,0,148,0,0,0,158,0,0,158,0,0,0,0,0,0,0,0,0,0,158,0,0,0,0,0,158,0,0,0,0,0,0,0,0,158,0,0,0,0,0,0,0,0,158,0,0,158,0,0,0,0,0,0,0,0,0,0,327,0,0,0,0,0,0,0,0,0,0,0,0,0,0,0,0,0,0,0,0,0,0,0,0,0,0,0,0,0,0,0,0,0,0,0,0,0,0,0,0,0,0,0,0,0,0,0,0,0,0,0,0,0,0,0,0,336,0,0,335,0,0,0,
179,180,0,0,179,180,183,184,0,0,0,0,163,164,0,0,0,156,0,0,0,0,0,0,0,0,0,0,0,0,156,0,0,0,0,0,0,0,0,0,150,0,0,0,0,0,0,0,0,0,0,0,0,0,0,0,0,0,0,0,0,0,0,0,0,0,0,0,150,0,0,0,0,0,0,0,0,0,0,0,0,0,0,0,0,0,335,0,0,0,0,0,0,0,0,0,0,0,0,0,0,0,0,0,0,0,0,0,0,0,0,0,0,0,0,0,0,0,0,0,0,0,0,0,0,0,0,0,0,0,0,0,0,0,0,0,0,0,0,0,0,0,0,0,0,0,0,0,0,0,
167,168,0,0,167,168,0,0,0,0,0,0,171,172,0,0,136,0,0,0,0,0,0,0,0,0,0,0,0,0,0,0,0,0,150,0,0,0,0,0,158,0,0,0,0,0,150,0,150,0,150,0,150,0,150,0,150,0,150,0,150,0,150,0,150,0,0,0,158,0,0,0,0,0,0,150,0,0,0,0,0,0,0,0,0,0,0,0,0,0,0,0,0,0,0,0,0,0,0,0,0,0,0,0,0,0,200,200,200,0,0,0,200,200,200,200,200,200,0,0,0,0,200,200,200,200,200,200,0,0,0,0,0,0,0,0,0,0,0,0,0,0,0,0,0,0,0,0,0,0,
175,176,0,0,175,176,0,0,0,0,0,0,179,180,0,0,144,148,0,0,0,0,0,0,0,0,0,0,0,0,148,0,0,0,158,0,0,0,0,0,0,0,150,0,0,0,158,0,158,0,158,0,158,0,158,0,158,0,158,0,158,0,158,0,158,0,0,0,0,0,0,0,0,0,0,158,0,136,136,0,0,0,0,0,0,0,0,0,0,0,0,0,0,0,0,0,0,0,0,0,0,0,0,0,0,0,0,0,0,0,0,0,0,0,0,0,0,0,0,0,0,0,0,0,0,0,0,0,0,0,0,0,0,0,0,0,0,0,0,0,0,0,0,0,0,0,0,0,0,0,
183,184,0,0,183,184,151,152,0,0,0,0,0,0,0,0,0,156,0,0,0,0,0,0,0,0,0,0,0,0,156,0,0,0,0,0,0,0,0,0,0,0,158,0,0,0,0,0,0,0,0,0,0,0,0,0,0,0,0,0,0,0,0,0,0,0,0,0,0,0,0,0,0,0,0,0,0,144,144,0,0,0,0,0,0,0,0,0,0,0,0,0,0,0,0,0,0,0,0,0,0,0,0,0,0,0,0,0,0,0,0,0,0,0,0,0,0,0,0,0,0,0,0,0,0,0,0,0,0,0,0,0,0,0,0,0,0,0,0,0,0,0,0,0,0,0,0,0,0,0,
163,164,0,0,163,164,159,160,0,0,0,0,0,0,0,0,0,0,0,0,0,0,0,0,0,0,0,0,0,0,0,136,0,0,150,0,0,150,0,0,0,0,0,0,0,0,0,0,0,0,0,0,0,0,0,0,0,0,0,0,0,0,0,0,0,0,0,0,0,0,0,0,0,0,0,0,0,0,0,0,0,0,0,0,0,0,0,0,0,0,0,0,0,0,0,0,0,0,0,0,0,0,0,0,0,0,0,0,0,0,0,0,0,0,0,0,0,0,0,0,0,0,0,0,0,0,0,0,0,0,0,0,320,0,0,0,0,0,0,0,0,0,0,0,0,0,0,0,0,0,
171,172,0,0,171,172,183,184,0,0,0,0,151,152,0,0,0,148,0,0,0,0,0,0,0,0,0,0,0,0,148,144,0,0,158,0,0,158,0,0,0,0,150,0,0,0,0,0,0,0,0,0,0,0,0,0,0,0,0,0,0,0,0,0,150,0,0,0,0,0,0,0,0,0,0,150,0,0,0,0,0,0,0,0,0,0,0,0,0,0,0,0,0,0,0,0,0,0,0,0,0,0,0,0,0,0,0,0,0,0,0,0,0,0,0,0,0,0,0,0,0,0,0,0,0,0,0,0,0,0,0,0,328,0,0,0,0,0,150,0,0,0,0,0,0,0,319,0,0,0,
179,180,0,0,179,180,191,192,0,0,0,0,159,160,0,0,136,156,0,0,0,0,0,0,0,0,0,0,0,0,156,0,0,0,0,0,0,0,0,0,0,0,158,0,0,0,0,0,0,0,0,0,0,0,0,0,0,0,0,0,0,0,0,0,158,0,0,0,0,0,0,0,0,0,0,158,0,0,0,0,0,0,0,0,0,0,0,0,0,0,0,0,0,0,0,0,0,0,0,0,0,0,0,0,0,0,290,290,290,290,290,290,290,290,290,290,290,290,290,0,0,0,290,290,290,290,290,290,219,221,0,0,336,142,134,0,0,0,158,150,0,0,0,0,0,142,327,0,0,0,
0,0,0,0,191,192,191,192,0,0,0,0,175,176,0,0,144,0,0,0,0,0,0,0,0,0,0,0,0,0,0,0,0,0,0,0,269,0,0,0,0,0,0,0,0,0,0,0,0,0,0,0,0,0,0,0,0,0,0,0,0,0,0,0,0,0,0,0,0,0,0,0,150,0,0,0,0,0,0,0,0,0,0,0,0,0,0,0,0,0,241,242,243,142,142,256,0,0,0,0,0,0,319,0,0,0,0,0,0,0,0,0,0,0,0,0,0,0,0,0,0,0,0,0,0,0,0,0,0,0,0,0,0,0,0,0,0,0,0,158,134,134,0,0,0,142,335,0,0,0,
0,0,0,0,0,0,0,0,151,152,151,152,183,184,0,0,0,148,0,0,0,0,0,0,0,0,0,0,0,0,148,0,0,0,150,0,269,0,0,0,150,0,150,0,0,0,0,0,0,0,0,0,0,0,0,0,0,0,0,0,0,0,0,0,150,0,0,0,0,0,0,0,158,0,0,150,0,136,136,0,0,0,0,0,0,0,0,0,0,0,249,250,251,0,0,150,0,0,0,0,0,0,327,0,0,320,0,0,0,0,0,0,0,0,0,0,0,0,0,319,0,0,0,0,0,0,0,0,0,0,0,0,0,0,0,0,0,0,0,134,0,0,0,0,0,0,0,0,0,0,
151,152,0,0,163,164,163,164,159,160,159,160,163,164,0,0,0,156,0,0,0,0,0,0,0,0,0,0,0,0,156,0,0,0,158,0,0,0,0,0,158,0,158,0,0,0,0,0,0,0,0,0,0,0,0,0,0,0,0,0,0,0,0,0,158,0,0,0,150,0,0,0,0,0,0,158,0,144,144,0,0,0,0,0,0,0,319,0,0,0,0,0,0,0,0,158,0,257,258,259,0,0,335,0,0,328,0,0,0,0,0,0,0,0,0,0,0,0,0,327,0,0,0,0,0,0,0,0,0,0,319,0,0,0,0,0,0,0,150,150,0,0,0,0,0,0,0,0,0,0,
159,160,0,0,171,172,171,175,176,175,175,176,171,172,0,0,0,0,0,0,0,0,0,0,0,0,0,0,0,0,0,0,0,0,0,0,0,0,0,0,0,0,0,0,0,0,0,0,0,0,0,0,0,0,0,0,0,0,0,0,0,0,0,0,0,0,0,0,158,0,0,0,0,0,0,0,0,0,0,0,0,0,0,0,0,0,327,0,0,0,157,0,0,0,0,0,0,265,266,267,0,0,0,0,0,336,157,0,0,0,0,0,0,0,225,226,227,0,142,335,0,0,0,0,0,0,0,0,150,0,327,0,0,142,134,0,0,0,158,158,0,0,0,0,0,142,0,0,0,0,
175,176,0,0,179,180,179,183,184,183,183,184,179,180,0,0,0,148,0,0,0,0,0,0,0,0,0,0,0,0,148,0,0,0,150,0,0,150,0,0,0,0,150,0,0,0,0,0,0,0,0,0,0,0,0,0,0,0,0,0,0,0,0,0,150,0,0,0,0,0,0,0,150,0,0,150,0,0,0,0,0,0,0,0,0,0,335,0,0,0,157,0,0,142,142,256,0,0,0,0,0,0,0,0,0,0,0,0,0,236,237,238,0,0,233,234,235,0,0,0,0,0,0,0,0,0,0,0,158,0,335,0,0,0,0,0,0,0,256,0,0,0,0,0,0,0,0,0,0,0,
183,184,0,0,0,0,0,0,163,164,165,166,165,166,0,0,136,156,0,0,0,0,0,0,0,0,0,0,0,0,156,0,0,0,158,0,0,158,0,0,0,0,158,0,0,0,0,0,0,0,0,0,0,397,0,0,0,0,0,0,0,0,0,0,158,0,0,0,0,0,0,0,158,0,0,158,0,0,0,0,0,0,0,0,0,0,0,0,0,0,0,0,0,0,0,150,0,0,0,0,0,0,0,0,0,0,0,0,0,244,245,246,0,0,0,0,0,0,0,0,0,0,0,0,0,0,0,0,0,0,0,0,0,142,0,0,0,0,0,150,0,0,0,0,0,142,0,0,0,0,
165,166,0,0,0,0,0,0,171,172,173,174,173,174,0,0,144,0,0,0,0,0,0,0,0,0,0,0,0,0,0,0,0,0,0,0,0,0,0,0,0,0,0,0,0,0,0,0,0,0,0,0,0,0,0,0,0,0,0,0,0,0,0,0,0,0,0,0,0,0,0,0,0,0,0,0,0,0,0,0,0,0,0,0,0,0,0,0,0,0,0,0,0,0,0,158,0,0,0,0,0,0,0,0,0,0,0,0,0,0,0,0,150,0,150,0,150,0,142,0,0,0,320,0,0,0,0,0,150,0,0,0,0,142,0,0,0,0,0,158,0,0,0,0,0,0,0,0,0,0,
173,174,0,0,151,152,0,0,179,180,181,182,181,182,0,0,0,148,0,0,0,0,0,0,0,0,0,0,0,0,148,136,0,0,0,0,0,0,0,0,0,0,150,0,0,0,0,0,0,0,0,0,0,0,0,0,0,0,0,0,0,0,0,0,150,0,0,0,0,0,150,0,0,0,0,150,0,0,0,0,0,0,0,0,0,0,0,0,0,0,0,252,253,254,0,256,236,237,238,0,0,0,0,0,0,0,157,0,0,0,0,0,158,0,158,0,158,0,142,0,0,0,328,0,0,0,0,0,158,0,0,0,0,142,0,0,0,0,0,0,0,0,0,0,0,0,0,0,0,0,
181,182,0,0,159,160,0,0,163,164,163,164,167,168,0,0,0,156,0,0,0,0,0,0,0,0,0,0,0,0,156,144,0,0,150,0,0,0,0,150,0,0,158,0,0,0,0,0,0,0,0,0,0,0,0,0,0,0,0,0,0,0,0,0,158,0,0,0,0,0,158,0,0,0,0,158,0,0,0,0,0,0,0,0,0,0,0,0,0,0,157,260,261,262,0,256,244,245,246,0,0,0,0,0,0,0,0,0,0,0,0,0,256,150,0,0,0,0,0,319,0,0,336,157,0,0,0,0,0,150,0,0,320,0,0,0,0,0,0,150,0,0,0,0,0,142,319,0,0,0,
163,164,0,0,175,176,0,0,171,172,171,172,175,176,0,0,0,0,0,0,0,0,0,0,0,0,0,0,0,0,0,0,0,0,158,0,0,0,0,158,0,0,0,0,0,0,0,0,0,0,0,0,0,0,0,0,0,0,0,0,0,0,0,0,0,0,0,0,0,0,0,0,0,0,0,0,0,0,0,0,0,0,0,0,0,0,319,0,0,0,157,0,0,0,0,0,0,0,0,0,0,0,319,0,0,0,0,0,257,258,259,150,0,158,0,0,0,0,142,327,0,0,0,0,0,0,0,0,0,158,0,0,328,0,0,0,0,0,0,158,0,0,0,0,0,142,327,0,0,0,
171,172,0,0,183,184,0,0,179,180,179,180,183,184,0,0,0,148,0,0,0,0,0,0,0,0,0,0,0,0,148,0,0,0,0,0,0,0,0,0,0,0,150,0,0,0,0,0,0,0,0,0,0,0,0,0,0,0,0,0,0,0,0,0,150,0,0,0,0,0,0,0,150,0,0,150,0,0,0,0,0,0,0,0,0,0,327,0,0,0,0,0,0,0,0,256,0,0,0,0,0,0,327,0,0,0,0,0,265,266,267,158,0,0,252,253,254,0,142,335,0,0,0,0,0,0,0,0,0,0,0,0,336,0,0,0,0,0,256,150,0,0,0,0,0,0,335,0,0,0,
179,180,0,0,191,192,0,0,151,152,0,0,163,164,0,0,136,156,0,0,0,0,0,0,0,0,0,0,0,0,156,0,0,0,150,0,0,150,0,0,0,0,158,0,0,0,0,0,0,0,0,0,0,0,0,0,0,0,0,0,0,0,0,0,158,0,0,0,150,0,0,0,158,0,0,158,0,136,136,0,0,0,0,0,0,0,335,0,0,0,157,0,0,0,134,0,0,0,0,0,0,0,335,0,0,0,157,0,0,0,0,0,0,150,260,261,262,0,0,0,0,0,0,0,0,0,0,0,0,0,0,0,0,0,0,0,0,0,256,158,0,0,0,0,0,0,0,0,0,0,
0,0,0,0,0,0,0,0,159,160,0,0,171,172,0,0,144,0,0,0,0,0,0,0,0,0,0,0,0,0,0,0,0,0,158,0,0,158,0,0,0,0,0,0,0,0,0,0,0,0,0,0,0,0,0,0,0,0,0,0,0,0,0,0,0,0,0,0,158,0,0,0,0,0,0,0,0,144,144,0,0,0,0,0,0,0,0,0,0,0,0,0,257,258,259,0,0,252,253,254,0,0,0,0,0,320,157,0,0,0,0,150,0,158,0,0,0,0,0,0,0,0,0,0,0,0,0,0,0,150,0,0,0,0,0,0,0,0,0,142,0,0,0,0,0,0,0,0,0,0,
0,0,0,0,163,164,167,168,175,176,0,0,163,164,0,0,0,148,0,0,0,0,0,0,0,0,0,0,0,0,148,0,0,0,0,0,0,0,0,0,0,0,0,0,0,0,0,0,0,0,0,0,0,0,0,0,0,0,0,0,0,0,0,0,150,0,0,0,0,0,0,0,0,0,0,150,0,0,0,0,0,0,0,0,0,0,0,0,0,0,0,0,265,266,267,0,0,260,261,262,0,0,0,0,0,328,157,0,0,0,0,158,0,0,0,0,0,0,142,0,0,0,320,0,0,0,0,0,0,158,0,0,0,0,0,0,0,0,0,150,0,0,0,0,0,0,0,0,0,0,
151,152,0,0,171,172,171,172,171,172,0,0,171,172,0,0,0,156,0,0,0,0,0,0,0,0,0,0,0,0,156,0,0,0,0,0,0,0,0,0,0,0,0,0,0,0,0,0,0,0,0,0,0,0,0,0,0,0,0,0,0,0,0,0,158,0,0,0,150,0,0,268,268,0,0,158,0,0,0,0,0,0,0,0,0,0,0,0,0,0,157,0,0,0,0,0,0,0,0,0,0,0,0,0,0,336,0,0,0,0,0,0,256,150,0,0,0,0,0,0,0,0,328,141,0,0,0,0,0,150,0,0,0,0,0,0,0,0,0,158,0,0,0,0,0,0,0,0,0,0,
159,160,0,0,179,180,179,180,179,180,0,0,179,180,0,0,0,0,0,0,0,0,0,0,0,0,0,0,0,0,0,0,0,0,0,0,0,0,0,0,0,0,0,0,0,0,0,0,0,0,0,0,0,0,0,0,0,0,0,0,0,0,0,0,0,0,0,0,158,0,0,0,0,0,0,0,0,0,0,0,0,0,0,0,0,0,319,0,0,0,0,0,0,0,0,150,0,0,150,0,0,0,0,0,0,0,0,0,236,237,238,0,0,158,0,0,0,0,142,0,0,0,336,0,0,0,0,0,0,158,319,0,0,0,0,0,0,0,256,142,0,0,0,0,0,0,0,0,0,0,
171,172,0,0,187,188,187,188,187,188,0,0,0,0,0,0,0,148,0,0,0,0,0,0,0,0,0,0,0,0,148,0,0,0,150,0,0,0,0,0,0,0,150,0,150,0,150,0,150,0,150,0,150,0,150,0,150,0,150,0,150,0,0,0,150,0,0,0,0,0,0,0,0,150,0,150,0,0,0,0,0,0,0,0,0,0,327,0,0,0,157,0,0,0,0,158,0,0,158,0,0,0,0,0,0,0,0,0,244,245,246,0,0,0,252,253,254,0,142,0,0,0,0,0,0,0,0,0,0,0,327,0,0,0,0,0,0,0,256,0,0,0,0,0,0,0,319,0,0,0,
179,180,167,168,0,0,0,0,0,0,151,152,163,164,0,0,0,156,0,0,0,0,0,0,0,0,0,0,0,0,156,136,0,0,158,0,0,150,0,0,0,0,158,0,158,0,158,0,158,0,158,0,158,0,158,0,158,0,158,0,158,0,0,0,158,0,0,0,0,0,0,0,0,158,0,158,0,0,0,0,0,0,0,0,0,0,335,0,0,0,0,0,236,237,238,0,0,257,258,259,0,0,0,0,0,0,142,0,0,0,0,0,0,0,260,261,262,0,0,0,0,0,0,0,0,0,0,0,0,256,335,0,0,0,0,0,0,0,150,150,0,0,0,0,0,142,327,0,0,0,
167,168,175,176,0,0,167,168,163,164,159,160,171,172,0,0,136,0,0,0,0,0,0,0,0,0,0,0,0,0,0,144,0,0,0,0,0,158,0,0,0,0,0,0,0,0,0,0,0,0,0,0,0,0,0,0,0,0,0,0,0,0,0,0,0,0,0,0,0,0,0,0,0,0,0,0,0,0,0,0,0,0,0,0,0,0,0,0,0,0,0,0,244,245,246,150,0,265,266,267,0,0,319,0,0,0,142,0,0,0,0,0,150,150,0,0,0,0,0,319,0,0,0,0,0,0,0,0,0,256,0,0,0,0,0,0,0,0,158,158,0,0,0,0,0,142,335,0,0,0,
175,176,183,184,0,0,175,176,171,172,175,176,179,180,0,0,144,148,0,0,0,0,0,0,0,0,0,0,0,0,148,0,0,0,150,0,0,0,0,0,0,0,150,0,0,0,0,150,0,0,0,150,0,0,0,0,150,0,0,0,0,0,0,0,0,150,0,0,0,0,150,0,0,0,0,150,0,136,136,0,0,0,0,0,0,0,0,0,0,0,157,0,0,0,0,158,0,0,0,0,0,0,327,0,0,0,142,0,0,0,0,0,158,158,0,0,0,0,142,327,0,0,0,0,0,0,0,0,0,0,0,0,0,0,0,0,0,0,0,0,0,0,0,0,0,0,0,0,0,0,
183,184,179,180,0,0,183,184,179,180,183,184,191,192,0,0,0,156,0,0,0,0,0,0,0,0,0,0,0,0,156,0,0,0,158,0,0,0,0,0,0,0,158,0,0,0,0,158,0,0,0,158,0,0,0,0,158,0,0,0,0,0,0,0,0,158,0,0,0,0,158,0,0,0,0,158,0,144,144,0,0,0,0,0,0,0,0,0,0,0,0,0,0,0,0,0,0,0,0,0,0,0,335,0,0,0,0,0,0,0,0,0,0,0,0,0,0,0,0,335,0,0,0,0,0,0,0,0,0,0,0,0,320,0,0,0,0,0,150,150,0,0,0,0,0,0,0,0,0,0,
163,164,0,0,151,152,0,0,0,0,0,0,165,166,0,0,0,0,0,0,0,0,0,0,0,0,0,0,0,0,0,0,0,0,0,0,0,0,0,0,0,0,0,0,0,0,0,0,0,0,0,0,150,0,0,0,0,0,0,0,0,0,0,0,0,0,0,0,0,0,0,0,0,0,0,0,0,0,0,0,0,0,0,0,0,0,0,0,0,0,0,0,0,0,0,0,0,0,0,0,0,0,0,0,0,0,0,0,0,0,0,0,0,0,0,0,0,0,0,0,0,0,0,0,0,0,0,0,0,0,0,0,328,0,0,0,0,0,158,158,0,0,0,0,0,142,0,0,0,0,
171,172,0,0,159,160,167,168,0,0,0,0,173,174,0,0,0,148,0,0,0,0,0,0,0,0,0,0,0,0,148,0,0,0,150,0,0,0,150,0,0,0,0,0,0,150,0,0,0,0,0,0,158,0,0,0,0,0,0,150,0,0,0,0,0,0,0,0,0,0,0,0,0,0,0,150,0,0,0,0,0,0,0,0,0,0,0,0,0,0,0,0,0,0,0,0,0,0,0,0,0,0,0,0,0,0,0,0,0,0,0,0,0,0,0,0,0,0,0,0,0,0,0,0,0,0,0,0,0,0,0,0,336,247,0,0,0,0,256,0,0,0,0,0,0,0,0,0,0,0,
179,180,0,0,175,176,175,176,0,0,0,0,181,182,0,0,136,156,0,0,0,0,0,0,0,0,0,0,0,0,156,0,0,0,158,0,0,0,158,0,0,0,0,0,0,158,0,0,0,0,0,0,0,0,0,0,0,0,0,158,0,0,0,0,0,150,0,0,150,0,0,0,150,0,0,158,0,0,0,0,0,0,0,0,0,0,319,0,0,0,0,0,0,0,0,0,0,0,0,0,0,0,0,0,0,0,0,0,0,0,0,0,0,0,0,0,0,0,0,0,0,0,0,0,0,0,0,0,0,0,0,0,0,255,0,0,0,0,0,150,0,228,229,230,0,150,0,0,0,0,
163,164,0,0,183,184,183,184,151,152,0,0,165,166,0,0,144,0,0,0,0,0,0,0,0,0,0,0,0,0,0,0,0,0,0,0,0,0,0,0,0,0,150,0,0,0,0,0,0,150,0,0,0,0,150,0,0,0,150,0,0,0,0,0,0,158,0,0,158,0,0,0,158,0,0,0,0,0,0,0,0,0,0,0,0,0,327,0,0,0,0,0,0,0,0,0,0,0,0,0,0,319,0,0,0,0,0,0,0,0,0,0,0,0,0,0,0,0,0,0,0,0,0,0,0,0,0,0,0,0,0,0,0,0,0,0,0,0,0,158,0,233,234,235,0,158,0,0,0,0,
171,172,0,0,191,192,167,168,159,160,0,0,173,174,0,0,0,148,0,0,0,0,0,0,0,0,0,0,0,0,148,0,0,0,150,0,0,0,0,0,0,0,158,0,0,271,271,0,0,158,0,0,0,0,158,0,0,0,158,0,0,0,0,0,0,0,0,0,0,0,0,0,0,0,0,150,0,0,0,0,0,0,0,0,0,0,335,0,0,0,0,0,0,0,256,0,150,0,0,150,0,327,0,0,0,0,0,150,0,150,0,0,0,0,0,0,0,0,0,150,0,0,150,319,0,0,0,0,0,0,0,0,0,0,0,0,0,0,0,0,0,0,0,0,0,0,0,0,0,0,
179,180,0,0,163,164,175,176,175,176,0,0,167,168,0,0,0,156,0,0,0,0,0,0,0,0,0,0,0,0,156,0,0,0,158,0,0,0,0,0,0,0,0,0,0,0,0,0,0,0,0,0,0,0,0,0,0,0,0,0,0,0,0,0,0,0,0,0,0,0,0,0,0,0,0,158,0,0,0,0,0,0,0,0,0,0,0,0,0,0,0,252,253,254,0,0,158,0,0,158,142,335,0,0,0,0,0,158,142,158,0,142,0,0,0,0,0,142,0,158,142,136,158,327,0,0,0,0,0,0,0,0,0,0,0,0,0,0,0,0,0,0,0,0,0,0,0,0,0,0,
191,192,0,0,171,172,183,184,183,184,0,0,175,176,0,0,0,0,0,0,0,0,0,0,0,0,0,0,0,0,0,0,0,0,150,0,150,0,150,0,150,0,150,0,150,0,150,0,150,0,150,0,150,0,150,0,150,0,150,0,150,0,0,0,150,0,150,0,150,0,150,0,150,0,150,150,0,136,136,0,0,0,0,0,0,0,0,0,0,0,0,260,261,262,0,0,257,258,259,0,0,0,0,0,0,0,0,142,0,0,0,0,0,0,0,0,0,0,268,268,0,144,142,335,0,0,0,0,0,0,0,0,320,150,0,0,0,0,150,150,0,0,0,0,0,150,319,0,0,0,
187,188,0,0,187,188,187,188,187,188,0,0,183,184,0,0,136,148,0,0,0,0,0,0,0,0,0,0,0,0,148,136,0,0,158,0,158,0,158,0,158,0,158,0,158,0,158,0,158,0,158,0,158,0,158,0,158,0,158,0,158,0,0,0,158,0,158,0,158,0,158,0,158,0,158,158,0,144,144,0,0,0,0,0,0,0,319,0,0,0,0,0,0,0,150,0,265,266,267,0,0,0,0,0,0,0,320,150,0,278,279,0,0,0,0,0,0,0,0,0,0,0,0,0,0,0,0,0,0,0,0,0,328,158,0,0,0,0,158,158,0,0,0,0,0,158,327,0,0,0,
0,0,0,0,0,0,0,0,0,0,0,0,0,0,0,0,144,156,0,0,0,0,0,0,0,0,0,0,0,0,156,144,0,0,0,0,0,0,0,0,0,0,0,0,0,0,0,0,0,0,0,0,0,0,0,0,0,0,0,0,0,0,0,0,0,0,0,0,0,0,0,0,0,0,0,0,0,0,0,0,0,0,0,0,0,0,327,0,0,0,142,0,0,0,158,0,0,0,0,0,142,0,0,0,0,0,328,158,136,0,0,0,0,136,136,0,0,0,0,0,0,0,150,0,0,0,0,0,0,0,0,0,336,0,0,0,0,0,0,0,0,0,0,0,0,0,335,0,0,0,
0,0,0,0,0,0,0,0,0,0,0,0,0,0,0,0,0,0,0,0,0,0,0,0,0,0,0,0,0,0,0,0,0,0,0,0,0,0,0,0,0,0,0,0,0,0,0,0,0,0,0,0,0,0,0,0,0,0,0,0,0,0,0,0,0,0,0,0,0,0,0,0,0,0,0,0,0,0,0,0,0,0,0,0,0,0,335,0,0,0,0,0,0,0,256,0,0,0,0,0,142,0,0,0,0,0,336,142,136,0,0,0,0,144,144,0,0,302,303,0,0,0,158,0,0,0,0,0,0,0,0,0,0,0,0,0,0,0,0,0,0,0,0,0,0,0,0,0,0,0,
0,0,0,0,0,0,0,0,0,0,0,0,0,0,0,0,0,0,0,0,0,0,0,0,0,0,0,0,0,0,0,0,0,0,0,0,0,0,0,0,0,0,0,0,0,0,0,0,0,0,0,0,0,0,0,0,0,0,0,0,0,0,0,0,0,0,0,0,0,0,0,0,0,0,0,0,0,0,0,0,0,0,0,0,0,0,0,0,0,0,0,236,237,238,0,0,0,252,253,254,0,0,0,0,0,0,0,150,144,0,0,0,0,0,0,0,0,0,0,0,0,136,0,0,0,0,0,0,0,0,0,0,0,0,0,0,0,0,0,0,0,0,0,0,0,0,0,0,0,0,
0,0,0,0,0,0,0,0,0,0,0,0,0,0,0,0,0,0,0,0,0,0,0,0,0,0,0,0,0,0,0,0,0,0,0,0,0,0,0,0,0,0,0,0,0,0,0,0,0,0,0,0,0,0,0,0,0,0,0,0,0,0,0,0,0,0,0,0,0,0,0,0,0,0,0,0,0,0,0,0,0,0,0,0,0,0,0,0,0,0,0,244,245,246,0,0,0,260,261,262,0,0,0,0,0,0,0,158,0,278,279,0,0,0,0,0,0,0,0,0,0,144,150,319,0,0,0,0,0,0,0,0,0,0,0,0,0,0,0,0,0,0,0,0,0,0,0,0,0,0,
0,0,0,0,0,0,0,0,0,0,0,0,0,0,0,0,0,0,0,0,0,0,0,0,0,0,0,0,0,0,0,0,0,0,0,0,0,0,0,0,0,0,0,0,0,0,0,0,0,0,0,0,0,0,0,0,0,0,0,0,0,0,0,0,0,0,0,0,0,0,0,0,0,0,0,0,0,0,0,0,0,0,0,0,0,0,0,0,0,0,142,0,0,0,0,150,0,0,150,0,142,319,0,0,0,0,0,142,0,0,0,0,0,0,0,0,0,0,0,0,0,0,158,327,0,0,0,0,134,0,0,0,0,134,0,0,0,0,0,0,142,142,0,0,142,0,0,142,142,0,
0,0,0,0,0,0,0,0,0,0,0,0,0,0,0,0,0,0,0,0,0,0,0,0,0,0,0,0,0,0,0,0,0,0,0,0,0,0,0,0,0,0,0,0,0,0,0,0,0,0,0,0,0,0,0,0,0,0,0,0,0,0,0,0,0,0,0,0,0,0,0,0,0,0,0,0,0,0,0,0,0,0,0,0,0,0,0,0,0,0,142,0,0,0,0,158,0,0,158,0,142,327,0,0,0,0,0,150,0,0,0,0,0,0,0,0,0,0,300,301,0,0,142,335,0,0,0,150,0,236,237,238,0,0,150,150,0,257,258,259,0,0,150,0,252,253,254,0,0,0,
0,0,0,0,0,0,0,0,0,0,0,0,0,0,0,0,0,0,0,0,0,0,0,0,0,0,0,0,0,0,0,0,0,0,0,0,0,0,0,0,0,0,0,0,0,0,0,0,0,0,0,0,0,0,0,0,0,0,0,0,0,0,0,0,0,0,0,0,0,0,0,0,0,0,0,0,0,0,0,0,0,0,0,0,0,0,319,0,0,0,0,0,0,0,256,150,0,0,0,150,142,335,0,0,0,0,0,158,0,0,0,0,0,0,0,0,0,0,0,0,0,0,150,0,0,0,0,158,0,244,245,246,0,0,158,158,0,265,266,267,0,0,158,0,260,261,262,0,0,0,
0,0,0,0,0,0,0,0,0,0,0,0,0,0,0,0,0,0,0,0,0,0,0,0,0,0,0,0,0,0,0,0,0,313,274,275,275,275,275,276,277,274,275,275,275,275,276,273,274,275,275,275,276,0,274,275,275,275,276,314,0,0,0,0,313,274,275,275,276,273,274,275,275,275,275,275,276,0,274,275,275,275,275,276,314,0,327,0,0,0,142,0,0,0,0,158,0,0,0,158,0,0,0,0,0,0,0,142,0,0,0,0,0,0,0,0,0,0,0,0,0,0,158,0,0,0,0,0,0,0,0,0,0,0,0,0,0,0,0,0,0,0,0,0,0,0,0,0,0,0,
0,0,0,0,0,0,0,0,0,0,0,0,0,0,0,0,0,0,0,0,0,0,0,0,0,0,0,0,0,0,0,0,0,321,282,283,283,283,283,284,285,282,283,283,283,283,284,281,282,283,283,283,284,286,282,283,283,283,284,322,0,0,0,0,321,282,283,283,284,281,282,283,283,283,283,283,284,286,282,283,283,283,283,284,322,0,335,0,0,0,142,225,226,227,0,0,236,237,238,0,0,0,0,0,0,0,0,150,269,0,0,0,0,136,136,0,0,0,0,0,0,0,0,0,0,0,320,150,0,150,0,0,150,0,150,150,0,0,0,0,0,0,150,150,0,0,0,0,0,150,
0,0,0,0,0,0,0,0,0,0,0,0,0,0,0,0,0,0,0,0,0,0,0,0,0,0,0,0,0,0,0,0,0,329,0,0,0,0,0,0,293,0,0,0,0,0,0,289,0,0,0,0,0,294,0,0,0,0,0,330,0,0,0,0,329,0,0,0,0,289,0,0,0,0,0,0,0,294,0,0,0,0,0,0,330,0,0,0,0,0,0,233,234,235,0,0,244,245,246,0,0,0,0,0,0,0,0,158,269,0,0,0,0,144,144,0,0,0,0,0,0,136,150,0,0,0,328,158,134,158,134,134,158,134,158,158,142,142,142,142,142,142,158,158,0,0,0,0,0,158,
0,0,0,0,0,0,0,0,0,0,0,0,0,0,0,0,136,0,0,0,0,0,0,0,0,0,0,0,0,0,0,0,0,0,0,0,0,0,0,0,0,0,0,0,0,0,0,0,0,0,0,0,0,0,0,0,0,0,0,0,0,0,0,0,0,0,0,0,0,0,0,0,0,0,0,0,0,0,0,0,0,0,0,0,0,0,0,0,0,0,0,0,0,0,0,0,0,0,0,0,142,0,0,0,0,0,0,0,0,0,0,0,0,0,0,0,0,0,0,0,0,144,158,0,0,0,336,150,0,0,0,0,0,0,150,150,0,0,150,0,0,0,150,150,0,0,0,0,0,150,
151,152,151,152,0,0,0,0,0,0,0,0,0,0,0,0,144,148,0,0,0,0,0,0,0,0,0,0,0,0,148,136,0,0,0,0,0,0,0,0,0,0,0,0,0,0,0,0,0,0,0,0,0,0,0,0,0,0,0,0,0,0,0,0,0,0,0,0,0,0,0,0,0,0,0,0,0,0,0,0,0,0,0,0,0,0,0,0,0,248,0,0,0,0,256,0,0,0,0,0,150,0,0,0,0,0,320,150,0,0,0,0,0,0,0,0,0,0,0,0,0,270,142,0,0,0,0,158,134,134,134,134,134,134,158,158,142,0,158,142,0,142,158,158,142,142,0,142,142,158,
159,160,159,160,0,0,163,164,163,164,163,164,165,166,0,0,0,156,0,0,0,0,0,0,0,0,0,0,0,0,156,144,0,0,142,0,236,237,238,0,0,0,0,0,0,255,0,0,0,0,0,255,0,0,0,0,255,0,0,0,256,0,0,0,0,255,0,0,0,0,255,0,0,0,0,255,0,0,0,0,255,0,0,0,0,255,0,0,0,256,150,228,229,230,150,134,134,0,0,0,158,0,0,0,0,0,328,158,136,0,0,0,0,0,0,0,0,0,0,0,0,270,150,0,0,0,0,255,0,0,0,0,0,0,256,255,0,0,0,0,0,0,256,0,0,0,228,229,230,0,
175,175,175,176,0,0,171,172,171,172,171,172,173,174,0,0,0,0,0,0,0,0,0,0,0,0,0,0,0,0,0,0,0,0,0,0,244,245,246,0,0,0,0,0,0,0,0,0,0,0,0,0,0,0,0,0,0,0,0,0,0,0,0,0,0,0,0,0,0,0,0,0,0,0,0,0,0,0,0,0,0,0,0,0,0,0,0,0,0,0,158,233,234,235,158,0,241,242,243,0,0,0,0,0,0,0,336,0,144,0,0,0,0,0,0,0,0,0,0,0,0,0,158,0,0,0,0,255,0,0,0,0,0,0,256,0,241,242,243,0,0,0,0,0,0,0,233,234,235,0,
183,183,183,184,0,0,179,180,179,180,179,180,181,182,0,0,0,148,0,0,0,0,0,0,0,0,0,0,0,0,148,0,0,0,0,0,0,0,0,0,0,257,258,259,0,0,252,253,254,150,0,0,257,258,259,0,0,236,237,238,0,0,0,0,0,0,252,253,254,0,0,236,237,238,0,0,236,237,238,0,0,257,258,259,0,0,252,253,254,0,0,0,0,0,0,0,249,250,251,0,0,0,0,0,0,0,0,150,0,150,271,150,0,150,0,0,0,0,0,150,0,150,0,319,0,0,0,305,237,238,0,0,252,253,254,0,249,250,251,0,0,0,0,0,0,0,0,0,0,0,
163,164,0,0,151,152,0,0,0,0,0,0,163,164,0,0,136,156,0,0,0,0,0,0,0,0,0,0,0,0,156,0,0,0,0,0,252,253,254,256,0,265,266,267,0,0,260,261,262,158,0,0,265,266,267,0,0,244,245,246,0,0,0,0,0,274,275,275,275,275,275,275,275,276,277,274,275,275,275,275,275,275,275,276,273,274,275,275,275,275,275,275,275,275,276,277,274,275,275,275,276,314,0,0,0,0,0,158,142,158,142,158,142,158,0,0,0,0,0,158,142,158,142,327,0,0,0,313,274,275,275,275,275,275,275,275,275,275,275,276,277,274,275,275,275,275,275,275,276,273,
171,172,0,0,159,160,163,164,167,168,0,0,171,172,0,0,144,0,0,0,0,0,0,0,0,0,0,0,0,0,0,0,0,0,142,0,260,261,262,0,0,0,0,0,0,255,0,0,0,0,0,255,0,0,0,0,255,0,0,0,256,0,0,0,0,282,283,283,283,283,283,283,283,284,285,282,283,283,283,283,283,283,283,284,281,282,283,283,283,283,283,283,283,283,284,285,282,283,283,283,284,322,0,0,0,0,0,0,0,0,0,0,0,0,0,0,0,0,0,0,0,0,0,335,0,0,0,321,282,283,283,283,283,283,283,283,283,283,283,284,285,282,283,283,283,283,283,283,284,281,
179,180,0,0,175,176,171,172,175,176,0,0,179,180,0,0,0,148,0,0,0,0,0,0,0,0,0,0,0,0,148,0,0,0,142,0,0,0,0,0,0,225,226,227,0,0,228,229,230,0,150,0,225,226,227,150,0,228,229,230,0,0,0,0,0,0,0,0,0,0,0,0,0,0,293,0,0,0,0,0,0,0,0,0,289,0,0,0,0,0,0,0,0,0,0,293,0,0,0,0,0,330,0,0,0,0,0,0,0,0,0,0,0,0,0,0,0,0,0,0,0,0,0,0,0,0,0,329,0,0,0,0,0,0,0,0,0,0,0,0,293,0,0,0,0,0,0,0,0,289,
167,168,0,0,183,184,179,180,183,184,0,0,0,0,0,0,0,156,0,0,0,0,0,0,0,0,0,0,0,0,156,0,0,0,255,0,241,242,243,256,0,233,234,235,0,0,233,234,235,0,158,0,233,234,235,158,0,233,234,235,0,0,0,0,0,0,0,0,0,0,0,0,0,0,0,0,0,0,0,0,0,0,0,0,0,0,0,0,0,0,0,0,0,0,0,0,0,0,0,0,0,0,0,0,0,0,0,0,0,0,0,0,0,0,0,0,0,0,0,0,0,0,0,0,0,0,0,0,0,0,0,0,0,0,0,0,0,0,0,0,0,0,0,0,0,0,0,0,0,0,
175,176,0,0,187,188,187,188,191,192,0,0,151,152,0,0,0,0,0,0,0,0,0,0,0,0,0,0,0,0,0,136,0,0,313,274,275,275,275,275,275,275,275,275,275,275,275,275,276,273,274,275,275,275,275,275,275,275,275,275,276,314,0,0,0,0,0,0,0,0,0,0,0,0,0,0,0,0,0,0,0,0,0,0,0,0,0,0,0,0,0,0,0,0,0,0,0,0,0,0,0,0,0,0,0,0,0,0,0,0,0,0,0,0,0,0,0,0,0,0,0,0,0,0,0,0,0,0,0,0,0,0,0,0,0,0,0,0,0,0,0,0,0,0,0,0,0,0,0,0,
183,184,0,0,0,0,0,0,0,0,0,0,159,160,0,0,0,148,0,0,0,0,0,0,0,0,0,0,0,0,148,144,0,0,321,282,283,283,283,283,283,283,283,283,283,283,283,283,284,281,282,283,283,283,283,283,283,283,283,283,284,322,0,0,0,0,0,0,0,0,0,0,0,0,0,0,0,0,0,0,0,0,0,0,0,0,0,0,0,0,0,0,0,0,0,0,0,0,0,0,0,0,0,0,0,0,0,0,0,0,0,0,0,0,0,0,0,0,0,0,0,0,0,0,0,0,0,0,0,0,0,0,0,0,0,0,0,0,0,0,0,0,0,0,0,0,0,0,0,0,
163,164,0,0,163,164,163,164,167,168,0,0,175,176,0,0,136,156,0,0,0,0,0,0,0,0,0,0,0,0,156,0,0,0,329,0,0,0,0,0,0,0,0,0,0,0,0,0,0,289,0,0,0,0,0,0,0,0,239,0,0,330,0,0,0,0,0,0,0,0,0,0,0,0,0,0,0,0,0,0,0,0,0,0,0,0,0,0,0,0,0,0,0,0,0,0,0,0,0,0,0,0,0,0,0,0,0,0,0,0,0,0,0,0,0,0,0,0,0,0,0,0,0,0,0,248,0,0,247,0,0,248,0,247,0,0,248,0,247,0,0,0,0,0,0,0,0,0,0,0,
171,172,0,0,171,172,171,172,175,176,0,0,183,184,0,0,144,0,0,0,0,0,0,0,0,0,0,0,0,0,0,0,0,0,0,0,0,0,0,0,0,0,0,0,0,0,0,0,0,0,0,0,0,0,0,0,0,0,0,0,0,0,0,0,320,157,0,0,0,0,0,0,0,0,256,0,0,0,0,0,256,319,0,0,150,0,0,0,0,0,0,0,0,0,0,0,150,319,0,0,255,0,0,0,0,0,256,255,0,0,0,0,0,256,255,0,0,0,0,256,319,0,0,0,255,0,0,0,0,256,255,0,0,0,256,255,0,0,0,256,319,0,0,0,0,0,0,0,150,0,
179,180,0,0,179,180,179,180,183,184,0,0,163,164,0,0,0,148,0,0,0,0,0,0,0,0,0,0,0,0,148,0,0,0,0,0,0,0,0,0,0,0,0,0,0,0,0,0,0,0,0,0,0,0,0,0,0,0,0,0,0,0,0,0,328,157,0,257,258,258,258,258,259,0,150,0,0,0,0,0,0,327,0,0,158,0,0,0,0,0,0,0,0,0,0,0,158,327,0,0,255,0,0,0,0,0,256,0,252,253,254,134,134,256,255,0,236,237,238,0,327,0,0,0,0,0,252,253,254,0,0,236,237,238,0,0,252,253,254,0,327,0,0,0,0,228,229,230,158,0,
163,164,0,0,167,168,0,0,0,0,0,0,171,172,0,0,0,156,0,0,0,0,0,0,0,0,0,0,0,0,156,0,0,0,0,0,0,0,0,0,0,0,0,0,0,0,0,0,0,0,0,0,0,0,0,0,0,0,0,0,0,0,0,0,336,157,0,265,266,266,266,266,267,0,158,0,0,257,258,259,0,335,0,0,0,0,0,0,0,0,0,0,0,0,0,0,0,335,0,0,0,0,257,258,259,0,0,0,260,261,262,0,0,0,255,0,244,245,246,0,335,0,0,0,0,0,260,261,262,0,0,244,245,246,0,0,260,261,262,0,335,0,0,0,0,233,234,235,0,0,
171,172,0,0,175,176,0,0,0,0,0,0,179,180,0,0,0,0,0,0,0,0,0,0,0,0,0,0,0,0,0,0,0,0,142,0,257,258,259,0,319,0,0,142,0,0,0,0,0,0,0,0,0,142,256,0,0,241,242,243,142,0,0,0,0,0,0,0,0,0,0,0,0,0,150,0,0,265,266,267,0,0,0,0,150,0,0,0,0,0,0,0,0,0,0,0,150,0,0,0,150,0,265,266,267,0,150,150,0,150,0,150,0,150,255,0,0,0,0,150,0,0,0,0,0,0,0,0,0,0,0,0,0,0,0,0,0,0,0,0,0,0,0,0,0,0,0,0,150,0,
179,180,0,0,183,184,151,152,151,152,0,0,0,0,0,0,0,148,0,0,0,0,0,0,0,0,0,0,0,0,148,136,0,0,0,0,265,266,267,0,327,0,0,0,0,0,257,258,259,0,0,0,0,0,0,0,0,249,250,251,0,0,0,0,0,0,0,0,0,0,0,0,0,0,158,0,0,0,0,0,0,0,0,0,158,0,0,0,0,0,0,0,0,0,0,0,158,0,0,0,158,0,0,0,0,0,158,158,0,158,0,158,0,158,255,0,0,0,0,158,0,0,0,320,0,0,0,0,0,0,0,0,0,0,0,0,0,0,0,0,0,0,0,320,0,0,0,0,158,0,
165,166,165,166,163,164,159,160,159,160,0,165,165,166,0,0,0,156,0,0,0,0,0,0,0,0,0,0,0,0,156,144,0,0,0,0,0,0,0,0,335,0,0,0,0,0,265,266,267,0,236,237,238,0,0,134,0,0,0,0,0,0,0,0,0,157,0,0,0,0,0,0,0,0,150,0,0,0,0,0,0,0,0,0,0,0,0,0,0,0,0,0,0,0,0,0,0,0,0,0,134,0,0,0,0,0,0,0,0,150,150,0,0,0,0,0,0,0,0,142,0,0,0,328,142,0,0,0,0,0,150,256,150,0,0,0,0,0,0,142,0,0,0,328,263,0,0,0,0,256,
173,174,173,174,175,176,175,175,175,176,0,173,173,174,0,0,136,0,0,0,0,0,0,0,0,0,0,0,0,0,0,0,0,0,142,0,0,0,0,256,0,0,0,142,0,0,0,0,0,0,244,245,246,0,0,134,134,0,0,0,142,0,0,0,0,157,0,0,0,0,0,0,0,0,158,0,0,0,0,0,256,0,0,0,0,0,0,0,0,0,0,0,0,0,0,0,0,0,0,320,134,0,0,257,258,258,258,259,0,158,158,0,0,0,0,0,0,0,0,142,0,0,0,336,142,0,0,0,0,0,158,0,158,0,0,0,0,0,0,142,0,0,0,336,142,0,0,0,0,150,
181,182,181,182,183,184,183,183,183,184,0,181,181,182,0,0,144,148,0,0,0,0,0,0,0,0,0,0,0,0,148,0,0,0,0,0,236,237,238,0,0,0,0,142,0,0,0,0,0,0,0,256,134,134,134,134,0,0,0,0,0,0,0,0,0,247,0,0,0,0,0,0,0,0,256,263,0,0,0,263,256,0,0,0,150,0,0,0,0,0,0,0,0,0,0,0,150,0,0,328,134,0,0,265,266,266,266,267,0,150,150,0,257,258,258,258,258,259,0,0,0,0,0,0,142,0,0,257,258,259,0,0,255,0,0,252,253,254,0,142,0,0,0,0,142,257,258,259,0,158,
167,168,0,0,0,0,0,0,0,0,0,181,181,182,0,0,0,156,0,0,0,0,0,0,0,0,0,0,0,0,156,0,0,0,0,0,244,245,246,0,0,0,0,0,0,252,253,254,0,150,0,0,150,0,0,0,236,237,238,0,0,0,0,0,0,0,225,226,227,0,0,0,0,0,0,134,134,134,134,134,256,0,0,320,158,0,0,0,0,0,0,0,0,0,0,0,158,0,0,336,134,0,0,0,0,0,0,0,0,158,158,0,265,266,266,266,266,267,0,0,0,0,0,0,0,0,0,265,266,267,0,0,255,0,0,260,261,262,0,0,0,0,0,0,0,265,266,267,0,0,
175,176,0,0,0,0,0,0,0,0,0,0,167,168,0,0,0,0,0,0,0,0,0,0,0,0,0,0,0,0,0,0,0,0,142,0,0,0,0,0,0,0,0,0,0,260,261,262,0,158,0,0,158,0,0,0,244,245,246,0,0,0,0,0,0,0,233,234,235,0,0,0,0,0,0,0,0,0,0,0,256,0,0,328,255,0,0,0,0,0,0,0,0,0,0,0,256,0,0,0,0,0,0,0,0,0,0,0,0,150,150,0,0,0,0,0,0,0,0,142,319,0,0,0,0,0,0,0,0,0,150,0,150,0,150,0,0,0,0,0,0,0,0,0,0,0,0,0,0,150,
183,184,0,0,0,0,0,0,0,0,151,152,175,176,0,0,0,148,0,0,0,0,0,0,0,0,0,0,0,0,148,0,0,0,142,0,0,0,0,150,319,0,0,142,0,0,0,0,0,0,0,150,150,0,0,0,0,0,0,0,0,319,0,0,0,0,0,0,0,0,0,0,0,0,0,0,0,0,0,0,256,0,0,336,0,241,242,243,0,0,150,0,0,0,0,0,0,0,0,0,0,0,134,134,134,134,134,134,134,158,158,0,0,0,0,0,0,0,0,142,327,0,0,0,142,0,0,0,0,0,158,0,158,142,158,0,0,0,0,142,319,0,0,0,142,0,0,0,0,158,
163,164,163,164,167,168,167,168,165,166,159,160,167,168,0,0,136,156,0,0,0,0,0,0,0,0,0,0,0,0,156,0,0,0,142,0,0,0,0,158,327,0,0,142,0,0,0,0,0,0,0,158,158,142,142,142,142,0,0,0,142,327,0,0,0,0,0,0,0,0,0,0,0,0,0,0,0,0,0,0,256,0,0,0,0,249,250,251,0,150,158,0,0,0,0,0,0,0,0,0,142,0,0,0,0,0,0,0,0,256,255,0,0,0,0,0,0,0,0,142,335,0,0,0,142,0,0,0,0,0,0,150,255,150,0,0,0,0,0,134,327,0,0,0,263,0,0,0,0,256,
171,172,171,172,175,176,175,176,173,174,171,172,175,176,0,0,144,0,0,0,0,0,0,0,0,0,0,0,0,0,0,136,0,0,142,0,252,253,254,256,335,0,0,142,0,0,0,0,0,0,0,150,142,150,0,0,0,0,0,0,142,335,0,0,0,0,0,0,0,0,0,0,0,0,0,0,252,253,254,0,0,0,0,0,0,0,0,0,0,158,0,0,0,257,258,259,0,319,0,0,142,0,0,0,0,0,0,0,0,256,255,0,0,0,0,0,0,0,0,142,0,0,0,0,142,0,241,242,243,0,0,158,150,158,0,257,258,259,0,134,335,0,0,0,142,0,0,0,0,150,
179,180,171,172,183,184,183,184,181,182,179,180,183,184,0,0,0,148,0,0,0,0,0,0,0,0,0,0,0,0,148,144,0,0,0,0,260,261,262,0,0,0,0,0,0,236,237,238,0,0,0,158,142,158,0,0,0,225,226,227,0,0,0,0,0,0,236,237,238,0,0,0,0,0,0,0,260,261,262,0,0,0,0,0,0,0,0,0,0,150,150,0,0,265,266,267,0,327,0,0,0,0,0,236,237,238,0,0,0,256,255,0,0,0,252,253,254,0,0,0,0,0,0,0,0,0,249,250,251,0,0,150,158,0,0,265,266,267,0,0,0,0,0,0,142,236,237,238,0,158,
187,188,187,188,187,188,187,188,189,190,187,188,191,192,0,0,0,156,0,0,0,0,0,0,0,0,0,0,0,0,156,0,0,0,0,0,0,0,0,0,0,0,0,0,0,244,245,246,0,0,0,0,0,0,0,0,0,233,234,235,0,0,0,0,0,0,244,245,246,0,0,0,0,0,0,134,134,134,134,134,256,0,0,0,142,142,142,142,142,158,158,0,0,0,0,0,0,335,0,0,0,0,0,244,245,246,0,0,0,256,255,0,0,0,260,261,262,0,0,0,0,0,0,0,0,0,0,0,0,0,0,158,0,134,134,0,0,0,0,0,0,0,0,0,0,244,245,246,0,0
</data>
 </layer>
 <objectgroup id="8" name="collision">
  <object id="3" x="1.33333" y="-1.33333" width="445.333" height="129.333">
   <properties>
    <property name="collider" type="bool" value="true"/>
   </properties>
  </object>
  <object id="6" x="544" y="0" width="29.3333" height="158.667">
   <properties>
    <property name="collider" type="bool" value="true"/>
   </properties>
  </object>
  <object id="7" x="962.667" y="1.99983" width="29.3333" height="158.667">
   <properties>
    <property name="collider" type="bool" value="true"/>
   </properties>
  </object>
  <object id="8" x="1086.67" y="0.666833" width="445.333" height="129.333">
   <properties>
    <property name="collider" type="bool" value="true"/>
   </properties>
  </object>
  <object id="9" x="1854.67" y="-1.99983" width="609.333" height="129.333">
   <properties>
    <property name="collider" type="bool" value="true"/>
   </properties>
  </object>
  <object id="10" x="2780" y="3.3335" width="965.333" height="129.333">
   <properties>
    <property name="collider" type="bool" value="true"/>
   </properties>
  </object>
  <object id="11" x="3841.33" y="1.99983" width="29.3333" height="158.667">
   <properties>
    <property name="collider" type="bool" value="true"/>
   </properties>
  </object>
  <object id="12" x="4258.67" y="3.33317" width="29.3333" height="158.667">
   <properties>
    <property name="collider" type="bool" value="true"/>
   </properties>
  </object>
  <object id="13" x="4382.67" y="-0.6665" width="417.333" height="129.333">
   <properties>
    <property name="collider" type="bool" value="true"/>
   </properties>
  </object>
  <object id="14" x="4705.33" y="704.667" width="93.333" height="129.333">
   <properties>
    <property name="collider" type="bool" value="true"/>
   </properties>
  </object>
  <object id="15" x="4194.67" y="707.333" width="380" height="129.333">
   <properties>
    <property name="collider" type="bool" value="true"/>
   </properties>
  </object>
  <object id="16" x="3614" y="702" width="448" height="129.333">
   <properties>
    <property name="collider" type="bool" value="true"/>
   </properties>
  </object>
  <object id="17" x="3362" y="706" width="128" height="129.333">
   <properties>
    <property name="collider" type="bool" value="true"/>
   </properties>
  </object>
  <object id="18" x="3167.33" y="768.667" width="129.333" height="62.6663">
   <properties>
    <property name="collider" type="bool" value="true"/>
   </properties>
  </object>
  <object id="19" x="126" y="707.333" width="324" height="125.333">
   <properties>
    <property name="collider" type="bool" value="true"/>
   </properties>
  </object>
  <object id="20" x="2.66667" y="706.667" width="58.6667" height="1306.67">
   <properties>
    <property name="collider" type="bool" value="true"/>
   </properties>
  </object>
  <object id="21" x="130.667" y="832" width="124" height="289.333">
   <properties>
    <property name="collider" type="bool" value="true"/>
   </properties>
  </object>
  <object id="23" x="385.333" y="866.665" width="58.6667" height="733.337">
   <properties>
    <property name="collider" type="bool" value="true"/>
   </properties>
  </object>
  <object id="24" x="386.667" y="1634.66" width="58.6667" height="382.67">
   <properties>
    <property name="collider" type="bool" value="true"/>
   </properties>
  </object>
  <object id="25" x="128.667" y="1153.33" width="254.667" height="97.333">
   <properties>
    <property name="collider" type="bool" value="true"/>
   </properties>
  </object>
  <object id="26" x="66" y="1634.67" width="61.3333" height="125.333">
   <properties>
    <property name="collider" type="bool" value="true"/>
   </properties>
  </object>
  <object id="27" x="128" y="1257.33" width="61.3333" height="213.333">
   <properties>
    <property name="collider" type="bool" value="true"/>
   </properties>
  </object>
  <object id="28" x="256" y="1256" width="125.333" height="181.333">
   <properties>
    <property name="collider" type="bool" value="true"/>
   </properties>
  </object>
  <object id="29" x="129.333" y="1502.67" width="124" height="130.666">
   <properties>
    <property name="collider" type="bool" value="true"/>
   </properties>
  </object>
  <object id="30" x="256" y="1474.67" width="61.3333" height="156">
   <properties>
    <property name="collider" type="bool" value="true"/>
   </properties>
  </object>
  <object id="31" x="190.667" y="1664" width="190.667" height="93.333">
   <properties>
    <property name="collider" type="bool" value="true"/>
   </properties>
  </object>
  <object id="32" x="130.667" y="1797.33" width="190.667" height="218.666">
   <properties>
    <property name="collider" type="bool" value="true"/>
   </properties>
  </object>
  <object id="33" x="65.3333" y="2393.33" width="61.3333" height="102.666">
   <properties>
    <property name="collider" type="bool" value="true"/>
   </properties>
  </object>
  <object id="34" x="194.667" y="2401.33" width="188" height="93.333">
   <properties>
    <property name="collider" type="bool" value="true"/>
   </properties>
  </object>
  <object id="35" x="129.333" y="2530.67" width="189.333" height="125.333">
   <properties>
    <property name="collider" type="bool" value="true"/>
   </properties>
  </object>
  <object id="36" x="128" y="2690.67" width="193.333" height="285.333">
   <properties>
    <property name="collider" type="bool" value="true"/>
   </properties>
  </object>
  <object id="37" x="1.33335" y="2393.33" width="61.3333" height="678.666">
   <properties>
    <property name="collider" type="bool" value="true"/>
   </properties>
  </object>
  <object id="38" x="64" y="2881.33" width="61.3333" height="90.6663">
   <properties>
    <property name="collider" type="bool" value="true"/>
   </properties>
  </object>
  <object id="39" x="386.667" y="2400" width="61.3333" height="444">
   <properties>
    <property name="collider" type="bool" value="true"/>
   </properties>
  </object>
  <object id="40" x="350.667" y="2881.33" width="97.3333" height="125.333">
   <properties>
    <property name="collider" type="bool" value="true"/>
   </properties>
  </object>
  <object id="41" x="2.66668" y="3076" width="445.333" height="125.333">
   <properties>
    <property name="collider" type="bool" value="true"/>
   </properties>
  </object>
  <object id="42" x="386.667" y="3012" width="61.3333" height="59.9997">
   <properties>
    <property name="collider" type="bool" value="true"/>
   </properties>
  </object>
  <object id="43" x="545.333" y="644.667" width="29.3333" height="149.334">
   <properties>
    <property name="collider" type="bool" value="true"/>
   </properties>
  </object>
  <object id="44" x="544" y="864.667" width="29.3333" height="702.667">
   <properties>
    <property name="collider" type="bool" value="true"/>
   </properties>
  </object>
  <object id="45" x="964" y="644.667" width="29.3333" height="1428">
   <properties>
    <property name="collider" type="bool" value="true"/>
   </properties>
  </object>
  <object id="46" x="545.333" y="1638" width="29.3333" height="434.667">
   <properties>
    <property name="collider" type="bool" value="true"/>
   </properties>
  </object>
  <object id="47" x="542.667" y="2344.67" width="29.3333" height="466.667">
   <properties>
    <property name="collider" type="bool" value="true"/>
   </properties>
  </object>
  <object id="48" x="961.333" y="2342" width="29.3333" height="856">
   <properties>
    <property name="collider" type="bool" value="true"/>
   </properties>
  </object>
  <object id="49" x="544" y="2880.67" width="29.3333" height="316">
   <properties>
    <property name="collider" type="bool" value="true"/>
   </properties>
  </object>
  <object id="50" x="1088" y="738" width="29.3333" height="29.3337">
   <properties>
    <property name="collider" type="bool" value="true"/>
   </properties>
  </object>
  <object id="51" x="1154.67" y="732" width="29.3333" height="29.3337">
   <properties>
    <property name="collider" type="bool" value="true"/>
   </properties>
  </object>
  <object id="52" x="1216" y="738.666" width="29.3333" height="29.3337">
   <properties>
    <property name="collider" type="bool" value="true"/>
   </properties>
  </object>
  <object id="53" x="1280" y="738.666" width="29.3333" height="29.3337">
   <properties>
    <property name="collider" type="bool" value="true"/>
   </properties>
  </object>
  <object id="54" x="1345.33" y="741.333" width="29.3333" height="29.3337">
   <properties>
    <property name="collider" type="bool" value="true"/>
   </properties>
  </object>
  <object id="55" x="1473.33" y="736" width="29.3333" height="29.3337">
   <properties>
    <property name="collider" type="bool" value="true"/>
   </properties>
  </object>
  <object id="56" x="1537.33" y="740" width="29.3333" height="29.3337">
   <properties>
    <property name="collider" type="bool" value="true"/>
   </properties>
  </object>
  <object id="57" x="1602.67" y="737.333" width="29.3333" height="29.3337">
   <properties>
    <property name="collider" type="bool" value="true"/>
   </properties>
  </object>
  <object id="58" x="1666.67" y="734.666" width="29.3333" height="29.3337">
   <properties>
    <property name="collider" type="bool" value="true"/>
   </properties>
  </object>
  <object id="59" x="1729.33" y="736" width="29.3333" height="29.3337">
   <properties>
    <property name="collider" type="bool" value="true"/>
   </properties>
  </object>
  <object id="60" x="1792" y="737.333" width="29.3333" height="29.3337">
   <properties>
    <property name="collider" type="bool" value="true"/>
   </properties>
  </object>
  <object id="61" x="1856" y="734.666" width="29.3333" height="29.3337">
   <properties>
    <property name="collider" type="bool" value="true"/>
   </properties>
  </object>
  <object id="62" x="1921.33" y="733.333" width="29.3333" height="29.3337">
   <properties>
    <property name="collider" type="bool" value="true"/>
   </properties>
  </object>
  <object id="63" x="1984" y="734.666" width="29.3333" height="29.3337">
   <properties>
    <property name="collider" type="bool" value="true"/>
   </properties>
  </object>
  <object id="64" x="2049.33" y="738.666" width="29.3333" height="29.3337">
   <properties>
    <property name="collider" type="bool" value="true"/>
   </properties>
  </object>
  <object id="65" x="2113.33" y="740" width="29.3333" height="29.3337">
   <properties>
    <property name="collider" type="bool" value="true"/>
   </properties>
  </object>
  <object id="66" x="1092" y="830.666" width="29.3333" height="29.3337">
   <properties>
    <property name="collider" type="bool" value="true"/>
   </properties>
  </object>
  <object id="67" x="1184" y="833.333" width="29.3333" height="29.3337">
   <properties>
    <property name="collider" type="bool" value="true"/>
   </properties>
  </object>
  <object id="68" x="1536" y="830.666" width="29.3333" height="29.3337">
   <properties>
    <property name="collider" type="bool" value="true"/>
   </properties>
  </object>
  <object id="69" x="1086.67" y="930.666" width="29.3333" height="29.3337">
   <properties>
    <property name="collider" type="bool" value="true"/>
   </properties>
  </object>
  <object id="70" x="1282.67" y="896" width="29.3333" height="29.3337">
   <properties>
    <property name="collider" type="bool" value="true"/>
   </properties>
  </object>
  <object id="71" x="1346.67" y="961.333" width="29.3333" height="29.3337">
   <properties>
    <property name="collider" type="bool" value="true"/>
   </properties>
  </object>
  <object id="72" x="1341.33" y="1058.67" width="29.3333" height="29.3337">
   <properties>
    <property name="collider" type="bool" value="true"/>
   </properties>
  </object>
  <object id="73" x="1185.33" y="1029.33" width="29.3333" height="29.3337">
   <properties>
    <property name="collider" type="bool" value="true"/>
   </properties>
  </object>
  <object id="74" x="1090.67" y="1032" width="29.3333" height="29.3337">
   <properties>
    <property name="collider" type="bool" value="true"/>
   </properties>
  </object>
  <object id="75" x="1090.67" y="1153.33" width="29.3333" height="29.3337">
   <properties>
    <property name="collider" type="bool" value="true"/>
   </properties>
  </object>
  <object id="76" x="1089.33" y="1248" width="29.3333" height="29.3337">
   <properties>
    <property name="collider" type="bool" value="true"/>
   </properties>
  </object>
  <object id="77" x="1090.67" y="1380" width="29.3333" height="29.3337">
   <properties>
    <property name="collider" type="bool" value="true"/>
   </properties>
  </object>
  <object id="78" x="1090.67" y="1473.33" width="29.3333" height="29.3337">
   <properties>
    <property name="collider" type="bool" value="true"/>
   </properties>
  </object>
  <object id="79" x="1185.33" y="1474.67" width="29.3333" height="29.3337">
   <properties>
    <property name="collider" type="bool" value="true"/>
   </properties>
  </object>
  <object id="80" x="1185.33" y="1252" width="29.3333" height="29.3337">
   <properties>
    <property name="collider" type="bool" value="true"/>
   </properties>
  </object>
  <object id="82" x="1153.33" y="1121.33" width="29.3333" height="29.3337">
   <properties>
    <property name="collider" type="bool" value="true"/>
   </properties>
  </object>
  <object id="83" x="1154.67" y="1090.67" width="29.3333" height="29.3337">
   <properties>
    <property name="collider" type="bool" value="true"/>
   </properties>
  </object>
  <object id="84" x="1282.67" y="1150.67" width="29.3333" height="29.3337">
   <properties>
    <property name="collider" type="bool" value="true"/>
   </properties>
  </object>
  <object id="85" x="1346.67" y="1156" width="29.3333" height="29.3337">
   <properties>
    <property name="collider" type="bool" value="true"/>
   </properties>
  </object>
  <object id="86" x="1345.33" y="1246.67" width="29.3333" height="29.3337">
   <properties>
    <property name="collider" type="bool" value="true"/>
   </properties>
  </object>
  <object id="87" x="1345.33" y="1345.33" width="29.3333" height="29.3337">
   <properties>
    <property name="collider" type="bool" value="true"/>
   </properties>
  </object>
  <object id="88" x="1252" y="1377.33" width="29.3333" height="29.3337">
   <properties>
    <property name="collider" type="bool" value="true"/>
   </properties>
  </object>
  <object id="89" x="1345.33" y="1444" width="29.3333" height="29.3337">
   <properties>
    <property name="collider" type="bool" value="true"/>
   </properties>
  </object>
  <object id="90" x="1473.33" y="929.333" width="29.3333" height="29.3337">
   <properties>
    <property name="collider" type="bool" value="true"/>
   </properties>
  </object>
  <object id="91" x="1538.67" y="929.333" width="29.3333" height="29.3337">
   <properties>
    <property name="collider" type="bool" value="true"/>
   </properties>
  </object>
  <object id="92" x="1600" y="928" width="29.3333" height="29.3337">
   <properties>
    <property name="collider" type="bool" value="true"/>
   </properties>
  </object>
  <object id="93" x="1668" y="926.666" width="29.3333" height="29.3337">
   <properties>
    <property name="collider" type="bool" value="true"/>
   </properties>
  </object>
  <object id="94" x="1728" y="926.666" width="29.3333" height="29.3337">
   <properties>
    <property name="collider" type="bool" value="true"/>
   </properties>
  </object>
  <object id="95" x="1730.67" y="830.666" width="29.3333" height="29.3337">
   <properties>
    <property name="collider" type="bool" value="true"/>
   </properties>
  </object>
  <object id="96" x="1790.67" y="928" width="29.3333" height="29.3337">
   <properties>
    <property name="collider" type="bool" value="true"/>
   </properties>
  </object>
  <object id="97" x="1857.33" y="928" width="29.3333" height="29.3337">
   <properties>
    <property name="collider" type="bool" value="true"/>
   </properties>
  </object>
  <object id="98" x="1918.67" y="926.666" width="29.3333" height="29.3337">
   <properties>
    <property name="collider" type="bool" value="true"/>
   </properties>
  </object>
  <object id="99" x="1986.67" y="929.333" width="29.3333" height="29.3337">
   <properties>
    <property name="collider" type="bool" value="true"/>
   </properties>
  </object>
  <object id="100" x="2046.67" y="921.333" width="29.3333" height="29.3337">
   <properties>
    <property name="collider" type="bool" value="true"/>
   </properties>
  </object>
  <object id="101" x="2016" y="830.666" width="29.3333" height="29.3337">
   <properties>
    <property name="collider" type="bool" value="true"/>
   </properties>
  </object>
  <object id="102" x="2142.67" y="800" width="65.3333" height="29.3337">
   <properties>
    <property name="collider" type="bool" value="true"/>
   </properties>
  </object>
  <object id="103" x="2177.33" y="896" width="29.3333" height="29.3337">
   <properties>
    <property name="collider" type="bool" value="true"/>
   </properties>
  </object>
  <object id="104" x="2305.33" y="836" width="29.3333" height="29.3337">
   <properties>
    <property name="collider" type="bool" value="true"/>
   </properties>
  </object>
  <object id="105" x="2400" y="830.666" width="29.3333" height="29.3337">
   <properties>
    <property name="collider" type="bool" value="true"/>
   </properties>
  </object>
  <object id="106" x="2401.33" y="930.666" width="29.3333" height="29.3337">
   <properties>
    <property name="collider" type="bool" value="true"/>
   </properties>
  </object>
  <object id="107" x="2488" y="738.666" width="10.6666" height="29.3337">
   <properties>
    <property name="collider" type="bool" value="true"/>
   </properties>
  </object>
  <object id="108" x="2488" y="964" width="16" height="29.3337">
   <properties>
    <property name="collider" type="bool" value="true"/>
   </properties>
  </object>
  <object id="109" x="2050.67" y="1057.33" width="29.3333" height="29.3337">
   <properties>
    <property name="collider" type="bool" value="true"/>
   </properties>
  </object>
  <object id="110" x="2398.67" y="1060" width="29.3333" height="29.3337">
   <properties>
    <property name="collider" type="bool" value="true"/>
   </properties>
  </object>
  <object id="111" x="2305.33" y="1120" width="29.3333" height="29.3337">
   <properties>
    <property name="collider" type="bool" value="true"/>
   </properties>
  </object>
  <object id="112" x="2049.33" y="1156" width="29.3333" height="29.3337">
   <properties>
    <property name="collider" type="bool" value="true"/>
   </properties>
  </object>
  <object id="113" x="2177.33" y="1185.33" width="29.3333" height="29.3337">
   <properties>
    <property name="collider" type="bool" value="true"/>
   </properties>
  </object>
  <object id="114" x="2400" y="1153.33" width="29.3333" height="29.3337">
   <properties>
    <property name="collider" type="bool" value="true"/>
   </properties>
  </object>
  <object id="115" x="2398.67" y="1249.33" width="29.3333" height="29.3337">
   <properties>
    <property name="collider" type="bool" value="true"/>
   </properties>
  </object>
  <object id="116" x="2302.67" y="1254.67" width="29.3333" height="29.3337">
   <properties>
    <property name="collider" type="bool" value="true"/>
   </properties>
  </object>
  <object id="117" x="2050.67" y="1248" width="29.3333" height="29.3337">
   <properties>
    <property name="collider" type="bool" value="true"/>
   </properties>
  </object>
  <object id="118" x="2049.33" y="1346.67" width="29.3333" height="29.3337">
   <properties>
    <property name="collider" type="bool" value="true"/>
   </properties>
  </object>
  <object id="119" x="2241.33" y="1345.33" width="29.3333" height="29.3337">
   <properties>
    <property name="collider" type="bool" value="true"/>
   </properties>
  </object>
  <object id="120" x="2402.67" y="1345.33" width="29.3333" height="29.3337">
   <properties>
    <property name="collider" type="bool" value="true"/>
   </properties>
  </object>
  <object id="121" x="2398.67" y="1437.33" width="29.3333" height="29.3337">
   <properties>
    <property name="collider" type="bool" value="true"/>
   </properties>
  </object>
  <object id="122" x="2305.33" y="1436" width="29.3333" height="29.3337">
   <properties>
    <property name="collider" type="bool" value="true"/>
   </properties>
  </object>
  <object id="123" x="2174.67" y="1473.33" width="29.3333" height="29.3337">
   <properties>
    <property name="collider" type="bool" value="true"/>
   </properties>
  </object>
  <object id="124" x="2048" y="1442.67" width="29.3333" height="29.3337">
   <properties>
    <property name="collider" type="bool" value="true"/>
   </properties>
  </object>
  <object id="125" x="2048" y="1537.33" width="29.3333" height="29.3337">
   <properties>
    <property name="collider" type="bool" value="true"/>
   </properties>
  </object>
  <object id="126" x="2180" y="1573.33" width="29.3333" height="29.3337">
   <properties>
    <property name="collider" type="bool" value="true"/>
   </properties>
  </object>
  <object id="127" x="2400" y="1540" width="29.3333" height="29.3337">
   <properties>
    <property name="collider" type="bool" value="true"/>
   </properties>
  </object>
  <object id="128" x="2273.33" y="1541.33" width="61.3333" height="29.3337">
   <properties>
    <property name="collider" type="bool" value="true"/>
   </properties>
  </object>
  <object id="129" x="2401.33" y="1628" width="29.3333" height="29.3337">
   <properties>
    <property name="collider" type="bool" value="true"/>
   </properties>
  </object>
  <object id="130" x="2337.33" y="1632" width="29.3333" height="29.3337">
   <properties>
    <property name="collider" type="bool" value="true"/>
   </properties>
  </object>
  <object id="131" x="2050.67" y="1636" width="29.3333" height="29.3337">
   <properties>
    <property name="collider" type="bool" value="true"/>
   </properties>
  </object>
  <object id="132" x="2078.67" y="1732" width="29.3333" height="29.3337">
   <properties>
    <property name="collider" type="bool" value="true"/>
   </properties>
  </object>
  <object id="133" x="2240" y="1730.67" width="29.3333" height="29.3337">
   <properties>
    <property name="collider" type="bool" value="true"/>
   </properties>
  </object>
  <object id="134" x="2401.33" y="1730.67" width="29.3333" height="29.3337">
   <properties>
    <property name="collider" type="bool" value="true"/>
   </properties>
  </object>
  <object id="135" x="1568" y="1057.33" width="65.3333" height="29.3337">
   <properties>
    <property name="collider" type="bool" value="true"/>
   </properties>
  </object>
  <object id="136" x="1793.33" y="1056" width="64" height="29.3337">
   <properties>
    <property name="collider" type="bool" value="true"/>
   </properties>
  </object>
  <object id="137" x="1924" y="1156" width="29.3333" height="61.3337">
   <properties>
    <property name="collider" type="bool" value="true"/>
   </properties>
  </object>
  <object id="138" x="1924" y="1346.67" width="29.3333" height="61.3337">
   <properties>
    <property name="collider" type="bool" value="true"/>
   </properties>
  </object>
  <object id="139" x="1466.67" y="1150.67" width="29.3333" height="72.0004">
   <properties>
    <property name="collider" type="bool" value="true"/>
   </properties>
  </object>
  <object id="140" x="1465.33" y="1340" width="29.3333" height="74.667">
   <properties>
    <property name="collider" type="bool" value="true"/>
   </properties>
  </object>
  <object id="141" x="1565.33" y="1476" width="58.6666" height="29.3337">
   <properties>
    <property name="collider" type="bool" value="true"/>
   </properties>
  </object>
  <object id="142" x="1792" y="1473.33" width="64" height="29.3337">
   <properties>
    <property name="collider" type="bool" value="true"/>
   </properties>
  </object>
  <object id="143" x="1664" y="1244" width="94.6666" height="65.3337">
   <properties>
    <property name="collider" type="bool" value="true"/>
   </properties>
  </object>
  <object id="144" x="1090.67" y="1629.33" width="29.3333" height="29.3337">
   <properties>
    <property name="collider" type="bool" value="true"/>
   </properties>
  </object>
  <object id="145" x="1186.67" y="1665.33" width="29.3333" height="29.3337">
   <properties>
    <property name="collider" type="bool" value="true"/>
   </properties>
  </object>
  <object id="146" x="1086.67" y="1732" width="29.3333" height="29.3337">
   <properties>
    <property name="collider" type="bool" value="true"/>
   </properties>
  </object>
  <object id="147" x="1088" y="1825.33" width="29.3333" height="29.3337">
   <properties>
    <property name="collider" type="bool" value="true"/>
   </properties>
  </object>
  <object id="148" x="1092" y="1922.67" width="29.3333" height="29.3337">
   <properties>
    <property name="collider" type="bool" value="true"/>
   </properties>
  </object>
  <object id="149" x="1085.33" y="1981.33" width="29.3333" height="29.3337">
   <properties>
    <property name="collider" type="bool" value="true"/>
   </properties>
  </object>
  <object id="150" x="1156" y="1986.67" width="29.3333" height="29.3337">
   <properties>
    <property name="collider" type="bool" value="true"/>
   </properties>
  </object>
  <object id="151" x="1220" y="1986.67" width="29.3333" height="29.3337">
   <properties>
    <property name="collider" type="bool" value="true"/>
   </properties>
  </object>
  <object id="152" x="1282.67" y="1981.33" width="29.3333" height="29.3337">
   <properties>
    <property name="collider" type="bool" value="true"/>
   </properties>
  </object>
  <object id="153" x="1345.33" y="1985.33" width="29.3333" height="29.3337">
   <properties>
    <property name="collider" type="bool" value="true"/>
   </properties>
  </object>
  <object id="154" x="1422.67" y="1986.67" width="29.3333" height="29.3337">
   <properties>
    <property name="collider" type="bool" value="true"/>
   </properties>
  </object>
  <object id="155" x="1476" y="1990.67" width="29.3333" height="29.3337">
   <properties>
    <property name="collider" type="bool" value="true"/>
   </properties>
  </object>
  <object id="156" x="1538.67" y="1985.33" width="29.3333" height="29.3337">
   <properties>
    <property name="collider" type="bool" value="true"/>
   </properties>
  </object>
  <object id="157" x="1601.33" y="1988" width="29.3333" height="29.3337">
   <properties>
    <property name="collider" type="bool" value="true"/>
   </properties>
  </object>
  <object id="158" x="1662.67" y="1984" width="29.3333" height="29.3337">
   <properties>
    <property name="collider" type="bool" value="true"/>
   </properties>
  </object>
  <object id="159" x="1729.33" y="1986.67" width="29.3333" height="29.3337">
   <properties>
    <property name="collider" type="bool" value="true"/>
   </properties>
  </object>
  <object id="160" x="1793.33" y="1984" width="29.3333" height="29.3337">
   <properties>
    <property name="collider" type="bool" value="true"/>
   </properties>
  </object>
  <object id="161" x="1857.33" y="1984" width="29.3333" height="29.3337">
   <properties>
    <property name="collider" type="bool" value="true"/>
   </properties>
  </object>
  <object id="162" x="1920" y="1984" width="29.3333" height="29.3337">
   <properties>
    <property name="collider" type="bool" value="true"/>
   </properties>
  </object>
  <object id="163" x="1861.33" y="1890.67" width="29.3333" height="29.3337">
   <properties>
    <property name="collider" type="bool" value="true"/>
   </properties>
  </object>
  <object id="164" x="1890.67" y="1828" width="29.3333" height="29.3337">
   <properties>
    <property name="collider" type="bool" value="true"/>
   </properties>
  </object>
  <object id="165" x="1793.33" y="1728" width="29.3333" height="29.3337">
   <properties>
    <property name="collider" type="bool" value="true"/>
   </properties>
  </object>
  <object id="166" x="1726.67" y="1886.67" width="29.3333" height="29.3337">
   <properties>
    <property name="collider" type="bool" value="true"/>
   </properties>
  </object>
  <object id="167" x="1665.33" y="1798.67" width="29.3333" height="29.3337">
   <properties>
    <property name="collider" type="bool" value="true"/>
   </properties>
  </object>
  <object id="168" x="1632" y="1732" width="29.3333" height="29.3337">
   <properties>
    <property name="collider" type="bool" value="true"/>
   </properties>
  </object>
  <object id="169" x="1502.67" y="1729.33" width="29.3333" height="29.3337">
   <properties>
    <property name="collider" type="bool" value="true"/>
   </properties>
  </object>
  <object id="170" x="1568" y="1888" width="29.3333" height="29.3337">
   <properties>
    <property name="collider" type="bool" value="true"/>
   </properties>
  </object>
  <object id="171" x="1442.67" y="1888" width="53.3333" height="29.3337">
   <properties>
    <property name="collider" type="bool" value="true"/>
   </properties>
  </object>
  <object id="172" x="1442.67" y="1828" width="29.3333" height="29.3337">
   <properties>
    <property name="collider" type="bool" value="true"/>
   </properties>
  </object>
  <object id="173" x="1342.67" y="1888" width="29.3333" height="29.3337">
   <properties>
    <property name="collider" type="bool" value="true"/>
   </properties>
  </object>
  <object id="174" x="1217.33" y="1825.33" width="29.3333" height="29.3337">
   <properties>
    <property name="collider" type="bool" value="true"/>
   </properties>
  </object>
  <object id="175" x="1346.67" y="1730.67" width="29.3333" height="29.3337">
   <properties>
    <property name="collider" type="bool" value="true"/>
   </properties>
  </object>
  <object id="176" x="1344" y="1630.67" width="29.3333" height="29.3337">
   <properties>
    <property name="collider" type="bool" value="true"/>
   </properties>
  </object>
  <object id="177" x="1412" y="1630.67" width="29.3333" height="29.3337">
   <properties>
    <property name="collider" type="bool" value="true"/>
   </properties>
  </object>
  <object id="178" x="1469.33" y="1633.33" width="29.3333" height="29.3337">
   <properties>
    <property name="collider" type="bool" value="true"/>
   </properties>
  </object>
  <object id="179" x="1536" y="1632" width="29.3333" height="29.3337">
   <properties>
    <property name="collider" type="bool" value="true"/>
   </properties>
  </object>
  <object id="180" x="1597.33" y="1632" width="29.3333" height="29.3337">
   <properties>
    <property name="collider" type="bool" value="true"/>
   </properties>
  </object>
  <object id="181" x="1664" y="1634.67" width="29.3333" height="29.3337">
   <properties>
    <property name="collider" type="bool" value="true"/>
   </properties>
  </object>
  <object id="182" x="1726.67" y="1632" width="29.3333" height="29.3337">
   <properties>
    <property name="collider" type="bool" value="true"/>
   </properties>
  </object>
  <object id="183" x="1789.33" y="1632" width="29.3333" height="29.3337">
   <properties>
    <property name="collider" type="bool" value="true"/>
   </properties>
  </object>
  <object id="184" x="1853.33" y="1633.33" width="29.3333" height="29.3337">
   <properties>
    <property name="collider" type="bool" value="true"/>
   </properties>
  </object>
  <object id="185" x="1920" y="1630.67" width="29.3333" height="29.3337">
   <properties>
    <property name="collider" type="bool" value="true"/>
   </properties>
  </object>
  <object id="186" x="2080" y="1857.33" width="29.3333" height="29.3337">
   <properties>
    <property name="collider" type="bool" value="true"/>
   </properties>
  </object>
  <object id="187" x="2172" y="1858.67" width="29.3333" height="29.3337">
   <properties>
    <property name="collider" type="bool" value="true"/>
   </properties>
  </object>
  <object id="188" x="2305.33" y="1857.33" width="29.3333" height="29.3337">
   <properties>
    <property name="collider" type="bool" value="true"/>
   </properties>
  </object>
  <object id="189" x="2401.33" y="1824" width="29.3333" height="29.3337">
   <properties>
    <property name="collider" type="bool" value="true"/>
   </properties>
  </object>
  <object id="190" x="2402.67" y="1922.67" width="29.3333" height="29.3337">
   <properties>
    <property name="collider" type="bool" value="true"/>
   </properties>
  </object>
  <object id="191" x="2400" y="1984" width="29.3333" height="29.3337">
   <properties>
    <property name="collider" type="bool" value="true"/>
   </properties>
  </object>
  <object id="192" x="2370.67" y="1984" width="29.3333" height="29.3337">
   <properties>
    <property name="collider" type="bool" value="true"/>
   </properties>
  </object>
  <object id="193" x="2305.33" y="1989.33" width="29.3333" height="29.3337">
   <properties>
    <property name="collider" type="bool" value="true"/>
   </properties>
  </object>
  <object id="194" x="2240" y="1985.33" width="29.3333" height="29.3337">
   <properties>
    <property name="collider" type="bool" value="true"/>
   </properties>
  </object>
  <object id="195" x="2173.33" y="1985.33" width="29.3333" height="29.3337">
   <properties>
    <property name="collider" type="bool" value="true"/>
   </properties>
  </object>
  <object id="196" x="2113.33" y="1988" width="29.3333" height="29.3337">
   <properties>
    <property name="collider" type="bool" value="true"/>
   </properties>
  </object>
  <object id="197" x="2048" y="1985.33" width="29.3333" height="29.3337">
   <properties>
    <property name="collider" type="bool" value="true"/>
   </properties>
  </object>
  <object id="198" x="2488" y="1161.33" width="16" height="29.3337">
   <properties>
    <property name="collider" type="bool" value="true"/>
   </properties>
  </object>
  <object id="199" x="2486.67" y="1486.67" width="16" height="29.3337">
   <properties>
    <property name="collider" type="bool" value="true"/>
   </properties>
  </object>
  <object id="200" x="2488" y="1741.33" width="16" height="29.3337">
   <properties>
    <property name="collider" type="bool" value="true"/>
   </properties>
  </object>
  <object id="201" x="2486.67" y="1994.67" width="16" height="29.3337">
   <properties>
    <property name="collider" type="bool" value="true"/>
   </properties>
  </object>
  <object id="202" x="1064" y="2302.67" width="16" height="29.3337">
   <properties>
    <property name="collider" type="bool" value="true"/>
   </properties>
  </object>
  <object id="203" x="1288" y="2300" width="16" height="29.3337">
   <properties>
    <property name="collider" type="bool" value="true"/>
   </properties>
  </object>
  <object id="204" x="1509.33" y="2306.67" width="16" height="29.3337">
   <properties>
    <property name="collider" type="bool" value="true"/>
   </properties>
  </object>
  <object id="205" x="1704" y="2312" width="16" height="29.3337">
   <properties>
    <property name="collider" type="bool" value="true"/>
   </properties>
  </object>
  <object id="206" x="1894.67" y="2304" width="16" height="29.3337">
   <properties>
    <property name="collider" type="bool" value="true"/>
   </properties>
  </object>
  <object id="207" x="2054.67" y="2302.67" width="16" height="29.3337">
   <properties>
    <property name="collider" type="bool" value="true"/>
   </properties>
  </object>
  <object id="208" x="2218.67" y="2302.67" width="16" height="29.3337">
   <properties>
    <property name="collider" type="bool" value="true"/>
   </properties>
  </object>
  <object id="209" x="2470.67" y="2298.67" width="16" height="29.3337">
   <properties>
    <property name="collider" type="bool" value="true"/>
   </properties>
  </object>
  <object id="210" x="2694.67" y="2304" width="16" height="29.3337">
   <properties>
    <property name="collider" type="bool" value="true"/>
   </properties>
  </object>
  <object id="211" x="1098.67" y="2688" width="16" height="29.3337">
   <properties>
    <property name="collider" type="bool" value="true"/>
   </properties>
  </object>
  <object id="212" x="1577.33" y="2692" width="16" height="29.3337">
   <properties>
    <property name="collider" type="bool" value="true"/>
   </properties>
  </object>
  <object id="213" x="1961.33" y="2686.67" width="16" height="29.3337">
   <properties>
    <property name="collider" type="bool" value="true"/>
   </properties>
  </object>
  <object id="216" x="1089.33" y="2385.33" width="189.333" height="317.333">
   <properties>
    <property name="collider" type="bool" value="true"/>
   </properties>
  </object>
  <object id="217" x="1278.67" y="2400" width="672" height="302.666">
   <properties>
    <property name="collider" type="bool" value="true"/>
   </properties>
  </object>
  <object id="218" x="1089.33" y="2804" width="189.333" height="398.666">
   <properties>
    <property name="collider" type="bool" value="true"/>
   </properties>
  </object>
  <object id="220" x="1381.35" y="2845.33">
   <properties>
    <property name="collider" type="bool" value="true"/>
   </properties>
   <polygon points="0,0 22.7189,1.33333 25.3917,-28 175.069,-26.6667 173.733,1.33333 90.8756,4 90.8756,62.6667 177.742,64 177.742,89.3333 28.0645,93.3333 25.3917,66.6667 -4.00922,66.6667 -5.34562,92 -5.34562,128 22.7189,129.333 25.3917,112 272.627,114.667 275.3,197.333 253.917,197.333 253.917,248 24.0553,253.333 22.7189,190.667 -6.68203,190.667 -8.01843,278.667 21.3825,276 248.571,277.333 249.908,314.667 271.29,313.333 271.29,352 283.318,352 284.654,324 339.447,321.333 342.12,276 537.235,276 541.244,290.667 569.309,288 566.636,225.333 537.235,225.333 312.719,221.333 312.719,126.667 565.3,128 566.636,66.6667 410.276,64 410.276,30.6667 379.539,30.6667 382.212,-30.6667 441.014,-28 446.359,33.3333 539.908,33.3333 537.235,-2.66667 571.982,2.66667 571.982,-49.3333 314.055,-49.3333 312.719,-5.33333 370.184,-1.33333 371.521,85.3333 302.028,86.6667 299.355,25.3333 227.189,28 225.853,84 192.442,84 192.442,0 223.18,2.66667 221.843,-46.6667 -6.68203,-45.3333"/>
  </object>
  <object id="221" x="1452" y="2976.67" width="67.9997" height="61.3327">
   <properties>
    <property name="collider" type="bool" value="true"/>
   </properties>
  </object>
  <object id="222" x="1451.33" y="3140" width="67.9997" height="61.3327">
   <properties>
    <property name="collider" type="bool" value="true"/>
   </properties>
  </object>
  <object id="223" x="1840.67" y="3137.33" width="67.9997" height="61.3327">
   <properties>
    <property name="collider" type="bool" value="true"/>
   </properties>
  </object>
  <object id="224" x="1807.33" y="2977.33" width="67.9997" height="61.3327">
   <properties>
    <property name="collider" type="bool" value="true"/>
   </properties>
  </object>
  <object id="225" x="1573.33" y="3013.33" width="16" height="29.3337">
   <properties>
    <property name="collider" type="bool" value="true"/>
   </properties>
  </object>
  <object id="226" x="2056" y="2564" width="16" height="29.3337">
   <properties>
    <property name="collider" type="bool" value="true"/>
   </properties>
  </object>
  <object id="227" x="2374.67" y="2565.33" width="16" height="29.3337">
   <properties>
    <property name="collider" type="bool" value="true"/>
   </properties>
  </object>
  <object id="228" x="2694.67" y="2557.33" width="16" height="29.3337">
   <properties>
    <property name="collider" type="bool" value="true"/>
   </properties>
  </object>
  <object id="229" x="3048" y="2558.67" width="16" height="29.3337">
   <properties>
    <property name="collider" type="bool" value="true"/>
   </properties>
  </object>
  <object id="230" x="3241.33" y="2562.67" width="16" height="29.3337">
   <properties>
    <property name="collider" type="bool" value="true"/>
   </properties>
  </object>
  <object id="232" x="2081.33" y="2396.67" width="1146.67" height="178.666">
   <properties>
    <property name="collider" type="bool" value="true"/>
   </properties>
  </object>
  <object id="233" x="2078.67" y="2719.33" width="513.333" height="255.999">
   <properties>
    <property name="collider" type="bool" value="true"/>
   </properties>
  </object>
  <object id="234" x="2080" y="2980.67" width="317.333" height="61.3327">
   <properties>
    <property name="collider" type="bool" value="true"/>
   </properties>
  </object>
  <object id="235" x="2076" y="3136.67" width="320" height="62.666">
   <properties>
    <property name="collider" type="bool" value="true"/>
   </properties>
  </object>
  <object id="236" x="2393.33" y="3046" width="13.3333" height="86.666">
   <properties>
    <property name="collider" type="bool" value="true"/>
   </properties>
  </object>
  <object id="238" x="2562.67" y="3105.33">
   <properties>
    <property name="collider" type="bool" value="true"/>
   </properties>
   <polygon points="0,0 28,-2.66667 26.6667,-129.333 -169.333,-129.333 -165.333,-97.3333 -5.33333,-98.6667"/>
  </object>
  <object id="239" x="2585.33" y="3168">
   <properties>
    <property name="collider" type="bool" value="true"/>
   </properties>
   <polygon points="0,0 -58.6667,-1.33333 -60,-64 -156,-65.3333 -156,0 -188,-1.33333 -186.667,28 -2.66667,29.3333 6.66667,28"/>
  </object>
  <object id="240" x="2686" y="3022.67" width="416" height="174.666">
   <properties>
    <property name="collider" type="bool" value="true"/>
   </properties>
  </object>
  <object id="241" x="2686" y="2702.67" width="35.9997" height="313.332">
   <properties>
    <property name="collider" type="bool" value="true"/>
   </properties>
  </object>
  <object id="242" x="3071.33" y="2701.33" width="33.333" height="317.332">
   <properties>
    <property name="collider" type="bool" value="true"/>
   </properties>
  </object>
  <object id="243" x="3198" y="2721.33" width="644" height="475.999">
   <properties>
    <property name="collider" type="bool" value="true"/>
   </properties>
  </object>
  <object id="244" x="3968.67" y="2706.67" width="513.333" height="491.999">
   <properties>
    <property name="collider" type="bool" value="true"/>
   </properties>
  </object>
  <object id="245" x="4604.67" y="2698.67" width="197.333" height="498.666">
   <properties>
    <property name="collider" type="bool" value="true"/>
   </properties>
  </object>
  <object id="246" x="4060.67" y="2126.67" width="734.666" height="450.666">
   <properties>
    <property name="collider" type="bool" value="true"/>
   </properties>
  </object>
  <object id="247" x="3423.33" y="2494.67" width="224" height="61.3323">
   <properties>
    <property name="collider" type="bool" value="true"/>
   </properties>
  </object>
  <object id="248" x="3809.33" y="2494.67" width="126.667" height="61.3323">
   <properties>
    <property name="collider" type="bool" value="true"/>
   </properties>
  </object>
  <object id="249" x="3424" y="1890.67" width="158.667" height="61.3323">
   <properties>
    <property name="collider" type="bool" value="true"/>
   </properties>
  </object>
  <object id="250" x="3745.33" y="1886.67" width="188" height="61.3323">
   <properties>
    <property name="collider" type="bool" value="true"/>
   </properties>
  </object>
  <object id="251" x="3422.67" y="1954.67" width="34.6667" height="537.332">
   <properties>
    <property name="collider" type="bool" value="true"/>
   </properties>
  </object>
  <object id="252" x="3904" y="1951.33" width="34.6667" height="537.332">
   <properties>
    <property name="collider" type="bool" value="true"/>
   </properties>
  </object>
  <object id="253" x="3524.67" y="2464" width="56.0003" height="27.999">
   <properties>
    <property name="collider" type="bool" value="true"/>
   </properties>
  </object>
  <object id="254" x="3780" y="2176.67" width="56.0003" height="27.999">
   <properties>
    <property name="collider" type="bool" value="true"/>
   </properties>
  </object>
  <object id="255" x="3781.33" y="1955.33" width="56.0003" height="27.999">
   <properties>
    <property name="collider" type="bool" value="true"/>
   </properties>
  </object>
  <object id="256" x="3750.67" y="2050" width="56.0003" height="27.999">
   <properties>
    <property name="collider" type="bool" value="true"/>
   </properties>
  </object>
  <object id="257" x="3461.33" y="2287.33" width="24.0003" height="43.999">
   <properties>
    <property name="collider" type="bool" value="true"/>
   </properties>
  </object>
  <object id="258" x="3876" y="2366" width="24.0003" height="67.999">
   <properties>
    <property name="collider" type="bool" value="true"/>
   </properties>
  </object>
  <object id="259" x="3642.67" y="2319.33" width="12.0003" height="22.6657">
   <properties>
    <property name="collider" type="bool" value="true"/>
   </properties>
  </object>
  <object id="260" x="3645.33" y="2055.33" width="9.33363" height="27.999">
   <properties>
    <property name="collider" type="bool" value="true"/>
   </properties>
  </object>
  <object id="261" x="3490.67" y="2114" width="56.0003" height="27.999">
   <properties>
    <property name="collider" type="bool" value="true"/>
   </properties>
  </object>
  <object id="262" x="3488" y="1984.67" width="56.0003" height="27.999">
   <properties>
    <property name="collider" type="bool" value="true"/>
   </properties>
  </object>
  <object id="263" x="3682.67" y="2539.33" width="26.667" height="17.3323">
   <properties>
    <property name="collider" type="bool" value="true"/>
   </properties>
  </object>
  <object id="264" x="3745.33" y="2542" width="26.667" height="17.3323">
   <properties>
    <property name="collider" type="bool" value="true"/>
   </properties>
  </object>
  <object id="265" x="3620" y="1900.67" width="26.667" height="17.3323">
   <properties>
    <property name="collider" type="bool" value="true"/>
   </properties>
  </object>
  <object id="266" x="3681.33" y="1902" width="26.667" height="17.3323">
   <properties>
    <property name="collider" type="bool" value="true"/>
   </properties>
  </object>
  <object id="267" x="2881.33" y="1888" width="353.333" height="505.333">
   <properties>
    <property name="collider" type="bool" value="true"/>
   </properties>
  </object>
  <object id="269" x="2878.67" y="1086.67" width="388" height="657.333">
   <properties>
    <property name="collider" type="bool" value="true"/>
   </properties>
  </object>
  <object id="270" x="3387.33" y="1166" width="424" height="581.333">
   <properties>
    <property name="collider" type="bool" value="true"/>
   </properties>
  </object>
  <object id="271" x="3932.67" y="1170" width="229.333" height="573.333">
   <properties>
    <property name="collider" type="bool" value="true"/>
   </properties>
  </object>
  <object id="272" x="4254" y="1040.67" width="420" height="989.333">
   <properties>
    <property name="collider" type="bool" value="true"/>
   </properties>
  </object>
  <object id="273" x="2746.67" y="2053.33" width="16" height="29.3337">
   <properties>
    <property name="collider" type="bool" value="true"/>
   </properties>
  </object>
  <object id="274" x="2750.67" y="1894.67" width="16" height="29.3337">
   <properties>
    <property name="collider" type="bool" value="true"/>
   </properties>
  </object>
  <object id="275" x="2748" y="1446.67" width="16" height="29.3337">
   <properties>
    <property name="collider" type="bool" value="true"/>
   </properties>
  </object>
  <object id="276" x="2749.33" y="1224" width="16" height="29.3337">
   <properties>
    <property name="collider" type="bool" value="true"/>
   </properties>
  </object>
  <object id="277" x="2746.67" y="869.333" width="16" height="29.3337">
   <properties>
    <property name="collider" type="bool" value="true"/>
   </properties>
  </object>
  <object id="278" x="2750.67" y="712" width="16" height="29.3337">
   <properties>
    <property name="collider" type="bool" value="true"/>
   </properties>
  </object>
  <object id="279" x="2886.67" y="704" width="16" height="68.0004">
   <properties>
    <property name="collider" type="bool" value="true"/>
   </properties>
  </object>
  <object id="280" x="3336" y="708" width="16" height="60.0004">
   <properties>
    <property name="collider" type="bool" value="true"/>
   </properties>
  </object>
  <object id="281" x="3102.67" y="853.333" width="256" height="14.667">
   <properties>
    <property name="collider" type="bool" value="true"/>
   </properties>
  </object>
  <object id="282" x="2914.67" y="725.333" width="124" height="13.3337">
   <properties>
    <property name="collider" type="bool" value="true"/>
   </properties>
  </object>
  <object id="283" x="2874.67" y="857.333" width="16" height="132">
   <properties>
    <property name="collider" type="bool" value="true"/>
   </properties>
  </object>
  <object id="284" x="3392" y="865.333" width="125.333" height="29.3337">
   <properties>
    <property name="collider" type="bool" value="true"/>
   </properties>
  </object>
  <object id="285" x="3385.33" y="894.666" width="16" height="65.3337">
   <properties>
    <property name="collider" type="bool" value="true"/>
   </properties>
  </object>
  <object id="286" x="3392" y="1054.67" width="413.333" height="29.3337">
   <properties>
    <property name="collider" type="bool" value="true"/>
   </properties>
  </object>
  <object id="287" x="3584" y="864" width="221.333" height="37.3337">
   <properties>
    <property name="collider" type="bool" value="true"/>
   </properties>
  </object>
  <object id="288" x="3904" y="1053.33" width="181.333" height="30.667">
   <properties>
    <property name="collider" type="bool" value="true"/>
   </properties>
  </object>
  <object id="289" x="3904" y="868" width="190.667" height="37.3337">
   <properties>
    <property name="collider" type="bool" value="true"/>
   </properties>
  </object>
  <object id="290" x="4086.67" y="905.333" width="16" height="29.3337">
   <properties>
    <property name="collider" type="bool" value="true"/>
   </properties>
  </object>
  <object id="291" x="4086.67" y="1029.33" width="12" height="58.667">
   <properties>
    <property name="collider" type="bool" value="true"/>
   </properties>
  </object>
  <object id="292" x="4100.67" y="1061.33" width="56" height="29.3337">
   <properties>
    <property name="collider" type="bool" value="true"/>
   </properties>
  </object>
  <object id="293" x="4260" y="937.333" width="344" height="22.667">
   <properties>
    <property name="collider" type="bool" value="true"/>
   </properties>
  </object>
  <object id="294" x="4160" y="876" width="446.667" height="24.0004">
   <properties>
    <property name="collider" type="bool" value="true"/>
   </properties>
  </object>
  <object id="295" x="4670.67" y="872" width="140" height="29.3337">
   <properties>
    <property name="collider" type="bool" value="true"/>
   </properties>
  </object>
  <object id="296" x="4668" y="584" width="138.667" height="29.3337">
   <properties>
    <property name="collider" type="bool" value="true"/>
   </properties>
  </object>
  <object id="297" x="4322.67" y="581.333" width="277.333" height="29.3337">
   <properties>
    <property name="collider" type="bool" value="true"/>
   </properties>
  </object>
  <object id="298" x="4165.33" y="581.333" width="56" height="29.3337">
   <properties>
    <property name="collider" type="bool" value="true"/>
   </properties>
  </object>
  <object id="299" x="4321.33" y="200" width="478.667" height="29.3337">
   <properties>
    <property name="collider" type="bool" value="true"/>
   </properties>
  </object>
  <object id="300" x="3908" y="584" width="174.667" height="29.3337">
   <properties>
    <property name="collider" type="bool" value="true"/>
   </properties>
  </object>
  <object id="301" x="3589.33" y="582.666" width="204" height="29.3337">
   <properties>
    <property name="collider" type="bool" value="true"/>
   </properties>
  </object>
  <object id="302" x="3330.67" y="582.666" width="182.667" height="29.3337">
   <properties>
    <property name="collider" type="bool" value="true"/>
   </properties>
  </object>
  <object id="303" x="2722.67" y="197.333" width="1082.67" height="29.3337">
   <properties>
    <property name="collider" type="bool" value="true"/>
   </properties>
  </object>
  <object id="304" x="2785.33" y="584" width="248" height="29.3337">
   <properties>
    <property name="collider" type="bool" value="true"/>
   </properties>
  </object>
  <object id="305" x="2681.33" y="105.333" width="16" height="29.3337">
   <properties>
    <property name="collider" type="bool" value="true"/>
   </properties>
  </object>
  <object id="306" x="2550.67" y="98.6665" width="16" height="29.3337">
   <properties>
    <property name="collider" type="bool" value="true"/>
   </properties>
  </object>
  <object id="307" x="1793.33" y="197.333" width="700.003" height="29.3337">
   <properties>
    <property name="collider" type="bool" value="true"/>
   </properties>
  </object>
  <object id="308" x="1021.33" y="585.333" width="1470.67" height="29.3337">
   <properties>
    <property name="collider" type="bool" value="true"/>
   </properties>
  </object>
  <object id="309" x="1020" y="196" width="578.67" height="29.3337">
   <properties>
    <property name="collider" type="bool" value="true"/>
   </properties>
  </object>
  <object id="310" x="-0.00166667" y="196" width="513.337" height="29.3337">
   <properties>
    <property name="collider" type="bool" value="true"/>
   </properties>
  </object>
  <object id="311" x="1.33167" y="584" width="512.003" height="29.3337">
   <properties>
    <property name="collider" type="bool" value="true"/>
   </properties>
  </object>
  <object id="312" x="1753.33" y="66.6665" width="16" height="29.3337">
   <properties>
    <property name="collider" type="bool" value="true"/>
   </properties>
  </object>
  <object id="313" x="1618.67" y="66.6665" width="16" height="29.3337">
   <properties>
    <property name="collider" type="bool" value="true"/>
   </properties>
  </object>
  <object id="314" x="2179.33" y="737.333" width="29.3333" height="29.3337">
   <properties>
    <property name="collider" type="bool" value="true"/>
   </properties>
  </object>
  <object id="315" x="2243.33" y="735.333" width="29.3333" height="29.3337">
   <properties>
    <property name="collider" type="bool" value="true"/>
   </properties>
  </object>
  <object id="316" x="2303.33" y="733.333" width="29.3333" height="29.3337">
   <properties>
    <property name="collider" type="bool" value="true"/>
   </properties>
  </object>
  <object id="317" x="2365.33" y="735.333" width="29.3333" height="29.3337">
   <properties>
    <property name="collider" type="bool" value="true"/>
   </properties>
  </object>
  <object id="318" x="2405.33" y="737.333" width="29.3333" height="29.3337">
   <properties>
    <property name="collider" type="bool" value="true"/>
   </properties>
  </object>
 </objectgroup>
</map>
