<?xml version="1.0" encoding="UTF-8"?>
<map version="1.10" tiledversion="1.11.2" orientation="orthogonal" renderorder="right-down" width="48" height="64" tilewidth="16" tileheight="16" infinite="0" nextlayerid="107" nextobjectid="5">
 <editorsettings>
  <export target="../bg_info.json" format="json"/>
 </editorsettings>
 <tileset firstgid="1" name="Ground_rocks" tilewidth="16" tileheight="16" tilecount="2262" columns="26">
  <image source="Ground_rocks.png" width="416" height="1392"/>
  <wangsets>
   <wangset name="road" type="corner" tile="-1">
    <wangcolor name="road" color="#ff0000" tile="-1" probability="1"/>
    <wangcolor name="dark_road" color="#00ff00" tile="-1" probability="1"/>
    <wangtile tileid="952" wangid="0,0,0,1,0,0,0,0"/>
    <wangtile tileid="953" wangid="0,0,0,1,0,1,0,0"/>
    <wangtile tileid="954" wangid="0,0,0,0,0,1,0,0"/>
    <wangtile tileid="956" wangid="0,0,0,1,0,1,0,0"/>
    <wangtile tileid="957" wangid="0,0,0,1,0,1,0,0"/>
    <wangtile tileid="978" wangid="0,1,0,1,0,0,0,0"/>
    <wangtile tileid="979" wangid="0,1,0,1,0,1,0,1"/>
    <wangtile tileid="980" wangid="0,0,0,0,0,1,0,1"/>
    <wangtile tileid="982" wangid="0,1,0,0,0,0,0,1"/>
    <wangtile tileid="983" wangid="0,1,0,0,0,0,0,1"/>
    <wangtile tileid="1004" wangid="0,1,0,0,0,0,0,0"/>
    <wangtile tileid="1005" wangid="0,1,0,0,0,0,0,1"/>
    <wangtile tileid="1006" wangid="0,0,0,0,0,0,0,1"/>
    <wangtile tileid="1011" wangid="0,1,0,0,0,1,0,1"/>
    <wangtile tileid="1012" wangid="0,1,0,1,0,0,0,1"/>
    <wangtile tileid="1034" wangid="0,1,0,1,0,0,0,0"/>
    <wangtile tileid="1035" wangid="0,0,0,0,0,1,0,1"/>
    <wangtile tileid="1037" wangid="0,0,0,1,0,1,0,1"/>
    <wangtile tileid="1038" wangid="0,1,0,1,0,1,0,0"/>
    <wangtile tileid="1468" wangid="0,0,0,2,0,0,0,0"/>
    <wangtile tileid="1469" wangid="0,0,0,2,0,2,0,0"/>
    <wangtile tileid="1470" wangid="0,0,0,0,0,2,0,0"/>
    <wangtile tileid="1471" wangid="0,2,0,0,0,2,0,2"/>
    <wangtile tileid="1472" wangid="0,2,0,2,0,0,0,2"/>
    <wangtile tileid="1477" wangid="0,2,0,0,0,2,0,2"/>
    <wangtile tileid="1478" wangid="0,2,0,2,0,0,0,2"/>
    <wangtile tileid="1494" wangid="0,2,0,2,0,0,0,0"/>
    <wangtile tileid="1495" wangid="0,2,0,2,0,2,0,2"/>
    <wangtile tileid="1496" wangid="0,0,0,0,0,2,0,2"/>
    <wangtile tileid="1497" wangid="0,0,0,0,0,2,0,2"/>
    <wangtile tileid="1498" wangid="0,2,0,2,0,0,0,0"/>
    <wangtile tileid="1500" wangid="0,0,0,2,0,2,0,0"/>
    <wangtile tileid="1501" wangid="0,0,0,2,0,2,0,0"/>
    <wangtile tileid="1503" wangid="0,0,0,0,0,2,0,2"/>
    <wangtile tileid="1504" wangid="0,2,0,2,0,0,0,0"/>
    <wangtile tileid="1520" wangid="0,2,0,0,0,0,0,0"/>
    <wangtile tileid="1521" wangid="0,2,0,0,0,0,0,2"/>
    <wangtile tileid="1522" wangid="0,0,0,0,0,0,0,2"/>
    <wangtile tileid="1523" wangid="0,0,0,2,0,2,0,2"/>
    <wangtile tileid="1524" wangid="0,2,0,2,0,2,0,0"/>
    <wangtile tileid="1526" wangid="0,2,0,0,0,0,0,2"/>
    <wangtile tileid="1527" wangid="0,2,0,0,0,0,0,2"/>
    <wangtile tileid="1529" wangid="0,0,0,0,0,0,0,2"/>
    <wangtile tileid="1530" wangid="0,2,0,0,0,0,0,0"/>
    <wangtile tileid="1531" wangid="0,0,0,2,0,0,0,0"/>
    <wangtile tileid="1532" wangid="0,0,0,0,0,2,0,0"/>
   </wangset>
  </wangsets>
 </tileset>
 <tileset firstgid="2263" name="water_coasts" tilewidth="16" tileheight="16" tilecount="1403" columns="23">
  <image source="water_coasts.png" width="368" height="976"/>
  <tile id="1">
   <animation>
    <frame tileid="1" duration="150"/>
    <frame tileid="116" duration="150"/>
    <frame tileid="231" duration="150"/>
    <frame tileid="346" duration="150"/>
    <frame tileid="461" duration="150"/>
    <frame tileid="576" duration="150"/>
   </animation>
  </tile>
  <tile id="2">
   <animation>
    <frame tileid="2" duration="150"/>
    <frame tileid="117" duration="150"/>
    <frame tileid="232" duration="150"/>
    <frame tileid="347" duration="150"/>
    <frame tileid="462" duration="150"/>
    <frame tileid="577" duration="150"/>
   </animation>
  </tile>
  <tile id="3">
   <animation>
    <frame tileid="3" duration="150"/>
    <frame tileid="118" duration="150"/>
    <frame tileid="233" duration="150"/>
    <frame tileid="348" duration="150"/>
    <frame tileid="463" duration="150"/>
    <frame tileid="578" duration="150"/>
   </animation>
  </tile>
  <tile id="11">
   <animation>
    <frame tileid="11" duration="150"/>
    <frame tileid="126" duration="150"/>
    <frame tileid="241" duration="150"/>
    <frame tileid="356" duration="150"/>
    <frame tileid="471" duration="150"/>
    <frame tileid="586" duration="150"/>
   </animation>
  </tile>
  <tile id="23">
   <animation>
    <frame tileid="23" duration="150"/>
    <frame tileid="138" duration="150"/>
    <frame tileid="253" duration="150"/>
    <frame tileid="368" duration="150"/>
    <frame tileid="483" duration="150"/>
    <frame tileid="598" duration="150"/>
   </animation>
  </tile>
  <tile id="24">
   <animation>
    <frame tileid="24" duration="150"/>
    <frame tileid="139" duration="150"/>
    <frame tileid="254" duration="150"/>
    <frame tileid="369" duration="150"/>
    <frame tileid="484" duration="150"/>
    <frame tileid="599" duration="150"/>
   </animation>
  </tile>
  <tile id="26">
   <animation>
    <frame tileid="26" duration="150"/>
    <frame tileid="141" duration="150"/>
    <frame tileid="256" duration="150"/>
    <frame tileid="371" duration="150"/>
    <frame tileid="486" duration="150"/>
    <frame tileid="601" duration="150"/>
   </animation>
  </tile>
  <tile id="28">
   <animation>
    <frame tileid="28" duration="150"/>
    <frame tileid="143" duration="150"/>
    <frame tileid="258" duration="150"/>
    <frame tileid="373" duration="150"/>
    <frame tileid="488" duration="150"/>
    <frame tileid="603" duration="150"/>
   </animation>
  </tile>
  <tile id="29">
   <animation>
    <frame tileid="29" duration="150"/>
    <frame tileid="144" duration="150"/>
    <frame tileid="259" duration="150"/>
    <frame tileid="374" duration="150"/>
    <frame tileid="489" duration="150"/>
    <frame tileid="604" duration="150"/>
   </animation>
  </tile>
  <tile id="30">
   <animation>
    <frame tileid="30" duration="150"/>
    <frame tileid="145" duration="150"/>
    <frame tileid="260" duration="150"/>
    <frame tileid="375" duration="150"/>
    <frame tileid="490" duration="150"/>
    <frame tileid="605" duration="150"/>
   </animation>
  </tile>
  <tile id="31">
   <animation>
    <frame tileid="31" duration="150"/>
    <frame tileid="146" duration="150"/>
    <frame tileid="261" duration="150"/>
    <frame tileid="376" duration="150"/>
    <frame tileid="491" duration="150"/>
    <frame tileid="606" duration="150"/>
   </animation>
  </tile>
  <tile id="33">
   <animation>
    <frame tileid="33" duration="150"/>
    <frame tileid="148" duration="150"/>
    <frame tileid="263" duration="150"/>
    <frame tileid="378" duration="150"/>
    <frame tileid="493" duration="150"/>
    <frame tileid="608" duration="150"/>
   </animation>
  </tile>
  <tile id="34">
   <animation>
    <frame tileid="34" duration="150"/>
    <frame tileid="149" duration="150"/>
    <frame tileid="264" duration="150"/>
    <frame tileid="379" duration="150"/>
    <frame tileid="494" duration="150"/>
    <frame tileid="609" duration="150"/>
   </animation>
  </tile>
  <tile id="36">
   <animation>
    <frame tileid="36" duration="150"/>
    <frame tileid="151" duration="150"/>
    <frame tileid="266" duration="150"/>
    <frame tileid="381" duration="150"/>
    <frame tileid="496" duration="150"/>
    <frame tileid="611" duration="150"/>
   </animation>
  </tile>
  <tile id="37">
   <animation>
    <frame tileid="37" duration="150"/>
    <frame tileid="152" duration="150"/>
    <frame tileid="267" duration="150"/>
    <frame tileid="382" duration="150"/>
    <frame tileid="497" duration="150"/>
    <frame tileid="612" duration="150"/>
   </animation>
  </tile>
  <tile id="39">
   <animation>
    <frame tileid="39" duration="150"/>
    <frame tileid="154" duration="150"/>
    <frame tileid="269" duration="150"/>
    <frame tileid="384" duration="150"/>
    <frame tileid="499" duration="150"/>
    <frame tileid="614" duration="150"/>
   </animation>
  </tile>
  <tile id="40">
   <animation>
    <frame tileid="40" duration="150"/>
    <frame tileid="155" duration="150"/>
    <frame tileid="270" duration="150"/>
    <frame tileid="385" duration="150"/>
    <frame tileid="500" duration="150"/>
    <frame tileid="615" duration="150"/>
   </animation>
  </tile>
  <tile id="41">
   <animation>
    <frame tileid="41" duration="150"/>
    <frame tileid="156" duration="150"/>
    <frame tileid="271" duration="150"/>
    <frame tileid="386" duration="150"/>
    <frame tileid="501" duration="150"/>
    <frame tileid="616" duration="150"/>
   </animation>
  </tile>
  <tile id="43">
   <animation>
    <frame tileid="43" duration="150"/>
    <frame tileid="273" duration="150"/>
    <frame tileid="503" duration="150"/>
    <frame tileid="733" duration="150"/>
    <frame tileid="986" duration="150"/>
    <frame tileid="1216" duration="150"/>
   </animation>
  </tile>
  <tile id="44">
   <animation>
    <frame tileid="44" duration="150"/>
    <frame tileid="274" duration="150"/>
    <frame tileid="504" duration="150"/>
    <frame tileid="734" duration="150"/>
    <frame tileid="987" duration="150"/>
    <frame tileid="1217" duration="150"/>
   </animation>
  </tile>
  <tile id="47">
   <animation>
    <frame tileid="47" duration="150"/>
    <frame tileid="162" duration="150"/>
    <frame tileid="277" duration="150"/>
    <frame tileid="392" duration="150"/>
    <frame tileid="507" duration="150"/>
    <frame tileid="622" duration="150"/>
   </animation>
  </tile>
  <tile id="49">
   <animation>
    <frame tileid="49" duration="150"/>
    <frame tileid="164" duration="150"/>
    <frame tileid="279" duration="150"/>
    <frame tileid="394" duration="150"/>
    <frame tileid="509" duration="150"/>
    <frame tileid="624" duration="150"/>
   </animation>
  </tile>
  <tile id="50">
   <animation>
    <frame tileid="50" duration="150"/>
    <frame tileid="165" duration="150"/>
    <frame tileid="280" duration="150"/>
    <frame tileid="395" duration="150"/>
    <frame tileid="510" duration="150"/>
    <frame tileid="625" duration="150"/>
   </animation>
  </tile>
  <tile id="51">
   <animation>
    <frame tileid="51" duration="150"/>
    <frame tileid="166" duration="150"/>
    <frame tileid="281" duration="150"/>
    <frame tileid="396" duration="150"/>
    <frame tileid="511" duration="150"/>
    <frame tileid="626" duration="150"/>
   </animation>
  </tile>
  <tile id="52">
   <animation>
    <frame tileid="52" duration="150"/>
    <frame tileid="167" duration="150"/>
    <frame tileid="282" duration="150"/>
    <frame tileid="397" duration="150"/>
    <frame tileid="512" duration="150"/>
    <frame tileid="627" duration="150"/>
   </animation>
  </tile>
  <tile id="53">
   <animation>
    <frame tileid="53" duration="150"/>
    <frame tileid="168" duration="150"/>
    <frame tileid="283" duration="150"/>
    <frame tileid="398" duration="150"/>
    <frame tileid="513" duration="150"/>
    <frame tileid="628" duration="150"/>
   </animation>
  </tile>
  <tile id="54">
   <animation>
    <frame tileid="54" duration="150"/>
    <frame tileid="169" duration="150"/>
    <frame tileid="284" duration="150"/>
    <frame tileid="399" duration="150"/>
    <frame tileid="514" duration="150"/>
    <frame tileid="629" duration="150"/>
   </animation>
  </tile>
  <tile id="56">
   <animation>
    <frame tileid="56" duration="150"/>
    <frame tileid="171" duration="150"/>
    <frame tileid="286" duration="150"/>
    <frame tileid="401" duration="150"/>
    <frame tileid="516" duration="150"/>
    <frame tileid="631" duration="150"/>
   </animation>
  </tile>
  <tile id="57">
   <animation>
    <frame tileid="57" duration="150"/>
    <frame tileid="172" duration="150"/>
    <frame tileid="287" duration="150"/>
    <frame tileid="402" duration="150"/>
    <frame tileid="517" duration="150"/>
    <frame tileid="632" duration="150"/>
   </animation>
  </tile>
  <tile id="59">
   <animation>
    <frame tileid="59" duration="150"/>
    <frame tileid="174" duration="150"/>
    <frame tileid="289" duration="150"/>
    <frame tileid="404" duration="150"/>
    <frame tileid="519" duration="150"/>
    <frame tileid="634" duration="150"/>
   </animation>
  </tile>
  <tile id="60">
   <animation>
    <frame tileid="60" duration="150"/>
    <frame tileid="175" duration="150"/>
    <frame tileid="290" duration="150"/>
    <frame tileid="405" duration="150"/>
    <frame tileid="520" duration="150"/>
    <frame tileid="635" duration="150"/>
   </animation>
  </tile>
  <tile id="62">
   <animation>
    <frame tileid="62" duration="150"/>
    <frame tileid="177" duration="150"/>
    <frame tileid="292" duration="150"/>
    <frame tileid="407" duration="150"/>
    <frame tileid="522" duration="150"/>
    <frame tileid="637" duration="150"/>
   </animation>
  </tile>
  <tile id="63">
   <animation>
    <frame tileid="63" duration="150"/>
    <frame tileid="178" duration="150"/>
    <frame tileid="293" duration="150"/>
    <frame tileid="408" duration="150"/>
    <frame tileid="523" duration="150"/>
    <frame tileid="638" duration="150"/>
   </animation>
  </tile>
  <tile id="64">
   <animation>
    <frame tileid="64" duration="150"/>
    <frame tileid="179" duration="150"/>
    <frame tileid="294" duration="150"/>
    <frame tileid="409" duration="150"/>
    <frame tileid="524" duration="150"/>
    <frame tileid="639" duration="150"/>
   </animation>
  </tile>
  <tile id="66">
   <animation>
    <frame tileid="66" duration="150"/>
    <frame tileid="296" duration="150"/>
    <frame tileid="526" duration="150"/>
    <frame tileid="756" duration="150"/>
    <frame tileid="1009" duration="150"/>
    <frame tileid="1239" duration="150"/>
   </animation>
  </tile>
  <tile id="67">
   <animation>
    <frame tileid="67" duration="150"/>
    <frame tileid="297" duration="150"/>
    <frame tileid="527" duration="150"/>
    <frame tileid="757" duration="150"/>
    <frame tileid="1010" duration="150"/>
    <frame tileid="1240" duration="150"/>
   </animation>
  </tile>
  <tile id="70">
   <animation>
    <frame tileid="70" duration="150"/>
    <frame tileid="185" duration="150"/>
    <frame tileid="300" duration="150"/>
    <frame tileid="415" duration="150"/>
    <frame tileid="530" duration="150"/>
    <frame tileid="645" duration="150"/>
   </animation>
  </tile>
  <tile id="71">
   <animation>
    <frame tileid="71" duration="150"/>
    <frame tileid="186" duration="150"/>
    <frame tileid="301" duration="150"/>
    <frame tileid="416" duration="150"/>
    <frame tileid="531" duration="150"/>
    <frame tileid="646" duration="150"/>
   </animation>
  </tile>
  <tile id="72">
   <animation>
    <frame tileid="72" duration="150"/>
    <frame tileid="187" duration="150"/>
    <frame tileid="302" duration="150"/>
    <frame tileid="417" duration="150"/>
    <frame tileid="532" duration="150"/>
    <frame tileid="647" duration="150"/>
   </animation>
  </tile>
  <tile id="74">
   <animation>
    <frame tileid="74" duration="150"/>
    <frame tileid="189" duration="150"/>
    <frame tileid="304" duration="150"/>
    <frame tileid="419" duration="150"/>
    <frame tileid="534" duration="150"/>
    <frame tileid="649" duration="150"/>
   </animation>
  </tile>
  <tile id="75">
   <animation>
    <frame tileid="75" duration="150"/>
    <frame tileid="190" duration="150"/>
    <frame tileid="305" duration="150"/>
    <frame tileid="420" duration="150"/>
    <frame tileid="535" duration="150"/>
    <frame tileid="650" duration="150"/>
   </animation>
  </tile>
  <tile id="76">
   <animation>
    <frame tileid="76" duration="150"/>
    <frame tileid="191" duration="150"/>
    <frame tileid="306" duration="150"/>
    <frame tileid="421" duration="150"/>
    <frame tileid="536" duration="150"/>
    <frame tileid="651" duration="150"/>
   </animation>
  </tile>
  <tile id="77">
   <animation>
    <frame tileid="77" duration="150"/>
    <frame tileid="192" duration="150"/>
    <frame tileid="307" duration="150"/>
    <frame tileid="422" duration="150"/>
    <frame tileid="537" duration="150"/>
    <frame tileid="652" duration="150"/>
   </animation>
  </tile>
  <tile id="79">
   <animation>
    <frame tileid="79" duration="150"/>
    <frame tileid="194" duration="150"/>
    <frame tileid="309" duration="150"/>
    <frame tileid="424" duration="150"/>
    <frame tileid="539" duration="150"/>
    <frame tileid="654" duration="150"/>
   </animation>
  </tile>
  <tile id="80">
   <animation>
    <frame tileid="80" duration="150"/>
    <frame tileid="195" duration="150"/>
    <frame tileid="310" duration="150"/>
    <frame tileid="425" duration="150"/>
    <frame tileid="540" duration="150"/>
    <frame tileid="655" duration="150"/>
   </animation>
  </tile>
  <tile id="82">
   <animation>
    <frame tileid="82" duration="150"/>
    <frame tileid="197" duration="150"/>
    <frame tileid="312" duration="150"/>
    <frame tileid="427" duration="150"/>
    <frame tileid="542" duration="150"/>
    <frame tileid="657" duration="150"/>
   </animation>
  </tile>
  <tile id="83">
   <animation>
    <frame tileid="83" duration="150"/>
    <frame tileid="198" duration="150"/>
    <frame tileid="313" duration="150"/>
    <frame tileid="428" duration="150"/>
    <frame tileid="543" duration="150"/>
    <frame tileid="658" duration="150"/>
   </animation>
  </tile>
  <tile id="85">
   <animation>
    <frame tileid="85" duration="150"/>
    <frame tileid="200" duration="150"/>
    <frame tileid="315" duration="150"/>
    <frame tileid="430" duration="150"/>
    <frame tileid="545" duration="150"/>
    <frame tileid="660" duration="150"/>
   </animation>
  </tile>
  <tile id="86">
   <animation>
    <frame tileid="86" duration="150"/>
    <frame tileid="201" duration="150"/>
    <frame tileid="316" duration="150"/>
    <frame tileid="431" duration="150"/>
    <frame tileid="546" duration="150"/>
    <frame tileid="661" duration="150"/>
   </animation>
  </tile>
  <tile id="87">
   <animation>
    <frame tileid="87" duration="150"/>
    <frame tileid="202" duration="150"/>
    <frame tileid="317" duration="150"/>
    <frame tileid="432" duration="150"/>
    <frame tileid="547" duration="150"/>
    <frame tileid="662" duration="150"/>
   </animation>
  </tile>
  <tile id="89">
   <animation>
    <frame tileid="89" duration="150"/>
    <frame tileid="319" duration="150"/>
    <frame tileid="549" duration="150"/>
    <frame tileid="779" duration="150"/>
    <frame tileid="1032" duration="150"/>
    <frame tileid="1262" duration="150"/>
   </animation>
  </tile>
  <tile id="90">
   <animation>
    <frame tileid="90" duration="150"/>
    <frame tileid="320" duration="150"/>
    <frame tileid="550" duration="150"/>
    <frame tileid="780" duration="150"/>
    <frame tileid="1033" duration="150"/>
    <frame tileid="1263" duration="150"/>
   </animation>
  </tile>
  <tile id="93">
   <animation>
    <frame tileid="93" duration="150"/>
    <frame tileid="208" duration="150"/>
    <frame tileid="323" duration="150"/>
    <frame tileid="438" duration="150"/>
    <frame tileid="553" duration="150"/>
    <frame tileid="668" duration="150"/>
   </animation>
  </tile>
  <tile id="94">
   <animation>
    <frame tileid="94" duration="150"/>
    <frame tileid="209" duration="150"/>
    <frame tileid="324" duration="150"/>
    <frame tileid="439" duration="150"/>
    <frame tileid="554" duration="150"/>
    <frame tileid="669" duration="150"/>
   </animation>
  </tile>
  <tile id="95">
   <animation>
    <frame tileid="95" duration="150"/>
    <frame tileid="210" duration="150"/>
    <frame tileid="325" duration="150"/>
    <frame tileid="440" duration="150"/>
    <frame tileid="555" duration="150"/>
    <frame tileid="670" duration="150"/>
   </animation>
  </tile>
  <tile id="97">
   <animation>
    <frame tileid="97" duration="150"/>
    <frame tileid="212" duration="150"/>
    <frame tileid="327" duration="150"/>
    <frame tileid="442" duration="150"/>
    <frame tileid="557" duration="150"/>
    <frame tileid="672" duration="150"/>
   </animation>
  </tile>
  <tile id="98">
   <animation>
    <frame tileid="98" duration="150"/>
    <frame tileid="213" duration="150"/>
    <frame tileid="328" duration="150"/>
    <frame tileid="443" duration="150"/>
    <frame tileid="558" duration="150"/>
    <frame tileid="673" duration="150"/>
   </animation>
  </tile>
  <tile id="99">
   <animation>
    <frame tileid="99" duration="150"/>
    <frame tileid="214" duration="150"/>
    <frame tileid="329" duration="150"/>
    <frame tileid="444" duration="150"/>
    <frame tileid="559" duration="150"/>
    <frame tileid="674" duration="150"/>
   </animation>
  </tile>
  <tile id="100">
   <animation>
    <frame tileid="100" duration="150"/>
    <frame tileid="215" duration="150"/>
    <frame tileid="330" duration="150"/>
    <frame tileid="445" duration="150"/>
    <frame tileid="560" duration="150"/>
    <frame tileid="675" duration="150"/>
   </animation>
  </tile>
  <tile id="101">
   <animation>
    <frame tileid="101" duration="150"/>
    <frame tileid="216" duration="150"/>
    <frame tileid="331" duration="150"/>
    <frame tileid="446" duration="150"/>
    <frame tileid="561" duration="150"/>
    <frame tileid="676" duration="150"/>
   </animation>
  </tile>
  <tile id="102">
   <animation>
    <frame tileid="102" duration="150"/>
    <frame tileid="217" duration="150"/>
    <frame tileid="332" duration="150"/>
    <frame tileid="447" duration="150"/>
    <frame tileid="562" duration="150"/>
    <frame tileid="677" duration="150"/>
   </animation>
  </tile>
  <tile id="103">
   <animation>
    <frame tileid="103" duration="150"/>
    <frame tileid="218" duration="150"/>
    <frame tileid="333" duration="150"/>
    <frame tileid="448" duration="150"/>
    <frame tileid="563" duration="150"/>
    <frame tileid="678" duration="150"/>
   </animation>
  </tile>
  <tile id="104">
   <animation>
    <frame tileid="104" duration="150"/>
    <frame tileid="219" duration="150"/>
    <frame tileid="334" duration="150"/>
    <frame tileid="449" duration="150"/>
    <frame tileid="564" duration="150"/>
    <frame tileid="679" duration="150"/>
   </animation>
  </tile>
  <tile id="112">
   <animation>
    <frame tileid="112" duration="150"/>
    <frame tileid="342" duration="150"/>
    <frame tileid="572" duration="150"/>
    <frame tileid="802" duration="150"/>
    <frame tileid="1055" duration="150"/>
    <frame tileid="1285" duration="150"/>
   </animation>
  </tile>
  <tile id="113">
   <animation>
    <frame tileid="113" duration="150"/>
    <frame tileid="343" duration="150"/>
    <frame tileid="573" duration="150"/>
    <frame tileid="803" duration="150"/>
    <frame tileid="1056" duration="150"/>
    <frame tileid="1286" duration="150"/>
   </animation>
  </tile>
  <tile id="135">
   <animation>
    <frame tileid="135" duration="150"/>
    <frame tileid="365" duration="150"/>
    <frame tileid="595" duration="150"/>
    <frame tileid="825" duration="150"/>
    <frame tileid="1078" duration="150"/>
    <frame tileid="1308" duration="150"/>
   </animation>
  </tile>
  <tile id="136">
   <animation>
    <frame tileid="136" duration="150"/>
    <frame tileid="366" duration="150"/>
    <frame tileid="596" duration="150"/>
    <frame tileid="826" duration="150"/>
    <frame tileid="1079" duration="150"/>
    <frame tileid="1309" duration="150"/>
   </animation>
  </tile>
  <tile id="180">
   <animation>
    <frame tileid="180" duration="150"/>
    <frame tileid="410" duration="150"/>
    <frame tileid="640" duration="150"/>
    <frame tileid="893" duration="150"/>
    <frame tileid="1123" duration="150"/>
    <frame tileid="1353" duration="150"/>
   </animation>
  </tile>
  <tile id="181">
   <animation>
    <frame tileid="181" duration="150"/>
    <frame tileid="411" duration="150"/>
    <frame tileid="641" duration="150"/>
    <frame tileid="894" duration="150"/>
    <frame tileid="1124" duration="150"/>
    <frame tileid="1354" duration="150"/>
   </animation>
  </tile>
  <tile id="182">
   <animation>
    <frame tileid="182" duration="150"/>
    <frame tileid="412" duration="150"/>
    <frame tileid="642" duration="150"/>
    <frame tileid="895" duration="150"/>
    <frame tileid="1125" duration="150"/>
    <frame tileid="1355" duration="150"/>
   </animation>
  </tile>
  <tile id="183">
   <animation>
    <frame tileid="183" duration="150"/>
    <frame tileid="413" duration="150"/>
    <frame tileid="643" duration="150"/>
    <frame tileid="896" duration="150"/>
    <frame tileid="1126" duration="150"/>
    <frame tileid="1356" duration="150"/>
   </animation>
  </tile>
  <tile id="203">
   <animation>
    <frame tileid="203" duration="150"/>
    <frame tileid="433" duration="150"/>
    <frame tileid="663" duration="150"/>
    <frame tileid="916" duration="150"/>
    <frame tileid="1146" duration="150"/>
    <frame tileid="1376" duration="150"/>
   </animation>
  </tile>
  <tile id="204">
   <animation>
    <frame tileid="204" duration="150"/>
    <frame tileid="434" duration="150"/>
    <frame tileid="664" duration="150"/>
    <frame tileid="917" duration="150"/>
    <frame tileid="1147" duration="150"/>
    <frame tileid="1377" duration="150"/>
   </animation>
  </tile>
  <tile id="205">
   <animation>
    <frame tileid="205" duration="150"/>
    <frame tileid="435" duration="150"/>
    <frame tileid="665" duration="150"/>
    <frame tileid="918" duration="150"/>
    <frame tileid="1148" duration="150"/>
    <frame tileid="1378" duration="150"/>
   </animation>
  </tile>
  <tile id="206">
   <animation>
    <frame tileid="206" duration="150"/>
    <frame tileid="436" duration="150"/>
    <frame tileid="666" duration="150"/>
    <frame tileid="919" duration="150"/>
    <frame tileid="1149" duration="150"/>
    <frame tileid="1379" duration="150"/>
   </animation>
  </tile>
  <tile id="226">
   <animation>
    <frame tileid="226" duration="150"/>
    <frame tileid="456" duration="150"/>
    <frame tileid="686" duration="150"/>
    <frame tileid="939" duration="150"/>
    <frame tileid="1169" duration="150"/>
    <frame tileid="1399" duration="150"/>
   </animation>
  </tile>
  <tile id="227">
   <animation>
    <frame tileid="227" duration="150"/>
    <frame tileid="457" duration="150"/>
    <frame tileid="687" duration="150"/>
    <frame tileid="940" duration="150"/>
    <frame tileid="1170" duration="150"/>
    <frame tileid="1400" duration="150"/>
   </animation>
  </tile>
  <tile id="228">
   <animation>
    <frame tileid="228" duration="150"/>
    <frame tileid="458" duration="150"/>
    <frame tileid="688" duration="150"/>
    <frame tileid="941" duration="150"/>
    <frame tileid="1171" duration="150"/>
    <frame tileid="1401" duration="150"/>
   </animation>
  </tile>
  <tile id="229">
   <animation>
    <frame tileid="229" duration="150"/>
    <frame tileid="459" duration="150"/>
    <frame tileid="689" duration="150"/>
    <frame tileid="942" duration="150"/>
    <frame tileid="1172" duration="150"/>
    <frame tileid="1402" duration="150"/>
   </animation>
  </tile>
  <tile id="691">
   <animation>
    <frame tileid="1" duration="150"/>
    <frame tileid="116" duration="150"/>
    <frame tileid="231" duration="150"/>
    <frame tileid="346" duration="150"/>
    <frame tileid="461" duration="150"/>
    <frame tileid="576" duration="150"/>
   </animation>
  </tile>
  <tile id="692">
   <animation>
    <frame tileid="2" duration="150"/>
    <frame tileid="117" duration="150"/>
    <frame tileid="232" duration="150"/>
    <frame tileid="347" duration="150"/>
    <frame tileid="462" duration="150"/>
    <frame tileid="577" duration="150"/>
   </animation>
  </tile>
  <tile id="693">
   <animation>
    <frame tileid="3" duration="150"/>
    <frame tileid="118" duration="150"/>
    <frame tileid="233" duration="150"/>
    <frame tileid="348" duration="150"/>
    <frame tileid="463" duration="150"/>
    <frame tileid="578" duration="150"/>
   </animation>
  </tile>
  <tile id="713">
   <animation>
    <frame tileid="23" duration="150"/>
    <frame tileid="138" duration="150"/>
    <frame tileid="253" duration="150"/>
    <frame tileid="368" duration="150"/>
    <frame tileid="483" duration="150"/>
    <frame tileid="598" duration="150"/>
   </animation>
  </tile>
  <tile id="714">
   <animation>
    <frame tileid="714" duration="150"/>
    <frame tileid="829" duration="150"/>
    <frame tileid="944" duration="150"/>
    <frame tileid="1059" duration="150"/>
    <frame tileid="1174" duration="150"/>
    <frame tileid="1289" duration="150"/>
   </animation>
  </tile>
  <tile id="716">
   <animation>
    <frame tileid="716" duration="150"/>
    <frame tileid="831" duration="150"/>
    <frame tileid="946" duration="150"/>
    <frame tileid="1061" duration="150"/>
    <frame tileid="1176" duration="150"/>
    <frame tileid="1291" duration="150"/>
   </animation>
  </tile>
  <tile id="718">
   <animation>
    <frame tileid="718" duration="150"/>
    <frame tileid="833" duration="150"/>
    <frame tileid="948" duration="150"/>
    <frame tileid="1063" duration="150"/>
    <frame tileid="1178" duration="150"/>
    <frame tileid="1293" duration="150"/>
   </animation>
  </tile>
  <tile id="719">
   <animation>
    <frame tileid="719" duration="150"/>
    <frame tileid="834" duration="150"/>
    <frame tileid="949" duration="150"/>
    <frame tileid="1064" duration="150"/>
    <frame tileid="1179" duration="150"/>
    <frame tileid="1294" duration="150"/>
   </animation>
  </tile>
  <tile id="720">
   <animation>
    <frame tileid="720" duration="150"/>
    <frame tileid="835" duration="150"/>
    <frame tileid="950" duration="150"/>
    <frame tileid="1065" duration="150"/>
    <frame tileid="1180" duration="150"/>
    <frame tileid="1295" duration="150"/>
   </animation>
  </tile>
  <tile id="721">
   <animation>
    <frame tileid="721" duration="150"/>
    <frame tileid="836" duration="150"/>
    <frame tileid="951" duration="150"/>
    <frame tileid="1066" duration="150"/>
    <frame tileid="1181" duration="150"/>
    <frame tileid="1296" duration="150"/>
   </animation>
  </tile>
  <tile id="723">
   <animation>
    <frame tileid="723" duration="150"/>
    <frame tileid="838" duration="150"/>
    <frame tileid="953" duration="150"/>
    <frame tileid="1068" duration="150"/>
    <frame tileid="1183" duration="150"/>
    <frame tileid="1298" duration="150"/>
   </animation>
  </tile>
  <tile id="724">
   <animation>
    <frame tileid="724" duration="150"/>
    <frame tileid="839" duration="150"/>
    <frame tileid="954" duration="150"/>
    <frame tileid="1069" duration="150"/>
    <frame tileid="1184" duration="150"/>
    <frame tileid="1299" duration="150"/>
   </animation>
  </tile>
  <tile id="726">
   <animation>
    <frame tileid="726" duration="150"/>
    <frame tileid="841" duration="150"/>
    <frame tileid="956" duration="150"/>
    <frame tileid="1071" duration="150"/>
    <frame tileid="1186" duration="150"/>
    <frame tileid="1301" duration="150"/>
   </animation>
  </tile>
  <tile id="727">
   <animation>
    <frame tileid="727" duration="150"/>
    <frame tileid="842" duration="150"/>
    <frame tileid="957" duration="150"/>
    <frame tileid="1072" duration="150"/>
    <frame tileid="1187" duration="150"/>
    <frame tileid="1302" duration="150"/>
   </animation>
  </tile>
  <tile id="729">
   <animation>
    <frame tileid="729" duration="150"/>
    <frame tileid="844" duration="150"/>
    <frame tileid="959" duration="150"/>
    <frame tileid="1074" duration="150"/>
    <frame tileid="1189" duration="150"/>
    <frame tileid="1304" duration="150"/>
   </animation>
  </tile>
  <tile id="730">
   <animation>
    <frame tileid="730" duration="150"/>
    <frame tileid="845" duration="150"/>
    <frame tileid="960" duration="150"/>
    <frame tileid="1075" duration="150"/>
    <frame tileid="1190" duration="150"/>
    <frame tileid="1305" duration="150"/>
   </animation>
  </tile>
  <tile id="731">
   <animation>
    <frame tileid="731" duration="150"/>
    <frame tileid="846" duration="150"/>
    <frame tileid="961" duration="150"/>
    <frame tileid="1076" duration="150"/>
    <frame tileid="1191" duration="150"/>
    <frame tileid="1306" duration="150"/>
   </animation>
  </tile>
  <tile id="737">
   <animation>
    <frame tileid="737" duration="150"/>
    <frame tileid="852" duration="150"/>
    <frame tileid="967" duration="150"/>
    <frame tileid="1082" duration="150"/>
    <frame tileid="1197" duration="150"/>
    <frame tileid="1312" duration="150"/>
   </animation>
  </tile>
  <tile id="739">
   <animation>
    <frame tileid="739" duration="150"/>
    <frame tileid="854" duration="150"/>
    <frame tileid="969" duration="150"/>
    <frame tileid="1084" duration="150"/>
    <frame tileid="1199" duration="150"/>
    <frame tileid="1314" duration="150"/>
   </animation>
  </tile>
  <tile id="740">
   <animation>
    <frame tileid="740" duration="150"/>
    <frame tileid="855" duration="150"/>
    <frame tileid="970" duration="150"/>
    <frame tileid="1085" duration="150"/>
    <frame tileid="1200" duration="150"/>
    <frame tileid="1315" duration="150"/>
   </animation>
  </tile>
  <tile id="741">
   <animation>
    <frame tileid="741" duration="150"/>
    <frame tileid="856" duration="150"/>
    <frame tileid="971" duration="150"/>
    <frame tileid="1086" duration="150"/>
    <frame tileid="1201" duration="150"/>
    <frame tileid="1316" duration="150"/>
   </animation>
  </tile>
  <tile id="742">
   <animation>
    <frame tileid="742" duration="150"/>
    <frame tileid="857" duration="150"/>
    <frame tileid="972" duration="150"/>
    <frame tileid="1087" duration="150"/>
    <frame tileid="1202" duration="150"/>
    <frame tileid="1317" duration="150"/>
   </animation>
  </tile>
  <tile id="743">
   <animation>
    <frame tileid="743" duration="150"/>
    <frame tileid="858" duration="150"/>
    <frame tileid="973" duration="150"/>
    <frame tileid="1088" duration="150"/>
    <frame tileid="1203" duration="150"/>
    <frame tileid="1318" duration="150"/>
   </animation>
  </tile>
  <tile id="744">
   <animation>
    <frame tileid="744" duration="150"/>
    <frame tileid="859" duration="150"/>
    <frame tileid="974" duration="150"/>
    <frame tileid="1089" duration="150"/>
    <frame tileid="1204" duration="150"/>
    <frame tileid="1319" duration="150"/>
   </animation>
  </tile>
  <tile id="746">
   <animation>
    <frame tileid="746" duration="150"/>
    <frame tileid="861" duration="150"/>
    <frame tileid="976" duration="150"/>
    <frame tileid="1091" duration="150"/>
    <frame tileid="1206" duration="150"/>
    <frame tileid="1321" duration="150"/>
   </animation>
  </tile>
  <tile id="747">
   <animation>
    <frame tileid="747" duration="150"/>
    <frame tileid="862" duration="150"/>
    <frame tileid="977" duration="150"/>
    <frame tileid="1092" duration="150"/>
    <frame tileid="1207" duration="150"/>
    <frame tileid="1322" duration="150"/>
   </animation>
  </tile>
  <tile id="749">
   <animation>
    <frame tileid="749" duration="150"/>
    <frame tileid="864" duration="150"/>
    <frame tileid="979" duration="150"/>
    <frame tileid="1094" duration="150"/>
    <frame tileid="1209" duration="150"/>
    <frame tileid="1324" duration="150"/>
   </animation>
  </tile>
  <tile id="750">
   <animation>
    <frame tileid="750" duration="150"/>
    <frame tileid="865" duration="150"/>
    <frame tileid="980" duration="150"/>
    <frame tileid="1095" duration="150"/>
    <frame tileid="1210" duration="150"/>
    <frame tileid="1325" duration="150"/>
   </animation>
  </tile>
  <tile id="752">
   <animation>
    <frame tileid="752" duration="150"/>
    <frame tileid="867" duration="150"/>
    <frame tileid="982" duration="150"/>
    <frame tileid="1097" duration="150"/>
    <frame tileid="1212" duration="150"/>
    <frame tileid="1327" duration="150"/>
   </animation>
  </tile>
  <tile id="753">
   <animation>
    <frame tileid="753" duration="150"/>
    <frame tileid="868" duration="150"/>
    <frame tileid="983" duration="150"/>
    <frame tileid="1098" duration="150"/>
    <frame tileid="1213" duration="150"/>
    <frame tileid="1328" duration="150"/>
   </animation>
  </tile>
  <tile id="754">
   <animation>
    <frame tileid="754" duration="150"/>
    <frame tileid="869" duration="150"/>
    <frame tileid="984" duration="150"/>
    <frame tileid="1099" duration="150"/>
    <frame tileid="1214" duration="150"/>
    <frame tileid="1329" duration="150"/>
   </animation>
  </tile>
  <tile id="760">
   <animation>
    <frame tileid="760" duration="150"/>
    <frame tileid="875" duration="150"/>
    <frame tileid="990" duration="150"/>
    <frame tileid="1105" duration="150"/>
    <frame tileid="1220" duration="150"/>
    <frame tileid="1335" duration="150"/>
   </animation>
  </tile>
  <tile id="761">
   <animation>
    <frame tileid="761" duration="150"/>
    <frame tileid="876" duration="150"/>
    <frame tileid="991" duration="150"/>
    <frame tileid="1106" duration="150"/>
    <frame tileid="1221" duration="150"/>
    <frame tileid="1336" duration="150"/>
   </animation>
  </tile>
  <tile id="762">
   <animation>
    <frame tileid="762" duration="150"/>
    <frame tileid="877" duration="150"/>
    <frame tileid="992" duration="150"/>
    <frame tileid="1107" duration="150"/>
    <frame tileid="1222" duration="150"/>
    <frame tileid="1337" duration="150"/>
   </animation>
  </tile>
  <tile id="764">
   <animation>
    <frame tileid="764" duration="150"/>
    <frame tileid="879" duration="150"/>
    <frame tileid="994" duration="150"/>
    <frame tileid="1109" duration="150"/>
    <frame tileid="1224" duration="150"/>
    <frame tileid="1339" duration="150"/>
   </animation>
  </tile>
  <tile id="765">
   <animation>
    <frame tileid="765" duration="150"/>
    <frame tileid="880" duration="150"/>
    <frame tileid="995" duration="150"/>
    <frame tileid="1110" duration="150"/>
    <frame tileid="1225" duration="150"/>
    <frame tileid="1340" duration="150"/>
   </animation>
  </tile>
  <tile id="766">
   <animation>
    <frame tileid="766" duration="150"/>
    <frame tileid="881" duration="150"/>
    <frame tileid="996" duration="150"/>
    <frame tileid="1111" duration="150"/>
    <frame tileid="1226" duration="150"/>
    <frame tileid="1341" duration="150"/>
   </animation>
  </tile>
  <tile id="767">
   <animation>
    <frame tileid="767" duration="150"/>
    <frame tileid="882" duration="150"/>
    <frame tileid="997" duration="150"/>
    <frame tileid="1112" duration="150"/>
    <frame tileid="1227" duration="150"/>
    <frame tileid="1342" duration="150"/>
   </animation>
  </tile>
  <tile id="769">
   <animation>
    <frame tileid="769" duration="150"/>
    <frame tileid="884" duration="150"/>
    <frame tileid="999" duration="150"/>
    <frame tileid="1114" duration="150"/>
    <frame tileid="1229" duration="150"/>
    <frame tileid="1344" duration="150"/>
   </animation>
  </tile>
  <tile id="770">
   <animation>
    <frame tileid="770" duration="150"/>
    <frame tileid="885" duration="150"/>
    <frame tileid="1000" duration="150"/>
    <frame tileid="1115" duration="150"/>
    <frame tileid="1230" duration="150"/>
    <frame tileid="1345" duration="150"/>
   </animation>
  </tile>
  <tile id="772">
   <animation>
    <frame tileid="772" duration="150"/>
    <frame tileid="887" duration="150"/>
    <frame tileid="1002" duration="150"/>
    <frame tileid="1117" duration="150"/>
    <frame tileid="1232" duration="150"/>
    <frame tileid="1347" duration="150"/>
   </animation>
  </tile>
  <tile id="773">
   <animation>
    <frame tileid="773" duration="150"/>
    <frame tileid="888" duration="150"/>
    <frame tileid="1003" duration="150"/>
    <frame tileid="1118" duration="150"/>
    <frame tileid="1233" duration="150"/>
    <frame tileid="1348" duration="150"/>
   </animation>
  </tile>
  <tile id="775">
   <animation>
    <frame tileid="775" duration="150"/>
    <frame tileid="890" duration="150"/>
    <frame tileid="1005" duration="150"/>
    <frame tileid="1120" duration="150"/>
    <frame tileid="1235" duration="150"/>
    <frame tileid="1350" duration="150"/>
   </animation>
  </tile>
  <tile id="776">
   <animation>
    <frame tileid="776" duration="150"/>
    <frame tileid="891" duration="150"/>
    <frame tileid="1006" duration="150"/>
    <frame tileid="1121" duration="150"/>
    <frame tileid="1236" duration="150"/>
    <frame tileid="1351" duration="150"/>
   </animation>
  </tile>
  <tile id="777">
   <animation>
    <frame tileid="777" duration="150"/>
    <frame tileid="892" duration="150"/>
    <frame tileid="1007" duration="150"/>
    <frame tileid="1122" duration="150"/>
    <frame tileid="1237" duration="150"/>
    <frame tileid="1352" duration="150"/>
   </animation>
  </tile>
  <tile id="783">
   <animation>
    <frame tileid="783" duration="150"/>
    <frame tileid="898" duration="150"/>
    <frame tileid="1013" duration="150"/>
    <frame tileid="1128" duration="150"/>
    <frame tileid="1243" duration="150"/>
    <frame tileid="1358" duration="150"/>
   </animation>
  </tile>
  <tile id="784">
   <animation>
    <frame tileid="784" duration="150"/>
    <frame tileid="899" duration="150"/>
    <frame tileid="1014" duration="150"/>
    <frame tileid="1129" duration="150"/>
    <frame tileid="1244" duration="150"/>
    <frame tileid="1359" duration="150"/>
   </animation>
  </tile>
  <tile id="785">
   <animation>
    <frame tileid="785" duration="150"/>
    <frame tileid="900" duration="150"/>
    <frame tileid="1015" duration="150"/>
    <frame tileid="1130" duration="150"/>
    <frame tileid="1245" duration="150"/>
    <frame tileid="1360" duration="150"/>
   </animation>
  </tile>
  <tile id="787">
   <animation>
    <frame tileid="787" duration="150"/>
    <frame tileid="902" duration="150"/>
    <frame tileid="1017" duration="150"/>
    <frame tileid="1132" duration="150"/>
    <frame tileid="1247" duration="150"/>
    <frame tileid="1362" duration="150"/>
   </animation>
  </tile>
  <tile id="788">
   <animation>
    <frame tileid="788" duration="150"/>
    <frame tileid="903" duration="150"/>
    <frame tileid="1018" duration="150"/>
    <frame tileid="1133" duration="150"/>
    <frame tileid="1248" duration="150"/>
    <frame tileid="1363" duration="150"/>
   </animation>
  </tile>
  <tile id="789">
   <animation>
    <frame tileid="789" duration="150"/>
    <frame tileid="904" duration="150"/>
    <frame tileid="1019" duration="150"/>
    <frame tileid="1134" duration="150"/>
    <frame tileid="1249" duration="150"/>
    <frame tileid="1364" duration="150"/>
   </animation>
  </tile>
  <tile id="790">
   <animation>
    <frame tileid="790" duration="150"/>
    <frame tileid="905" duration="150"/>
    <frame tileid="1020" duration="150"/>
    <frame tileid="1135" duration="150"/>
    <frame tileid="1250" duration="150"/>
    <frame tileid="1365" duration="150"/>
   </animation>
  </tile>
  <tile id="791">
   <animation>
    <frame tileid="791" duration="150"/>
    <frame tileid="906" duration="150"/>
    <frame tileid="1021" duration="150"/>
    <frame tileid="1136" duration="150"/>
    <frame tileid="1251" duration="150"/>
    <frame tileid="1366" duration="150"/>
   </animation>
  </tile>
  <tile id="792">
   <animation>
    <frame tileid="792" duration="150"/>
    <frame tileid="907" duration="150"/>
    <frame tileid="1022" duration="150"/>
    <frame tileid="1137" duration="150"/>
    <frame tileid="1252" duration="150"/>
    <frame tileid="1367" duration="150"/>
   </animation>
  </tile>
  <tile id="793">
   <animation>
    <frame tileid="793" duration="150"/>
    <frame tileid="908" duration="150"/>
    <frame tileid="1023" duration="150"/>
    <frame tileid="1138" duration="150"/>
    <frame tileid="1253" duration="150"/>
    <frame tileid="1368" duration="150"/>
   </animation>
  </tile>
  <tile id="794">
   <animation>
    <frame tileid="794" duration="150"/>
    <frame tileid="909" duration="150"/>
    <frame tileid="1024" duration="150"/>
    <frame tileid="1139" duration="150"/>
    <frame tileid="1254" duration="150"/>
    <frame tileid="1369" duration="150"/>
   </animation>
  </tile>
 </tileset>
 <tileset firstgid="3666" name="Objects" tilewidth="16" tileheight="16" tilecount="3600" columns="75">
  <image source="Objects.png" width="1200" height="768"/>
 </tileset>
 <tileset firstgid="7266" name="Objects_animated" tilewidth="16" tileheight="16" tilecount="1716" columns="44">
  <image source="Objects_animated.png" width="704" height="624"/>
  <tile id="136">
   <animation>
    <frame tileid="136" duration="150"/>
    <frame tileid="143" duration="150"/>
    <frame tileid="150" duration="150"/>
    <frame tileid="157" duration="150"/>
    <frame tileid="164" duration="150"/>
    <frame tileid="171" duration="150"/>
   </animation>
  </tile>
  <tile id="180">
   <animation>
    <frame tileid="180" duration="150"/>
    <frame tileid="187" duration="150"/>
    <frame tileid="194" duration="150"/>
    <frame tileid="201" duration="150"/>
    <frame tileid="208" duration="150"/>
    <frame tileid="215" duration="150"/>
   </animation>
  </tile>
  <tile id="181">
   <animation>
    <frame tileid="181" duration="150"/>
    <frame tileid="188" duration="150"/>
    <frame tileid="195" duration="150"/>
    <frame tileid="202" duration="150"/>
    <frame tileid="209" duration="150"/>
    <frame tileid="216" duration="150"/>
   </animation>
  </tile>
  <tile id="222">
   <animation>
    <frame tileid="222" duration="150"/>
    <frame tileid="229" duration="150"/>
    <frame tileid="236" duration="150"/>
    <frame tileid="243" duration="150"/>
    <frame tileid="250" duration="150"/>
    <frame tileid="257" duration="150"/>
   </animation>
  </tile>
  <tile id="223">
   <animation>
    <frame tileid="223" duration="150"/>
    <frame tileid="230" duration="150"/>
    <frame tileid="237" duration="150"/>
    <frame tileid="244" duration="150"/>
    <frame tileid="251" duration="150"/>
    <frame tileid="258" duration="150"/>
   </animation>
  </tile>
  <tile id="224">
   <animation>
    <frame tileid="224" duration="150"/>
    <frame tileid="231" duration="150"/>
    <frame tileid="238" duration="150"/>
    <frame tileid="245" duration="150"/>
    <frame tileid="252" duration="150"/>
    <frame tileid="259" duration="150"/>
   </animation>
  </tile>
  <tile id="225">
   <animation>
    <frame tileid="225" duration="150"/>
    <frame tileid="232" duration="150"/>
    <frame tileid="239" duration="150"/>
    <frame tileid="246" duration="150"/>
    <frame tileid="253" duration="150"/>
    <frame tileid="260" duration="150"/>
   </animation>
  </tile>
  <tile id="226">
   <animation>
    <frame tileid="226" duration="150"/>
    <frame tileid="233" duration="150"/>
    <frame tileid="240" duration="150"/>
    <frame tileid="247" duration="150"/>
    <frame tileid="254" duration="150"/>
    <frame tileid="261" duration="150"/>
   </animation>
  </tile>
  <tile id="266">
   <animation>
    <frame tileid="266" duration="150"/>
    <frame tileid="273" duration="150"/>
    <frame tileid="280" duration="150"/>
    <frame tileid="287" duration="150"/>
    <frame tileid="294" duration="150"/>
    <frame tileid="301" duration="150"/>
   </animation>
  </tile>
  <tile id="267">
   <animation>
    <frame tileid="267" duration="150"/>
    <frame tileid="274" duration="150"/>
    <frame tileid="281" duration="150"/>
    <frame tileid="288" duration="150"/>
    <frame tileid="295" duration="150"/>
    <frame tileid="302" duration="150"/>
   </animation>
  </tile>
  <tile id="268">
   <animation>
    <frame tileid="268" duration="150"/>
    <frame tileid="275" duration="150"/>
    <frame tileid="282" duration="150"/>
    <frame tileid="289" duration="150"/>
    <frame tileid="296" duration="150"/>
    <frame tileid="303" duration="150"/>
   </animation>
  </tile>
  <tile id="269">
   <animation>
    <frame tileid="269" duration="150"/>
    <frame tileid="276" duration="150"/>
    <frame tileid="283" duration="150"/>
    <frame tileid="290" duration="150"/>
    <frame tileid="297" duration="150"/>
    <frame tileid="304" duration="150"/>
   </animation>
  </tile>
  <tile id="270">
   <animation>
    <frame tileid="270" duration="150"/>
    <frame tileid="277" duration="150"/>
    <frame tileid="284" duration="150"/>
    <frame tileid="291" duration="150"/>
    <frame tileid="298" duration="150"/>
    <frame tileid="305" duration="150"/>
   </animation>
  </tile>
  <tile id="310">
   <animation>
    <frame tileid="310" duration="150"/>
    <frame tileid="317" duration="150"/>
    <frame tileid="324" duration="150"/>
    <frame tileid="331" duration="150"/>
    <frame tileid="338" duration="150"/>
    <frame tileid="345" duration="150"/>
   </animation>
  </tile>
  <tile id="311">
   <animation>
    <frame tileid="311" duration="150"/>
    <frame tileid="318" duration="150"/>
    <frame tileid="325" duration="150"/>
    <frame tileid="332" duration="150"/>
    <frame tileid="339" duration="150"/>
    <frame tileid="346" duration="150"/>
   </animation>
  </tile>
  <tile id="312">
   <animation>
    <frame tileid="312" duration="150"/>
    <frame tileid="319" duration="150"/>
    <frame tileid="326" duration="150"/>
    <frame tileid="333" duration="150"/>
    <frame tileid="340" duration="150"/>
    <frame tileid="347" duration="150"/>
   </animation>
  </tile>
  <tile id="355">
   <animation>
    <frame tileid="355" duration="150"/>
    <frame tileid="362" duration="150"/>
    <frame tileid="369" duration="150"/>
    <frame tileid="376" duration="150"/>
    <frame tileid="383" duration="150"/>
    <frame tileid="390" duration="150"/>
   </animation>
  </tile>
  <tile id="442">
   <animation>
    <frame tileid="442" duration="150"/>
    <frame tileid="449" duration="150"/>
    <frame tileid="456" duration="150"/>
    <frame tileid="463" duration="150"/>
    <frame tileid="470" duration="150"/>
    <frame tileid="477" duration="150"/>
   </animation>
  </tile>
  <tile id="485">
   <animation>
    <frame tileid="485" duration="150"/>
    <frame tileid="492" duration="150"/>
    <frame tileid="499" duration="150"/>
    <frame tileid="506" duration="150"/>
    <frame tileid="513" duration="150"/>
    <frame tileid="520" duration="150"/>
   </animation>
  </tile>
  <tile id="486">
   <animation>
    <frame tileid="486" duration="150"/>
    <frame tileid="493" duration="150"/>
    <frame tileid="500" duration="150"/>
    <frame tileid="507" duration="150"/>
    <frame tileid="514" duration="150"/>
    <frame tileid="521" duration="150"/>
   </animation>
  </tile>
  <tile id="487">
   <animation>
    <frame tileid="487" duration="150"/>
    <frame tileid="494" duration="150"/>
    <frame tileid="501" duration="150"/>
    <frame tileid="508" duration="150"/>
    <frame tileid="515" duration="150"/>
    <frame tileid="522" duration="150"/>
   </animation>
  </tile>
  <tile id="488">
   <animation>
    <frame tileid="488" duration="150"/>
    <frame tileid="495" duration="150"/>
    <frame tileid="502" duration="150"/>
    <frame tileid="509" duration="150"/>
    <frame tileid="516" duration="150"/>
    <frame tileid="523" duration="150"/>
   </animation>
  </tile>
  <tile id="529">
   <animation>
    <frame tileid="529" duration="150"/>
    <frame tileid="536" duration="150"/>
    <frame tileid="543" duration="150"/>
    <frame tileid="550" duration="150"/>
    <frame tileid="557" duration="150"/>
    <frame tileid="564" duration="150"/>
   </animation>
  </tile>
  <tile id="530">
   <animation>
    <frame tileid="530" duration="150"/>
    <frame tileid="537" duration="150"/>
    <frame tileid="544" duration="150"/>
    <frame tileid="551" duration="150"/>
    <frame tileid="558" duration="150"/>
    <frame tileid="565" duration="150"/>
   </animation>
  </tile>
  <tile id="531">
   <animation>
    <frame tileid="531" duration="150"/>
    <frame tileid="538" duration="150"/>
    <frame tileid="545" duration="150"/>
    <frame tileid="552" duration="150"/>
    <frame tileid="559" duration="150"/>
    <frame tileid="566" duration="150"/>
   </animation>
  </tile>
  <tile id="532">
   <animation>
    <frame tileid="532" duration="150"/>
    <frame tileid="539" duration="150"/>
    <frame tileid="546" duration="150"/>
    <frame tileid="553" duration="150"/>
    <frame tileid="560" duration="150"/>
    <frame tileid="567" duration="150"/>
   </animation>
  </tile>
  <tile id="573">
   <animation>
    <frame tileid="573" duration="150"/>
    <frame tileid="580" duration="150"/>
    <frame tileid="587" duration="150"/>
    <frame tileid="594" duration="150"/>
    <frame tileid="601" duration="150"/>
    <frame tileid="608" duration="150"/>
   </animation>
  </tile>
  <tile id="574">
   <animation>
    <frame tileid="574" duration="150"/>
    <frame tileid="581" duration="150"/>
    <frame tileid="588" duration="150"/>
    <frame tileid="595" duration="150"/>
    <frame tileid="602" duration="150"/>
    <frame tileid="609" duration="150"/>
   </animation>
  </tile>
  <tile id="575">
   <animation>
    <frame tileid="575" duration="150"/>
    <frame tileid="582" duration="150"/>
    <frame tileid="589" duration="150"/>
    <frame tileid="596" duration="150"/>
    <frame tileid="603" duration="150"/>
    <frame tileid="610" duration="150"/>
   </animation>
  </tile>
  <tile id="576">
   <animation>
    <frame tileid="576" duration="150"/>
    <frame tileid="583" duration="150"/>
    <frame tileid="590" duration="150"/>
    <frame tileid="597" duration="150"/>
    <frame tileid="604" duration="150"/>
    <frame tileid="611" duration="150"/>
   </animation>
  </tile>
  <tile id="617">
   <animation>
    <frame tileid="617" duration="150"/>
    <frame tileid="624" duration="150"/>
    <frame tileid="631" duration="150"/>
    <frame tileid="638" duration="150"/>
    <frame tileid="645" duration="150"/>
    <frame tileid="652" duration="150"/>
   </animation>
  </tile>
  <tile id="618">
   <animation>
    <frame tileid="618" duration="150"/>
    <frame tileid="625" duration="150"/>
    <frame tileid="632" duration="150"/>
    <frame tileid="639" duration="150"/>
    <frame tileid="646" duration="150"/>
    <frame tileid="653" duration="150"/>
   </animation>
  </tile>
  <tile id="619">
   <animation>
    <frame tileid="619" duration="150"/>
    <frame tileid="626" duration="150"/>
    <frame tileid="633" duration="150"/>
    <frame tileid="640" duration="150"/>
    <frame tileid="647" duration="150"/>
    <frame tileid="654" duration="150"/>
   </animation>
  </tile>
  <tile id="620">
   <animation>
    <frame tileid="620" duration="150"/>
    <frame tileid="627" duration="150"/>
    <frame tileid="634" duration="150"/>
    <frame tileid="641" duration="150"/>
    <frame tileid="648" duration="150"/>
    <frame tileid="655" duration="150"/>
   </animation>
  </tile>
  <tile id="705">
   <animation>
    <frame tileid="705" duration="150"/>
    <frame tileid="712" duration="150"/>
    <frame tileid="719" duration="150"/>
    <frame tileid="726" duration="150"/>
    <frame tileid="733" duration="150"/>
    <frame tileid="740" duration="150"/>
   </animation>
  </tile>
  <tile id="706">
   <animation>
    <frame tileid="706" duration="150"/>
    <frame tileid="713" duration="150"/>
    <frame tileid="720" duration="150"/>
    <frame tileid="727" duration="150"/>
    <frame tileid="734" duration="150"/>
    <frame tileid="741" duration="150"/>
   </animation>
  </tile>
  <tile id="707">
   <animation>
    <frame tileid="707" duration="150"/>
    <frame tileid="714" duration="150"/>
    <frame tileid="721" duration="150"/>
    <frame tileid="728" duration="150"/>
    <frame tileid="735" duration="150"/>
    <frame tileid="742" duration="150"/>
   </animation>
  </tile>
  <tile id="749">
   <animation>
    <frame tileid="749" duration="150"/>
    <frame tileid="756" duration="150"/>
    <frame tileid="763" duration="150"/>
    <frame tileid="770" duration="150"/>
    <frame tileid="777" duration="150"/>
    <frame tileid="784" duration="150"/>
   </animation>
  </tile>
  <tile id="750">
   <animation>
    <frame tileid="750" duration="150"/>
    <frame tileid="757" duration="150"/>
    <frame tileid="764" duration="150"/>
    <frame tileid="771" duration="150"/>
    <frame tileid="778" duration="150"/>
    <frame tileid="785" duration="150"/>
   </animation>
  </tile>
  <tile id="751">
   <animation>
    <frame tileid="751" duration="150"/>
    <frame tileid="758" duration="150"/>
    <frame tileid="765" duration="150"/>
    <frame tileid="772" duration="150"/>
    <frame tileid="779" duration="150"/>
    <frame tileid="786" duration="150"/>
   </animation>
  </tile>
  <tile id="794">
   <animation>
    <frame tileid="794" duration="150"/>
    <frame tileid="801" duration="150"/>
    <frame tileid="808" duration="150"/>
    <frame tileid="815" duration="150"/>
    <frame tileid="822" duration="150"/>
    <frame tileid="829" duration="150"/>
   </animation>
  </tile>
  <tile id="795">
   <animation>
    <frame tileid="795" duration="150"/>
    <frame tileid="802" duration="150"/>
    <frame tileid="809" duration="150"/>
    <frame tileid="816" duration="150"/>
    <frame tileid="823" duration="150"/>
    <frame tileid="830" duration="150"/>
   </animation>
  </tile>
  <tile id="882">
   <animation>
    <frame tileid="882" duration="150"/>
    <frame tileid="889" duration="150"/>
    <frame tileid="896" duration="150"/>
    <frame tileid="903" duration="150"/>
    <frame tileid="910" duration="150"/>
    <frame tileid="917" duration="150"/>
   </animation>
  </tile>
  <tile id="883">
   <animation>
    <frame tileid="883" duration="150"/>
    <frame tileid="890" duration="150"/>
    <frame tileid="897" duration="150"/>
    <frame tileid="904" duration="150"/>
    <frame tileid="911" duration="150"/>
    <frame tileid="918" duration="150"/>
   </animation>
  </tile>
  <tile id="884">
   <animation>
    <frame tileid="884" duration="150"/>
    <frame tileid="891" duration="150"/>
    <frame tileid="898" duration="150"/>
    <frame tileid="905" duration="150"/>
    <frame tileid="912" duration="150"/>
    <frame tileid="919" duration="150"/>
   </animation>
  </tile>
  <tile id="885">
   <animation>
    <frame tileid="885" duration="150"/>
    <frame tileid="892" duration="150"/>
    <frame tileid="899" duration="150"/>
    <frame tileid="906" duration="150"/>
    <frame tileid="913" duration="150"/>
    <frame tileid="920" duration="150"/>
   </animation>
  </tile>
  <tile id="926">
   <animation>
    <frame tileid="926" duration="150"/>
    <frame tileid="933" duration="150"/>
    <frame tileid="940" duration="150"/>
    <frame tileid="947" duration="150"/>
    <frame tileid="954" duration="150"/>
    <frame tileid="961" duration="150"/>
   </animation>
  </tile>
  <tile id="927">
   <animation>
    <frame tileid="927" duration="150"/>
    <frame tileid="934" duration="150"/>
    <frame tileid="941" duration="150"/>
    <frame tileid="948" duration="150"/>
    <frame tileid="955" duration="150"/>
    <frame tileid="962" duration="150"/>
   </animation>
  </tile>
  <tile id="928">
   <animation>
    <frame tileid="928" duration="150"/>
    <frame tileid="935" duration="150"/>
    <frame tileid="942" duration="150"/>
    <frame tileid="949" duration="150"/>
    <frame tileid="956" duration="150"/>
    <frame tileid="963" duration="150"/>
   </animation>
  </tile>
  <tile id="929">
   <animation>
    <frame tileid="929" duration="150"/>
    <frame tileid="936" duration="150"/>
    <frame tileid="943" duration="150"/>
    <frame tileid="950" duration="150"/>
    <frame tileid="957" duration="150"/>
    <frame tileid="964" duration="150"/>
   </animation>
  </tile>
  <tile id="970">
   <animation>
    <frame tileid="970" duration="150"/>
    <frame tileid="977" duration="150"/>
    <frame tileid="984" duration="150"/>
    <frame tileid="991" duration="150"/>
    <frame tileid="998" duration="150"/>
    <frame tileid="1005" duration="150"/>
   </animation>
  </tile>
  <tile id="971">
   <animation>
    <frame tileid="971" duration="150"/>
    <frame tileid="978" duration="150"/>
    <frame tileid="985" duration="150"/>
    <frame tileid="992" duration="150"/>
    <frame tileid="999" duration="150"/>
    <frame tileid="1006" duration="150"/>
   </animation>
  </tile>
  <tile id="972">
   <animation>
    <frame tileid="972" duration="150"/>
    <frame tileid="979" duration="150"/>
    <frame tileid="986" duration="150"/>
    <frame tileid="993" duration="150"/>
    <frame tileid="1000" duration="150"/>
    <frame tileid="1007" duration="150"/>
   </animation>
  </tile>
  <tile id="973">
   <animation>
    <frame tileid="973" duration="150"/>
    <frame tileid="980" duration="150"/>
    <frame tileid="987" duration="150"/>
    <frame tileid="994" duration="150"/>
    <frame tileid="1001" duration="150"/>
    <frame tileid="1008" duration="150"/>
   </animation>
  </tile>
  <tile id="1015">
   <animation>
    <frame tileid="1015" duration="150"/>
    <frame tileid="1022" duration="150"/>
    <frame tileid="1029" duration="150"/>
    <frame tileid="1036" duration="150"/>
    <frame tileid="1043" duration="150"/>
    <frame tileid="1050" duration="150"/>
   </animation>
  </tile>
  <tile id="1016">
   <animation>
    <frame tileid="1016" duration="150"/>
    <frame tileid="1023" duration="150"/>
    <frame tileid="1030" duration="150"/>
    <frame tileid="1037" duration="150"/>
    <frame tileid="1044" duration="150"/>
    <frame tileid="1051" duration="150"/>
   </animation>
  </tile>
  <tile id="1147">
   <animation>
    <frame tileid="1147" duration="150"/>
    <frame tileid="1154" duration="150"/>
    <frame tileid="1161" duration="150"/>
    <frame tileid="1168" duration="150"/>
    <frame tileid="1175" duration="150"/>
    <frame tileid="1182" duration="150"/>
   </animation>
  </tile>
  <tile id="1191">
   <animation>
    <frame tileid="1191" duration="150"/>
    <frame tileid="1198" duration="150"/>
    <frame tileid="1205" duration="150"/>
    <frame tileid="1212" duration="150"/>
    <frame tileid="1219" duration="150"/>
    <frame tileid="1226" duration="150"/>
   </animation>
  </tile>
  <tile id="1234">
   <animation>
    <frame tileid="1234" duration="150"/>
    <frame tileid="1241" duration="150"/>
    <frame tileid="1248" duration="150"/>
    <frame tileid="1255" duration="150"/>
    <frame tileid="1262" duration="150"/>
    <frame tileid="1269" duration="150"/>
   </animation>
  </tile>
  <tile id="1235">
   <animation>
    <frame tileid="1235" duration="150"/>
    <frame tileid="1242" duration="150"/>
    <frame tileid="1249" duration="150"/>
    <frame tileid="1256" duration="150"/>
    <frame tileid="1263" duration="150"/>
    <frame tileid="1270" duration="150"/>
   </animation>
  </tile>
  <tile id="1236">
   <animation>
    <frame tileid="1236" duration="150"/>
    <frame tileid="1243" duration="150"/>
    <frame tileid="1250" duration="150"/>
    <frame tileid="1257" duration="150"/>
    <frame tileid="1264" duration="150"/>
    <frame tileid="1271" duration="150"/>
   </animation>
  </tile>
  <tile id="1278">
   <animation>
    <frame tileid="1278" duration="150"/>
    <frame tileid="1285" duration="150"/>
    <frame tileid="1292" duration="150"/>
    <frame tileid="1299" duration="150"/>
    <frame tileid="1306" duration="150"/>
    <frame tileid="1313" duration="150"/>
   </animation>
  </tile>
  <tile id="1279">
   <animation>
    <frame tileid="1279" duration="150"/>
    <frame tileid="1286" duration="150"/>
    <frame tileid="1293" duration="150"/>
    <frame tileid="1300" duration="150"/>
    <frame tileid="1307" duration="150"/>
    <frame tileid="1314" duration="150"/>
   </animation>
  </tile>
  <tile id="1280">
   <animation>
    <frame tileid="1280" duration="150"/>
    <frame tileid="1287" duration="150"/>
    <frame tileid="1294" duration="150"/>
    <frame tileid="1301" duration="150"/>
    <frame tileid="1308" duration="150"/>
    <frame tileid="1315" duration="150"/>
   </animation>
  </tile>
  <tile id="1323">
   <animation>
    <frame tileid="1323" duration="150"/>
    <frame tileid="1330" duration="150"/>
    <frame tileid="1337" duration="150"/>
    <frame tileid="1344" duration="150"/>
    <frame tileid="1351" duration="150"/>
    <frame tileid="1358" duration="150"/>
   </animation>
  </tile>
  <tile id="1324">
   <animation>
    <frame tileid="1324" duration="150"/>
    <frame tileid="1331" duration="150"/>
    <frame tileid="1338" duration="150"/>
    <frame tileid="1345" duration="150"/>
    <frame tileid="1352" duration="150"/>
    <frame tileid="1359" duration="150"/>
   </animation>
  </tile>
  <tile id="1367">
   <animation>
    <frame tileid="1367" duration="150"/>
    <frame tileid="1374" duration="150"/>
    <frame tileid="1381" duration="150"/>
    <frame tileid="1388" duration="150"/>
    <frame tileid="1395" duration="150"/>
    <frame tileid="1402" duration="150"/>
   </animation>
  </tile>
  <tile id="1498">
   <animation>
    <frame tileid="1498" duration="150"/>
    <frame tileid="1505" duration="150"/>
    <frame tileid="1512" duration="150"/>
    <frame tileid="1519" duration="150"/>
    <frame tileid="1526" duration="150"/>
    <frame tileid="1533" duration="150"/>
   </animation>
  </tile>
  <tile id="1542">
   <animation>
    <frame tileid="1542" duration="150"/>
    <frame tileid="1549" duration="150"/>
    <frame tileid="1556" duration="150"/>
    <frame tileid="1563" duration="150"/>
    <frame tileid="1570" duration="150"/>
    <frame tileid="1577" duration="150"/>
   </animation>
  </tile>
  <tile id="1586">
   <animation>
    <frame tileid="1586" duration="150"/>
    <frame tileid="1593" duration="150"/>
    <frame tileid="1600" duration="150"/>
    <frame tileid="1607" duration="150"/>
    <frame tileid="1614" duration="150"/>
    <frame tileid="1621" duration="150"/>
   </animation>
  </tile>
 </tileset>
 <tileset firstgid="8982" name="Objects_animated2" tilewidth="16" tileheight="16" tilecount="1716" columns="44">
  <image source="Objects_animated2.png" width="704" height="624"/>
  <tile id="136">
   <animation>
    <frame tileid="136" duration="150"/>
    <frame tileid="143" duration="150"/>
    <frame tileid="150" duration="150"/>
    <frame tileid="157" duration="150"/>
    <frame tileid="164" duration="150"/>
    <frame tileid="171" duration="150"/>
   </animation>
  </tile>
  <tile id="180">
   <animation>
    <frame tileid="180" duration="150"/>
    <frame tileid="187" duration="150"/>
    <frame tileid="194" duration="150"/>
    <frame tileid="201" duration="150"/>
    <frame tileid="208" duration="150"/>
    <frame tileid="215" duration="150"/>
   </animation>
  </tile>
  <tile id="181">
   <animation>
    <frame tileid="181" duration="150"/>
    <frame tileid="188" duration="150"/>
    <frame tileid="195" duration="150"/>
    <frame tileid="202" duration="150"/>
    <frame tileid="209" duration="150"/>
    <frame tileid="216" duration="150"/>
   </animation>
  </tile>
  <tile id="222">
   <animation>
    <frame tileid="222" duration="150"/>
    <frame tileid="229" duration="150"/>
    <frame tileid="236" duration="150"/>
    <frame tileid="243" duration="150"/>
    <frame tileid="250" duration="150"/>
    <frame tileid="257" duration="150"/>
   </animation>
  </tile>
  <tile id="223">
   <animation>
    <frame tileid="223" duration="150"/>
    <frame tileid="230" duration="150"/>
    <frame tileid="237" duration="150"/>
    <frame tileid="244" duration="150"/>
    <frame tileid="251" duration="150"/>
    <frame tileid="258" duration="150"/>
   </animation>
  </tile>
  <tile id="224">
   <animation>
    <frame tileid="224" duration="150"/>
    <frame tileid="231" duration="150"/>
    <frame tileid="238" duration="150"/>
    <frame tileid="245" duration="150"/>
    <frame tileid="252" duration="150"/>
    <frame tileid="259" duration="150"/>
   </animation>
  </tile>
  <tile id="225">
   <animation>
    <frame tileid="225" duration="150"/>
    <frame tileid="232" duration="150"/>
    <frame tileid="239" duration="150"/>
    <frame tileid="246" duration="150"/>
    <frame tileid="253" duration="150"/>
    <frame tileid="260" duration="150"/>
   </animation>
  </tile>
  <tile id="226">
   <animation>
    <frame tileid="226" duration="150"/>
    <frame tileid="233" duration="150"/>
    <frame tileid="240" duration="150"/>
    <frame tileid="247" duration="150"/>
    <frame tileid="254" duration="150"/>
    <frame tileid="261" duration="150"/>
   </animation>
  </tile>
  <tile id="266">
   <animation>
    <frame tileid="266" duration="150"/>
    <frame tileid="273" duration="150"/>
    <frame tileid="280" duration="150"/>
    <frame tileid="287" duration="150"/>
    <frame tileid="294" duration="150"/>
    <frame tileid="301" duration="150"/>
   </animation>
  </tile>
  <tile id="267">
   <animation>
    <frame tileid="267" duration="150"/>
    <frame tileid="274" duration="150"/>
    <frame tileid="281" duration="150"/>
    <frame tileid="288" duration="150"/>
    <frame tileid="295" duration="150"/>
    <frame tileid="302" duration="150"/>
   </animation>
  </tile>
  <tile id="268">
   <animation>
    <frame tileid="268" duration="150"/>
    <frame tileid="275" duration="150"/>
    <frame tileid="282" duration="150"/>
    <frame tileid="289" duration="150"/>
    <frame tileid="296" duration="150"/>
    <frame tileid="303" duration="150"/>
   </animation>
  </tile>
  <tile id="269">
   <animation>
    <frame tileid="269" duration="150"/>
    <frame tileid="276" duration="150"/>
    <frame tileid="283" duration="150"/>
    <frame tileid="290" duration="150"/>
    <frame tileid="297" duration="150"/>
    <frame tileid="304" duration="150"/>
   </animation>
  </tile>
  <tile id="270">
   <animation>
    <frame tileid="270" duration="150"/>
    <frame tileid="277" duration="150"/>
    <frame tileid="284" duration="150"/>
    <frame tileid="291" duration="150"/>
    <frame tileid="298" duration="150"/>
    <frame tileid="305" duration="150"/>
   </animation>
  </tile>
  <tile id="310">
   <animation>
    <frame tileid="310" duration="150"/>
    <frame tileid="317" duration="150"/>
    <frame tileid="324" duration="150"/>
    <frame tileid="331" duration="150"/>
    <frame tileid="338" duration="150"/>
    <frame tileid="345" duration="150"/>
   </animation>
  </tile>
  <tile id="311">
   <animation>
    <frame tileid="311" duration="150"/>
    <frame tileid="318" duration="150"/>
    <frame tileid="325" duration="150"/>
    <frame tileid="332" duration="150"/>
    <frame tileid="339" duration="150"/>
    <frame tileid="346" duration="150"/>
   </animation>
  </tile>
  <tile id="312">
   <animation>
    <frame tileid="312" duration="150"/>
    <frame tileid="319" duration="150"/>
    <frame tileid="326" duration="150"/>
    <frame tileid="333" duration="150"/>
    <frame tileid="340" duration="150"/>
    <frame tileid="347" duration="150"/>
   </animation>
  </tile>
  <tile id="355">
   <animation>
    <frame tileid="355" duration="150"/>
    <frame tileid="362" duration="150"/>
    <frame tileid="369" duration="150"/>
    <frame tileid="376" duration="150"/>
    <frame tileid="383" duration="150"/>
    <frame tileid="390" duration="150"/>
   </animation>
  </tile>
  <tile id="442">
   <animation>
    <frame tileid="442" duration="150"/>
    <frame tileid="449" duration="150"/>
    <frame tileid="456" duration="150"/>
    <frame tileid="463" duration="150"/>
    <frame tileid="470" duration="150"/>
    <frame tileid="477" duration="150"/>
   </animation>
  </tile>
  <tile id="485">
   <animation>
    <frame tileid="485" duration="150"/>
    <frame tileid="492" duration="150"/>
    <frame tileid="499" duration="150"/>
    <frame tileid="506" duration="150"/>
    <frame tileid="513" duration="150"/>
    <frame tileid="520" duration="150"/>
   </animation>
  </tile>
  <tile id="486">
   <animation>
    <frame tileid="486" duration="150"/>
    <frame tileid="493" duration="150"/>
    <frame tileid="500" duration="150"/>
    <frame tileid="507" duration="150"/>
    <frame tileid="514" duration="150"/>
    <frame tileid="521" duration="150"/>
   </animation>
  </tile>
  <tile id="487">
   <animation>
    <frame tileid="487" duration="150"/>
    <frame tileid="494" duration="150"/>
    <frame tileid="501" duration="150"/>
    <frame tileid="508" duration="150"/>
    <frame tileid="515" duration="150"/>
    <frame tileid="522" duration="150"/>
   </animation>
  </tile>
  <tile id="488">
   <animation>
    <frame tileid="488" duration="150"/>
    <frame tileid="495" duration="150"/>
    <frame tileid="502" duration="150"/>
    <frame tileid="509" duration="150"/>
    <frame tileid="516" duration="150"/>
    <frame tileid="523" duration="150"/>
   </animation>
  </tile>
  <tile id="529">
   <animation>
    <frame tileid="529" duration="150"/>
    <frame tileid="536" duration="150"/>
    <frame tileid="543" duration="150"/>
    <frame tileid="550" duration="150"/>
    <frame tileid="557" duration="150"/>
    <frame tileid="564" duration="150"/>
   </animation>
  </tile>
  <tile id="530">
   <animation>
    <frame tileid="530" duration="150"/>
    <frame tileid="537" duration="150"/>
    <frame tileid="544" duration="150"/>
    <frame tileid="551" duration="150"/>
    <frame tileid="558" duration="150"/>
    <frame tileid="565" duration="150"/>
   </animation>
  </tile>
  <tile id="531">
   <animation>
    <frame tileid="531" duration="150"/>
    <frame tileid="538" duration="150"/>
    <frame tileid="545" duration="150"/>
    <frame tileid="552" duration="150"/>
    <frame tileid="559" duration="150"/>
    <frame tileid="566" duration="150"/>
   </animation>
  </tile>
  <tile id="532">
   <animation>
    <frame tileid="532" duration="150"/>
    <frame tileid="539" duration="150"/>
    <frame tileid="546" duration="150"/>
    <frame tileid="553" duration="150"/>
    <frame tileid="560" duration="150"/>
    <frame tileid="567" duration="150"/>
   </animation>
  </tile>
  <tile id="573">
   <animation>
    <frame tileid="573" duration="150"/>
    <frame tileid="580" duration="150"/>
    <frame tileid="587" duration="150"/>
    <frame tileid="594" duration="150"/>
    <frame tileid="601" duration="150"/>
    <frame tileid="608" duration="150"/>
   </animation>
  </tile>
  <tile id="574">
   <animation>
    <frame tileid="574" duration="150"/>
    <frame tileid="581" duration="150"/>
    <frame tileid="588" duration="150"/>
    <frame tileid="595" duration="150"/>
    <frame tileid="602" duration="150"/>
    <frame tileid="609" duration="150"/>
   </animation>
  </tile>
  <tile id="575">
   <animation>
    <frame tileid="575" duration="150"/>
    <frame tileid="582" duration="150"/>
    <frame tileid="589" duration="150"/>
    <frame tileid="596" duration="150"/>
    <frame tileid="603" duration="150"/>
    <frame tileid="610" duration="150"/>
   </animation>
  </tile>
  <tile id="576">
   <animation>
    <frame tileid="576" duration="150"/>
    <frame tileid="583" duration="150"/>
    <frame tileid="590" duration="150"/>
    <frame tileid="597" duration="150"/>
    <frame tileid="604" duration="150"/>
    <frame tileid="611" duration="150"/>
   </animation>
  </tile>
  <tile id="617">
   <animation>
    <frame tileid="617" duration="150"/>
    <frame tileid="624" duration="150"/>
    <frame tileid="631" duration="150"/>
    <frame tileid="638" duration="150"/>
    <frame tileid="645" duration="150"/>
    <frame tileid="652" duration="150"/>
   </animation>
  </tile>
  <tile id="618">
   <animation>
    <frame tileid="618" duration="150"/>
    <frame tileid="625" duration="150"/>
    <frame tileid="632" duration="150"/>
    <frame tileid="639" duration="150"/>
    <frame tileid="646" duration="150"/>
    <frame tileid="653" duration="150"/>
   </animation>
  </tile>
  <tile id="619">
   <animation>
    <frame tileid="619" duration="150"/>
    <frame tileid="626" duration="150"/>
    <frame tileid="633" duration="150"/>
    <frame tileid="640" duration="150"/>
    <frame tileid="647" duration="150"/>
    <frame tileid="654" duration="150"/>
   </animation>
  </tile>
  <tile id="620">
   <animation>
    <frame tileid="620" duration="150"/>
    <frame tileid="627" duration="150"/>
    <frame tileid="634" duration="150"/>
    <frame tileid="641" duration="150"/>
    <frame tileid="648" duration="150"/>
    <frame tileid="655" duration="150"/>
   </animation>
  </tile>
  <tile id="705">
   <animation>
    <frame tileid="705" duration="150"/>
    <frame tileid="712" duration="150"/>
    <frame tileid="719" duration="150"/>
    <frame tileid="726" duration="150"/>
    <frame tileid="733" duration="150"/>
    <frame tileid="740" duration="150"/>
   </animation>
  </tile>
  <tile id="706">
   <animation>
    <frame tileid="706" duration="150"/>
    <frame tileid="713" duration="150"/>
    <frame tileid="720" duration="150"/>
    <frame tileid="727" duration="150"/>
    <frame tileid="734" duration="150"/>
    <frame tileid="741" duration="150"/>
   </animation>
  </tile>
  <tile id="707">
   <animation>
    <frame tileid="707" duration="150"/>
    <frame tileid="714" duration="150"/>
    <frame tileid="721" duration="150"/>
    <frame tileid="728" duration="150"/>
    <frame tileid="735" duration="150"/>
    <frame tileid="742" duration="150"/>
   </animation>
  </tile>
  <tile id="749">
   <animation>
    <frame tileid="749" duration="150"/>
    <frame tileid="756" duration="150"/>
    <frame tileid="763" duration="150"/>
    <frame tileid="770" duration="150"/>
    <frame tileid="777" duration="150"/>
    <frame tileid="784" duration="150"/>
   </animation>
  </tile>
  <tile id="750">
   <animation>
    <frame tileid="750" duration="150"/>
    <frame tileid="757" duration="150"/>
    <frame tileid="764" duration="150"/>
    <frame tileid="771" duration="150"/>
    <frame tileid="778" duration="150"/>
    <frame tileid="785" duration="150"/>
   </animation>
  </tile>
  <tile id="751">
   <animation>
    <frame tileid="751" duration="150"/>
    <frame tileid="758" duration="150"/>
    <frame tileid="765" duration="150"/>
    <frame tileid="772" duration="150"/>
    <frame tileid="779" duration="150"/>
    <frame tileid="786" duration="150"/>
   </animation>
  </tile>
  <tile id="794">
   <animation>
    <frame tileid="794" duration="150"/>
    <frame tileid="801" duration="150"/>
    <frame tileid="808" duration="150"/>
    <frame tileid="815" duration="150"/>
    <frame tileid="822" duration="150"/>
    <frame tileid="829" duration="150"/>
   </animation>
  </tile>
  <tile id="795">
   <animation>
    <frame tileid="795" duration="150"/>
    <frame tileid="802" duration="150"/>
    <frame tileid="809" duration="150"/>
    <frame tileid="816" duration="150"/>
    <frame tileid="823" duration="150"/>
    <frame tileid="830" duration="150"/>
   </animation>
  </tile>
  <tile id="882">
   <animation>
    <frame tileid="882" duration="150"/>
    <frame tileid="889" duration="150"/>
    <frame tileid="896" duration="150"/>
    <frame tileid="903" duration="150"/>
    <frame tileid="910" duration="150"/>
    <frame tileid="917" duration="150"/>
   </animation>
  </tile>
  <tile id="883">
   <animation>
    <frame tileid="883" duration="150"/>
    <frame tileid="890" duration="150"/>
    <frame tileid="897" duration="150"/>
    <frame tileid="904" duration="150"/>
    <frame tileid="911" duration="150"/>
    <frame tileid="918" duration="150"/>
   </animation>
  </tile>
  <tile id="884">
   <animation>
    <frame tileid="884" duration="150"/>
    <frame tileid="891" duration="150"/>
    <frame tileid="898" duration="150"/>
    <frame tileid="905" duration="150"/>
    <frame tileid="912" duration="150"/>
    <frame tileid="919" duration="150"/>
   </animation>
  </tile>
  <tile id="885">
   <animation>
    <frame tileid="885" duration="150"/>
    <frame tileid="892" duration="150"/>
    <frame tileid="899" duration="150"/>
    <frame tileid="906" duration="150"/>
    <frame tileid="913" duration="150"/>
    <frame tileid="920" duration="150"/>
   </animation>
  </tile>
  <tile id="926">
   <animation>
    <frame tileid="926" duration="150"/>
    <frame tileid="933" duration="150"/>
    <frame tileid="940" duration="150"/>
    <frame tileid="947" duration="150"/>
    <frame tileid="954" duration="150"/>
    <frame tileid="961" duration="150"/>
   </animation>
  </tile>
  <tile id="927">
   <animation>
    <frame tileid="927" duration="150"/>
    <frame tileid="934" duration="150"/>
    <frame tileid="941" duration="150"/>
    <frame tileid="948" duration="150"/>
    <frame tileid="955" duration="150"/>
    <frame tileid="962" duration="150"/>
   </animation>
  </tile>
  <tile id="928">
   <animation>
    <frame tileid="928" duration="150"/>
    <frame tileid="935" duration="150"/>
    <frame tileid="942" duration="150"/>
    <frame tileid="949" duration="150"/>
    <frame tileid="956" duration="150"/>
    <frame tileid="963" duration="150"/>
   </animation>
  </tile>
  <tile id="929">
   <animation>
    <frame tileid="929" duration="150"/>
    <frame tileid="936" duration="150"/>
    <frame tileid="943" duration="150"/>
    <frame tileid="950" duration="150"/>
    <frame tileid="957" duration="150"/>
    <frame tileid="964" duration="150"/>
   </animation>
  </tile>
  <tile id="970">
   <animation>
    <frame tileid="970" duration="150"/>
    <frame tileid="977" duration="150"/>
    <frame tileid="984" duration="150"/>
    <frame tileid="991" duration="150"/>
    <frame tileid="998" duration="150"/>
    <frame tileid="1005" duration="150"/>
   </animation>
  </tile>
  <tile id="971">
   <animation>
    <frame tileid="971" duration="150"/>
    <frame tileid="978" duration="150"/>
    <frame tileid="985" duration="150"/>
    <frame tileid="992" duration="150"/>
    <frame tileid="999" duration="150"/>
    <frame tileid="1006" duration="150"/>
   </animation>
  </tile>
  <tile id="972">
   <animation>
    <frame tileid="972" duration="150"/>
    <frame tileid="979" duration="150"/>
    <frame tileid="986" duration="150"/>
    <frame tileid="993" duration="150"/>
    <frame tileid="1000" duration="150"/>
    <frame tileid="1007" duration="150"/>
   </animation>
  </tile>
  <tile id="973">
   <animation>
    <frame tileid="973" duration="150"/>
    <frame tileid="980" duration="150"/>
    <frame tileid="987" duration="150"/>
    <frame tileid="994" duration="150"/>
    <frame tileid="1001" duration="150"/>
    <frame tileid="1008" duration="150"/>
   </animation>
  </tile>
  <tile id="1015">
   <animation>
    <frame tileid="1015" duration="150"/>
    <frame tileid="1022" duration="150"/>
    <frame tileid="1029" duration="150"/>
    <frame tileid="1036" duration="150"/>
    <frame tileid="1043" duration="150"/>
    <frame tileid="1050" duration="150"/>
   </animation>
  </tile>
  <tile id="1016">
   <animation>
    <frame tileid="1016" duration="150"/>
    <frame tileid="1023" duration="150"/>
    <frame tileid="1030" duration="150"/>
    <frame tileid="1037" duration="150"/>
    <frame tileid="1044" duration="150"/>
    <frame tileid="1051" duration="150"/>
   </animation>
  </tile>
  <tile id="1147">
   <animation>
    <frame tileid="1147" duration="150"/>
    <frame tileid="1154" duration="150"/>
    <frame tileid="1161" duration="150"/>
    <frame tileid="1168" duration="150"/>
    <frame tileid="1175" duration="150"/>
    <frame tileid="1182" duration="150"/>
   </animation>
  </tile>
  <tile id="1191">
   <animation>
    <frame tileid="1191" duration="150"/>
    <frame tileid="1198" duration="150"/>
    <frame tileid="1205" duration="150"/>
    <frame tileid="1212" duration="150"/>
    <frame tileid="1219" duration="150"/>
    <frame tileid="1226" duration="150"/>
   </animation>
  </tile>
  <tile id="1234">
   <animation>
    <frame tileid="1234" duration="150"/>
    <frame tileid="1241" duration="150"/>
    <frame tileid="1248" duration="150"/>
    <frame tileid="1255" duration="150"/>
    <frame tileid="1262" duration="150"/>
    <frame tileid="1269" duration="150"/>
   </animation>
  </tile>
  <tile id="1235">
   <animation>
    <frame tileid="1235" duration="150"/>
    <frame tileid="1242" duration="150"/>
    <frame tileid="1249" duration="150"/>
    <frame tileid="1256" duration="150"/>
    <frame tileid="1263" duration="150"/>
    <frame tileid="1270" duration="150"/>
   </animation>
  </tile>
  <tile id="1236">
   <animation>
    <frame tileid="1236" duration="150"/>
    <frame tileid="1243" duration="150"/>
    <frame tileid="1250" duration="150"/>
    <frame tileid="1257" duration="150"/>
    <frame tileid="1264" duration="150"/>
    <frame tileid="1271" duration="150"/>
   </animation>
  </tile>
  <tile id="1278">
   <animation>
    <frame tileid="1278" duration="150"/>
    <frame tileid="1285" duration="150"/>
    <frame tileid="1292" duration="150"/>
    <frame tileid="1299" duration="150"/>
    <frame tileid="1306" duration="150"/>
    <frame tileid="1313" duration="150"/>
   </animation>
  </tile>
  <tile id="1279">
   <animation>
    <frame tileid="1279" duration="150"/>
    <frame tileid="1286" duration="150"/>
    <frame tileid="1293" duration="150"/>
    <frame tileid="1300" duration="150"/>
    <frame tileid="1307" duration="150"/>
    <frame tileid="1314" duration="150"/>
   </animation>
  </tile>
  <tile id="1280">
   <animation>
    <frame tileid="1280" duration="150"/>
    <frame tileid="1287" duration="150"/>
    <frame tileid="1294" duration="150"/>
    <frame tileid="1301" duration="150"/>
    <frame tileid="1308" duration="150"/>
    <frame tileid="1315" duration="150"/>
   </animation>
  </tile>
  <tile id="1323">
   <animation>
    <frame tileid="1323" duration="150"/>
    <frame tileid="1330" duration="150"/>
    <frame tileid="1337" duration="150"/>
    <frame tileid="1344" duration="150"/>
    <frame tileid="1351" duration="150"/>
    <frame tileid="1358" duration="150"/>
   </animation>
  </tile>
  <tile id="1324">
   <animation>
    <frame tileid="1324" duration="150"/>
    <frame tileid="1331" duration="150"/>
    <frame tileid="1338" duration="150"/>
    <frame tileid="1345" duration="150"/>
    <frame tileid="1352" duration="150"/>
    <frame tileid="1359" duration="150"/>
   </animation>
  </tile>
  <tile id="1367">
   <animation>
    <frame tileid="1367" duration="150"/>
    <frame tileid="1374" duration="150"/>
    <frame tileid="1381" duration="150"/>
    <frame tileid="1388" duration="150"/>
    <frame tileid="1395" duration="150"/>
    <frame tileid="1402" duration="150"/>
   </animation>
  </tile>
  <tile id="1498">
   <animation>
    <frame tileid="1498" duration="150"/>
    <frame tileid="1505" duration="150"/>
    <frame tileid="1512" duration="150"/>
    <frame tileid="1519" duration="150"/>
    <frame tileid="1526" duration="150"/>
    <frame tileid="1533" duration="150"/>
   </animation>
  </tile>
  <tile id="1542">
   <animation>
    <frame tileid="1542" duration="150"/>
    <frame tileid="1549" duration="150"/>
    <frame tileid="1556" duration="150"/>
    <frame tileid="1563" duration="150"/>
    <frame tileid="1570" duration="150"/>
    <frame tileid="1577" duration="150"/>
   </animation>
  </tile>
  <tile id="1586">
   <animation>
    <frame tileid="1586" duration="150"/>
    <frame tileid="1593" duration="150"/>
    <frame tileid="1600" duration="150"/>
    <frame tileid="1607" duration="150"/>
    <frame tileid="1614" duration="150"/>
    <frame tileid="1621" duration="150"/>
   </animation>
  </tile>
 </tileset>
 <tileset firstgid="10698" name="Objects_animated3" tilewidth="16" tileheight="16" tilecount="1716" columns="44">
  <image source="Objects_animated3.png" width="704" height="624"/>
  <tile id="136">
   <animation>
    <frame tileid="136" duration="150"/>
    <frame tileid="143" duration="150"/>
    <frame tileid="150" duration="150"/>
    <frame tileid="157" duration="150"/>
    <frame tileid="164" duration="150"/>
    <frame tileid="171" duration="150"/>
   </animation>
  </tile>
  <tile id="180">
   <animation>
    <frame tileid="180" duration="150"/>
    <frame tileid="187" duration="150"/>
    <frame tileid="194" duration="150"/>
    <frame tileid="201" duration="150"/>
    <frame tileid="208" duration="150"/>
    <frame tileid="215" duration="150"/>
   </animation>
  </tile>
  <tile id="181">
   <animation>
    <frame tileid="181" duration="150"/>
    <frame tileid="188" duration="150"/>
    <frame tileid="195" duration="150"/>
    <frame tileid="202" duration="150"/>
    <frame tileid="209" duration="150"/>
    <frame tileid="216" duration="150"/>
   </animation>
  </tile>
  <tile id="222">
   <animation>
    <frame tileid="222" duration="150"/>
    <frame tileid="229" duration="150"/>
    <frame tileid="236" duration="150"/>
    <frame tileid="243" duration="150"/>
    <frame tileid="250" duration="150"/>
    <frame tileid="257" duration="150"/>
   </animation>
  </tile>
  <tile id="223">
   <animation>
    <frame tileid="223" duration="150"/>
    <frame tileid="230" duration="150"/>
    <frame tileid="237" duration="150"/>
    <frame tileid="244" duration="150"/>
    <frame tileid="251" duration="150"/>
    <frame tileid="258" duration="150"/>
   </animation>
  </tile>
  <tile id="224">
   <animation>
    <frame tileid="224" duration="150"/>
    <frame tileid="231" duration="150"/>
    <frame tileid="238" duration="150"/>
    <frame tileid="245" duration="150"/>
    <frame tileid="252" duration="150"/>
    <frame tileid="259" duration="150"/>
   </animation>
  </tile>
  <tile id="225">
   <animation>
    <frame tileid="225" duration="150"/>
    <frame tileid="232" duration="150"/>
    <frame tileid="239" duration="150"/>
    <frame tileid="246" duration="150"/>
    <frame tileid="253" duration="150"/>
    <frame tileid="260" duration="150"/>
   </animation>
  </tile>
  <tile id="226">
   <animation>
    <frame tileid="226" duration="150"/>
    <frame tileid="233" duration="150"/>
    <frame tileid="240" duration="150"/>
    <frame tileid="247" duration="150"/>
    <frame tileid="254" duration="150"/>
    <frame tileid="261" duration="150"/>
   </animation>
  </tile>
  <tile id="266">
   <animation>
    <frame tileid="266" duration="150"/>
    <frame tileid="273" duration="150"/>
    <frame tileid="280" duration="150"/>
    <frame tileid="287" duration="150"/>
    <frame tileid="294" duration="150"/>
    <frame tileid="301" duration="150"/>
   </animation>
  </tile>
  <tile id="267">
   <animation>
    <frame tileid="267" duration="150"/>
    <frame tileid="274" duration="150"/>
    <frame tileid="281" duration="150"/>
    <frame tileid="288" duration="150"/>
    <frame tileid="295" duration="150"/>
    <frame tileid="302" duration="150"/>
   </animation>
  </tile>
  <tile id="268">
   <animation>
    <frame tileid="268" duration="150"/>
    <frame tileid="275" duration="150"/>
    <frame tileid="282" duration="150"/>
    <frame tileid="289" duration="150"/>
    <frame tileid="296" duration="150"/>
    <frame tileid="303" duration="150"/>
   </animation>
  </tile>
  <tile id="269">
   <animation>
    <frame tileid="269" duration="150"/>
    <frame tileid="276" duration="150"/>
    <frame tileid="283" duration="150"/>
    <frame tileid="290" duration="150"/>
    <frame tileid="297" duration="150"/>
    <frame tileid="304" duration="150"/>
   </animation>
  </tile>
  <tile id="270">
   <animation>
    <frame tileid="270" duration="150"/>
    <frame tileid="277" duration="150"/>
    <frame tileid="284" duration="150"/>
    <frame tileid="291" duration="150"/>
    <frame tileid="298" duration="150"/>
    <frame tileid="305" duration="150"/>
   </animation>
  </tile>
  <tile id="310">
   <animation>
    <frame tileid="310" duration="150"/>
    <frame tileid="317" duration="150"/>
    <frame tileid="324" duration="150"/>
    <frame tileid="331" duration="150"/>
    <frame tileid="338" duration="150"/>
    <frame tileid="345" duration="150"/>
   </animation>
  </tile>
  <tile id="311">
   <animation>
    <frame tileid="311" duration="150"/>
    <frame tileid="318" duration="150"/>
    <frame tileid="325" duration="150"/>
    <frame tileid="332" duration="150"/>
    <frame tileid="339" duration="150"/>
    <frame tileid="346" duration="150"/>
   </animation>
  </tile>
  <tile id="312">
   <animation>
    <frame tileid="312" duration="150"/>
    <frame tileid="319" duration="150"/>
    <frame tileid="326" duration="150"/>
    <frame tileid="333" duration="150"/>
    <frame tileid="340" duration="150"/>
    <frame tileid="347" duration="150"/>
   </animation>
  </tile>
  <tile id="355">
   <animation>
    <frame tileid="355" duration="150"/>
    <frame tileid="362" duration="150"/>
    <frame tileid="369" duration="150"/>
    <frame tileid="376" duration="150"/>
    <frame tileid="383" duration="150"/>
    <frame tileid="390" duration="150"/>
   </animation>
  </tile>
  <tile id="442">
   <animation>
    <frame tileid="442" duration="150"/>
    <frame tileid="449" duration="150"/>
    <frame tileid="456" duration="150"/>
    <frame tileid="463" duration="150"/>
    <frame tileid="470" duration="150"/>
    <frame tileid="477" duration="150"/>
   </animation>
  </tile>
  <tile id="485">
   <animation>
    <frame tileid="485" duration="150"/>
    <frame tileid="492" duration="150"/>
    <frame tileid="499" duration="150"/>
    <frame tileid="506" duration="150"/>
    <frame tileid="513" duration="150"/>
    <frame tileid="520" duration="150"/>
   </animation>
  </tile>
  <tile id="486">
   <animation>
    <frame tileid="486" duration="150"/>
    <frame tileid="493" duration="150"/>
    <frame tileid="500" duration="150"/>
    <frame tileid="507" duration="150"/>
    <frame tileid="514" duration="150"/>
    <frame tileid="521" duration="150"/>
   </animation>
  </tile>
  <tile id="487">
   <animation>
    <frame tileid="487" duration="150"/>
    <frame tileid="494" duration="150"/>
    <frame tileid="501" duration="150"/>
    <frame tileid="508" duration="150"/>
    <frame tileid="515" duration="150"/>
    <frame tileid="522" duration="150"/>
   </animation>
  </tile>
  <tile id="488">
   <animation>
    <frame tileid="488" duration="150"/>
    <frame tileid="495" duration="150"/>
    <frame tileid="502" duration="150"/>
    <frame tileid="509" duration="150"/>
    <frame tileid="516" duration="150"/>
    <frame tileid="523" duration="150"/>
   </animation>
  </tile>
  <tile id="529">
   <animation>
    <frame tileid="529" duration="150"/>
    <frame tileid="536" duration="150"/>
    <frame tileid="543" duration="150"/>
    <frame tileid="550" duration="150"/>
    <frame tileid="557" duration="150"/>
    <frame tileid="564" duration="150"/>
   </animation>
  </tile>
  <tile id="530">
   <animation>
    <frame tileid="530" duration="150"/>
    <frame tileid="537" duration="150"/>
    <frame tileid="544" duration="150"/>
    <frame tileid="551" duration="150"/>
    <frame tileid="558" duration="150"/>
    <frame tileid="565" duration="150"/>
   </animation>
  </tile>
  <tile id="531">
   <animation>
    <frame tileid="531" duration="150"/>
    <frame tileid="538" duration="150"/>
    <frame tileid="545" duration="150"/>
    <frame tileid="552" duration="150"/>
    <frame tileid="559" duration="150"/>
    <frame tileid="566" duration="150"/>
   </animation>
  </tile>
  <tile id="532">
   <animation>
    <frame tileid="532" duration="150"/>
    <frame tileid="539" duration="150"/>
    <frame tileid="546" duration="150"/>
    <frame tileid="553" duration="150"/>
    <frame tileid="560" duration="150"/>
    <frame tileid="567" duration="150"/>
   </animation>
  </tile>
  <tile id="573">
   <animation>
    <frame tileid="573" duration="150"/>
    <frame tileid="580" duration="150"/>
    <frame tileid="587" duration="150"/>
    <frame tileid="594" duration="150"/>
    <frame tileid="601" duration="150"/>
    <frame tileid="608" duration="150"/>
   </animation>
  </tile>
  <tile id="574">
   <animation>
    <frame tileid="574" duration="150"/>
    <frame tileid="581" duration="150"/>
    <frame tileid="588" duration="150"/>
    <frame tileid="595" duration="150"/>
    <frame tileid="602" duration="150"/>
    <frame tileid="609" duration="150"/>
   </animation>
  </tile>
  <tile id="575">
   <animation>
    <frame tileid="575" duration="150"/>
    <frame tileid="582" duration="150"/>
    <frame tileid="589" duration="150"/>
    <frame tileid="596" duration="150"/>
    <frame tileid="603" duration="150"/>
    <frame tileid="610" duration="150"/>
   </animation>
  </tile>
  <tile id="576">
   <animation>
    <frame tileid="576" duration="150"/>
    <frame tileid="583" duration="150"/>
    <frame tileid="590" duration="150"/>
    <frame tileid="597" duration="150"/>
    <frame tileid="604" duration="150"/>
    <frame tileid="611" duration="150"/>
   </animation>
  </tile>
  <tile id="617">
   <animation>
    <frame tileid="617" duration="150"/>
    <frame tileid="624" duration="150"/>
    <frame tileid="631" duration="150"/>
    <frame tileid="638" duration="150"/>
    <frame tileid="645" duration="150"/>
    <frame tileid="652" duration="150"/>
   </animation>
  </tile>
  <tile id="618">
   <animation>
    <frame tileid="618" duration="150"/>
    <frame tileid="625" duration="150"/>
    <frame tileid="632" duration="150"/>
    <frame tileid="639" duration="150"/>
    <frame tileid="646" duration="150"/>
    <frame tileid="653" duration="150"/>
   </animation>
  </tile>
  <tile id="619">
   <animation>
    <frame tileid="619" duration="150"/>
    <frame tileid="626" duration="150"/>
    <frame tileid="633" duration="150"/>
    <frame tileid="640" duration="150"/>
    <frame tileid="647" duration="150"/>
    <frame tileid="654" duration="150"/>
   </animation>
  </tile>
  <tile id="620">
   <animation>
    <frame tileid="620" duration="150"/>
    <frame tileid="627" duration="150"/>
    <frame tileid="634" duration="150"/>
    <frame tileid="641" duration="150"/>
    <frame tileid="648" duration="150"/>
    <frame tileid="655" duration="150"/>
   </animation>
  </tile>
  <tile id="705">
   <animation>
    <frame tileid="705" duration="150"/>
    <frame tileid="712" duration="150"/>
    <frame tileid="719" duration="150"/>
    <frame tileid="726" duration="150"/>
    <frame tileid="733" duration="150"/>
    <frame tileid="740" duration="150"/>
   </animation>
  </tile>
  <tile id="706">
   <animation>
    <frame tileid="706" duration="150"/>
    <frame tileid="713" duration="150"/>
    <frame tileid="720" duration="150"/>
    <frame tileid="727" duration="150"/>
    <frame tileid="734" duration="150"/>
    <frame tileid="741" duration="150"/>
   </animation>
  </tile>
  <tile id="707">
   <animation>
    <frame tileid="707" duration="150"/>
    <frame tileid="714" duration="150"/>
    <frame tileid="721" duration="150"/>
    <frame tileid="728" duration="150"/>
    <frame tileid="735" duration="150"/>
    <frame tileid="742" duration="150"/>
   </animation>
  </tile>
  <tile id="749">
   <animation>
    <frame tileid="749" duration="150"/>
    <frame tileid="756" duration="150"/>
    <frame tileid="763" duration="150"/>
    <frame tileid="770" duration="150"/>
    <frame tileid="777" duration="150"/>
    <frame tileid="784" duration="150"/>
   </animation>
  </tile>
  <tile id="750">
   <animation>
    <frame tileid="750" duration="150"/>
    <frame tileid="757" duration="150"/>
    <frame tileid="764" duration="150"/>
    <frame tileid="771" duration="150"/>
    <frame tileid="778" duration="150"/>
    <frame tileid="785" duration="150"/>
   </animation>
  </tile>
  <tile id="751">
   <animation>
    <frame tileid="751" duration="150"/>
    <frame tileid="758" duration="150"/>
    <frame tileid="765" duration="150"/>
    <frame tileid="772" duration="150"/>
    <frame tileid="779" duration="150"/>
    <frame tileid="786" duration="150"/>
   </animation>
  </tile>
  <tile id="794">
   <animation>
    <frame tileid="794" duration="150"/>
    <frame tileid="801" duration="150"/>
    <frame tileid="808" duration="150"/>
    <frame tileid="815" duration="150"/>
    <frame tileid="822" duration="150"/>
    <frame tileid="829" duration="150"/>
   </animation>
  </tile>
  <tile id="795">
   <animation>
    <frame tileid="795" duration="150"/>
    <frame tileid="802" duration="150"/>
    <frame tileid="809" duration="150"/>
    <frame tileid="816" duration="150"/>
    <frame tileid="823" duration="150"/>
    <frame tileid="830" duration="150"/>
   </animation>
  </tile>
  <tile id="882">
   <animation>
    <frame tileid="882" duration="150"/>
    <frame tileid="889" duration="150"/>
    <frame tileid="896" duration="150"/>
    <frame tileid="903" duration="150"/>
    <frame tileid="910" duration="150"/>
    <frame tileid="917" duration="150"/>
   </animation>
  </tile>
  <tile id="883">
   <animation>
    <frame tileid="883" duration="150"/>
    <frame tileid="890" duration="150"/>
    <frame tileid="897" duration="150"/>
    <frame tileid="904" duration="150"/>
    <frame tileid="911" duration="150"/>
    <frame tileid="918" duration="150"/>
   </animation>
  </tile>
  <tile id="884">
   <animation>
    <frame tileid="884" duration="150"/>
    <frame tileid="891" duration="150"/>
    <frame tileid="898" duration="150"/>
    <frame tileid="905" duration="150"/>
    <frame tileid="912" duration="150"/>
    <frame tileid="919" duration="150"/>
   </animation>
  </tile>
  <tile id="885">
   <animation>
    <frame tileid="885" duration="150"/>
    <frame tileid="892" duration="150"/>
    <frame tileid="899" duration="150"/>
    <frame tileid="906" duration="150"/>
    <frame tileid="913" duration="150"/>
    <frame tileid="920" duration="150"/>
   </animation>
  </tile>
  <tile id="926">
   <animation>
    <frame tileid="926" duration="150"/>
    <frame tileid="933" duration="150"/>
    <frame tileid="940" duration="150"/>
    <frame tileid="947" duration="150"/>
    <frame tileid="954" duration="150"/>
    <frame tileid="961" duration="150"/>
   </animation>
  </tile>
  <tile id="927">
   <animation>
    <frame tileid="927" duration="150"/>
    <frame tileid="934" duration="150"/>
    <frame tileid="941" duration="150"/>
    <frame tileid="948" duration="150"/>
    <frame tileid="955" duration="150"/>
    <frame tileid="962" duration="150"/>
   </animation>
  </tile>
  <tile id="928">
   <animation>
    <frame tileid="928" duration="150"/>
    <frame tileid="935" duration="150"/>
    <frame tileid="942" duration="150"/>
    <frame tileid="949" duration="150"/>
    <frame tileid="956" duration="150"/>
    <frame tileid="963" duration="150"/>
   </animation>
  </tile>
  <tile id="929">
   <animation>
    <frame tileid="929" duration="150"/>
    <frame tileid="936" duration="150"/>
    <frame tileid="943" duration="150"/>
    <frame tileid="950" duration="150"/>
    <frame tileid="957" duration="150"/>
    <frame tileid="964" duration="150"/>
   </animation>
  </tile>
  <tile id="970">
   <animation>
    <frame tileid="970" duration="150"/>
    <frame tileid="977" duration="150"/>
    <frame tileid="984" duration="150"/>
    <frame tileid="991" duration="150"/>
    <frame tileid="998" duration="150"/>
    <frame tileid="1005" duration="150"/>
   </animation>
  </tile>
  <tile id="971">
   <animation>
    <frame tileid="971" duration="150"/>
    <frame tileid="978" duration="150"/>
    <frame tileid="985" duration="150"/>
    <frame tileid="992" duration="150"/>
    <frame tileid="999" duration="150"/>
    <frame tileid="1006" duration="150"/>
   </animation>
  </tile>
  <tile id="972">
   <animation>
    <frame tileid="972" duration="150"/>
    <frame tileid="979" duration="150"/>
    <frame tileid="986" duration="150"/>
    <frame tileid="993" duration="150"/>
    <frame tileid="1000" duration="150"/>
    <frame tileid="1007" duration="150"/>
   </animation>
  </tile>
  <tile id="973">
   <animation>
    <frame tileid="973" duration="150"/>
    <frame tileid="980" duration="150"/>
    <frame tileid="987" duration="150"/>
    <frame tileid="994" duration="150"/>
    <frame tileid="1001" duration="150"/>
    <frame tileid="1008" duration="150"/>
   </animation>
  </tile>
  <tile id="1015">
   <animation>
    <frame tileid="1015" duration="150"/>
    <frame tileid="1022" duration="150"/>
    <frame tileid="1029" duration="150"/>
    <frame tileid="1036" duration="150"/>
    <frame tileid="1043" duration="150"/>
    <frame tileid="1050" duration="150"/>
   </animation>
  </tile>
  <tile id="1016">
   <animation>
    <frame tileid="1016" duration="150"/>
    <frame tileid="1023" duration="150"/>
    <frame tileid="1030" duration="150"/>
    <frame tileid="1037" duration="150"/>
    <frame tileid="1044" duration="150"/>
    <frame tileid="1051" duration="150"/>
   </animation>
  </tile>
  <tile id="1147">
   <animation>
    <frame tileid="1147" duration="150"/>
    <frame tileid="1154" duration="150"/>
    <frame tileid="1161" duration="150"/>
    <frame tileid="1168" duration="150"/>
    <frame tileid="1175" duration="150"/>
    <frame tileid="1182" duration="150"/>
   </animation>
  </tile>
  <tile id="1191">
   <animation>
    <frame tileid="1191" duration="150"/>
    <frame tileid="1198" duration="150"/>
    <frame tileid="1205" duration="150"/>
    <frame tileid="1212" duration="150"/>
    <frame tileid="1219" duration="150"/>
    <frame tileid="1226" duration="150"/>
   </animation>
  </tile>
  <tile id="1234">
   <animation>
    <frame tileid="1234" duration="150"/>
    <frame tileid="1241" duration="150"/>
    <frame tileid="1248" duration="150"/>
    <frame tileid="1255" duration="150"/>
    <frame tileid="1262" duration="150"/>
    <frame tileid="1269" duration="150"/>
   </animation>
  </tile>
  <tile id="1235">
   <animation>
    <frame tileid="1235" duration="150"/>
    <frame tileid="1242" duration="150"/>
    <frame tileid="1249" duration="150"/>
    <frame tileid="1256" duration="150"/>
    <frame tileid="1263" duration="150"/>
    <frame tileid="1270" duration="150"/>
   </animation>
  </tile>
  <tile id="1236">
   <animation>
    <frame tileid="1236" duration="150"/>
    <frame tileid="1243" duration="150"/>
    <frame tileid="1250" duration="150"/>
    <frame tileid="1257" duration="150"/>
    <frame tileid="1264" duration="150"/>
    <frame tileid="1271" duration="150"/>
   </animation>
  </tile>
  <tile id="1278">
   <animation>
    <frame tileid="1278" duration="150"/>
    <frame tileid="1285" duration="150"/>
    <frame tileid="1292" duration="150"/>
    <frame tileid="1299" duration="150"/>
    <frame tileid="1306" duration="150"/>
    <frame tileid="1313" duration="150"/>
   </animation>
  </tile>
  <tile id="1279">
   <animation>
    <frame tileid="1279" duration="150"/>
    <frame tileid="1286" duration="150"/>
    <frame tileid="1293" duration="150"/>
    <frame tileid="1300" duration="150"/>
    <frame tileid="1307" duration="150"/>
    <frame tileid="1314" duration="150"/>
   </animation>
  </tile>
  <tile id="1280">
   <animation>
    <frame tileid="1280" duration="150"/>
    <frame tileid="1287" duration="150"/>
    <frame tileid="1294" duration="150"/>
    <frame tileid="1301" duration="150"/>
    <frame tileid="1308" duration="150"/>
    <frame tileid="1315" duration="150"/>
   </animation>
  </tile>
  <tile id="1323">
   <animation>
    <frame tileid="1323" duration="150"/>
    <frame tileid="1330" duration="150"/>
    <frame tileid="1337" duration="150"/>
    <frame tileid="1344" duration="150"/>
    <frame tileid="1351" duration="150"/>
    <frame tileid="1358" duration="150"/>
   </animation>
  </tile>
  <tile id="1324">
   <animation>
    <frame tileid="1324" duration="150"/>
    <frame tileid="1331" duration="150"/>
    <frame tileid="1338" duration="150"/>
    <frame tileid="1345" duration="150"/>
    <frame tileid="1352" duration="150"/>
    <frame tileid="1359" duration="150"/>
   </animation>
  </tile>
  <tile id="1367">
   <animation>
    <frame tileid="1367" duration="150"/>
    <frame tileid="1374" duration="150"/>
    <frame tileid="1381" duration="150"/>
    <frame tileid="1388" duration="150"/>
    <frame tileid="1395" duration="150"/>
    <frame tileid="1402" duration="150"/>
   </animation>
  </tile>
  <tile id="1498">
   <animation>
    <frame tileid="1498" duration="150"/>
    <frame tileid="1505" duration="150"/>
    <frame tileid="1512" duration="150"/>
    <frame tileid="1519" duration="150"/>
    <frame tileid="1526" duration="150"/>
    <frame tileid="1533" duration="150"/>
   </animation>
  </tile>
  <tile id="1542">
   <animation>
    <frame tileid="1542" duration="150"/>
    <frame tileid="1549" duration="150"/>
    <frame tileid="1556" duration="150"/>
    <frame tileid="1563" duration="150"/>
    <frame tileid="1570" duration="150"/>
    <frame tileid="1577" duration="150"/>
   </animation>
  </tile>
  <tile id="1586">
   <animation>
    <frame tileid="1586" duration="150"/>
    <frame tileid="1593" duration="150"/>
    <frame tileid="1600" duration="150"/>
    <frame tileid="1607" duration="150"/>
    <frame tileid="1614" duration="150"/>
    <frame tileid="1621" duration="150"/>
   </animation>
  </tile>
 </tileset>
 <tileset firstgid="12414" name="details" tilewidth="16" tileheight="16" tilecount="560" columns="40">
  <image source="details.png" width="640" height="224"/>
 </tileset>
 <tileset firstgid="12974" name="details" tilewidth="16" tileheight="16" tilecount="560" columns="40">
  <image source="details.png" width="640" height="224"/>
 </tileset>
 <layer id="82" name="water" width="48" height="64">
  <data encoding="csv">
2285,2285,2285,2285,2285,2285,2285,2285,2285,2285,2285,2285,2285,2285,2285,2285,2285,2285,2285,2285,2285,2285,2285,2285,2285,2285,2285,2285,2285,2285,2285,2285,2285,2285,2285,2285,2285,2285,2285,2285,2285,2285,2285,2285,2285,2285,2285,2285,
2285,2285,2285,2285,2285,2285,2285,2285,2285,2285,2285,2285,2285,2285,2285,2285,2285,2285,2285,2285,2285,2285,2285,2285,2285,2285,2285,2285,2285,2285,2285,2285,2285,2285,2285,2285,2285,2285,2285,2285,2285,2285,2285,2285,2285,2285,2285,2285,
2285,2285,2285,2285,2285,2285,2285,2285,2285,2285,2285,2285,2285,2285,2285,2285,2285,2285,2285,2285,2285,2285,2285,2285,2285,2285,2285,2285,2285,2285,2285,2285,2285,2285,2285,2285,2285,2285,2285,2285,2285,2285,2285,2285,2285,2285,2285,2285,
2285,2285,2285,2285,2285,2285,2285,2285,2285,2285,2285,2285,2285,2285,2285,2285,2285,2285,2285,2285,2285,2285,2285,2285,2285,2285,2285,2285,2285,2285,2285,2285,2285,2285,2285,2285,2285,2285,2285,2285,2285,2285,2285,2285,2285,2285,2285,2285,
2285,2285,2285,2285,2285,2285,2285,2285,2285,2285,2285,2285,2285,2285,2285,2285,2285,2285,2285,2285,2285,2285,2285,2285,2285,2285,2285,2285,2285,2285,2285,2285,2285,2285,2285,2285,2285,2285,2285,2285,2285,2285,2285,2285,2285,2285,2285,2285,
2285,2285,2285,2285,2285,2285,2285,2285,2285,2285,2285,2285,2285,2285,2285,2285,2285,2285,2285,2285,2285,2285,2285,2285,2285,2285,2285,2285,2285,2285,2285,2285,2285,2285,2285,2285,2285,2285,2285,2285,2285,2285,2285,2285,2285,2285,2285,2285,
2285,2285,2285,2285,2285,2285,2285,2285,2285,2285,2285,2285,2285,2285,2285,2285,2285,2285,2285,2285,2285,2285,2285,2285,2285,2285,2285,2285,2285,2285,2285,2285,2285,2285,2285,2285,2285,2285,2285,2285,2285,2285,2285,2285,2285,2285,2285,2285,
2285,2285,2285,2285,2285,2285,2285,2285,2285,2285,2285,2285,2285,2285,2285,2285,2285,2285,2285,2285,2285,2285,2285,2285,2285,2285,2285,2285,2285,2285,2285,2285,2285,2285,2285,2285,2285,2285,2285,2285,2285,2285,2285,2285,2285,2285,2285,2285,
2285,2285,2285,2285,2285,2285,2285,2285,2285,2285,2285,2285,2285,2285,2285,2285,2285,2285,2285,2285,2285,2285,2285,2285,2285,2285,2285,2285,2285,2285,2285,2285,2285,2285,2285,2285,2285,2285,2285,2285,2285,2285,2285,2285,2285,2285,2285,2285,
2285,2285,2285,2285,2285,2285,2285,2285,2285,2285,2285,2285,2285,2285,2285,2285,2285,2285,2285,2285,2285,2285,2285,2285,2285,2285,2285,2285,2285,2285,2285,2285,2285,2285,2285,2285,2285,2285,2285,2285,2285,2285,2285,2285,2285,2285,2285,2285,
2285,2285,2285,2285,2285,2285,2285,2285,2285,2285,2285,2285,2285,2285,2285,2285,2285,2285,2285,2285,2285,2285,2285,2285,2285,2285,2285,2285,2285,2285,2285,2285,2285,2285,2285,2285,2285,2285,2285,2285,2285,2285,2285,2285,2285,2285,2285,2285,
2285,2285,2285,2285,2285,2285,2285,2285,2285,2285,2285,2285,2285,2285,2285,2285,2285,2285,2285,2285,2285,2285,2285,2285,2285,2285,2285,2285,2285,2285,2285,2285,2285,2285,2285,2285,2285,2285,2285,2285,2285,2285,2285,2285,2285,2285,2285,2285,
2285,2285,2285,2285,2285,2285,2285,2285,2285,2285,2285,2285,2285,2285,2285,2285,2285,2285,2285,2285,2285,2285,2285,2285,2285,2285,2285,2285,2285,2285,2285,2285,2285,2285,2285,2285,2285,2285,2285,2285,2285,2285,2285,2285,2285,2285,2285,2285,
2285,2285,2285,2285,2285,2285,2285,2285,2285,2285,2285,2285,2285,2285,2285,2285,2285,2285,2285,2285,2285,2285,2285,2285,2285,2285,2285,2285,2285,2285,2285,2285,2285,2285,2285,2285,2285,2285,2285,2285,2285,2285,2285,2285,2285,2285,2285,2285,
2285,2285,2285,2285,2285,2285,2285,2285,2285,2285,2285,2285,2285,2285,2285,2285,2285,2285,2285,2285,2285,2285,2285,2285,2285,2285,2285,2285,2285,2285,2285,2285,2285,2285,2285,2285,2285,2285,2285,2285,2285,2285,2285,2285,2285,2285,2285,2285,
2285,2285,2285,2285,2285,2285,2285,2285,2285,2285,2285,2285,2285,2285,2285,2285,2285,2285,2285,2285,2285,2285,2285,2285,2285,2285,2285,2285,2285,2285,2285,2285,2285,2285,2285,2285,2285,2285,2285,2285,2285,2285,2285,2285,2285,2285,2285,2285,
2285,2285,2285,2285,2285,2285,2285,2285,2285,2285,2285,2285,2285,2285,2285,2285,2285,2285,2285,2285,2285,2285,2285,2285,2285,2285,2285,2285,2285,2285,2285,2285,2285,2285,2285,2285,2285,2285,2285,2285,2285,2285,2285,2285,2285,2285,2285,2285,
2285,2285,2285,2285,2285,2285,2285,2285,2285,2285,2285,2285,2285,2285,2285,2285,2285,2285,2285,2285,2285,2285,2285,2285,2285,2285,2285,2285,2285,2285,2285,2285,2285,2285,2285,2285,2285,2285,2285,2285,2285,2285,2285,2285,2285,2285,2285,2285,
2285,2285,2285,2285,2285,2285,2285,2285,2285,2285,2285,2285,2285,2285,2285,2285,2285,2285,2285,2285,2285,2285,2285,2285,2285,2285,2285,2285,2285,2285,2285,2285,2285,2285,2285,2285,2285,2285,2285,2285,2285,2285,2285,2285,2285,2285,2285,2285,
2285,2285,2285,2285,2285,2285,2285,2285,2285,2285,2285,2285,2285,2285,2285,2285,2285,2285,2285,2285,2285,2285,2285,2285,2285,2285,2285,2285,2285,2285,2285,2285,2285,2285,2285,2285,2285,2285,2285,2285,2285,2285,2285,2285,2285,2285,2285,2285,
2285,2285,2285,2285,2285,2285,2285,2285,2285,2285,2285,2285,2285,2285,2285,2285,2285,2285,2285,2285,2285,2285,2285,2285,2285,2285,2285,2285,2285,2285,2285,2285,2285,2285,2285,2285,2285,2285,2285,2285,2285,2285,2285,2285,2285,2285,2285,2285,
2285,2285,2285,2285,2285,2285,2285,2285,2285,2285,2285,2285,2285,2285,2285,2285,2285,2285,2285,2285,2285,2285,2285,2285,2285,2285,2285,2285,2285,2285,2285,2285,2285,2285,2285,2285,2285,2285,2285,2285,2285,2285,2285,2285,2285,2285,2285,2285,
2285,2285,2285,2285,2285,2285,2285,2285,2285,2285,2285,2285,2285,2285,2285,2285,2285,2285,2285,2285,2285,2285,2285,2285,2285,2285,2285,2285,2285,2285,2285,2285,2285,2285,2285,2285,2285,2285,2285,2285,2285,2285,2285,2285,2285,2285,2285,2285,
2285,2285,2285,2285,2285,2285,2285,2285,2285,2285,2285,2285,2285,2285,2285,2285,2285,2285,2285,2285,2285,2285,2285,2285,2285,2285,2285,2285,2285,2285,2285,2285,2285,2285,2285,2285,2285,2285,2285,2285,2285,2285,2285,2285,2285,2285,2285,2285,
2285,2285,2285,2285,2285,2285,2285,2285,2285,12703,2285,2285,2285,2285,2285,2285,2285,2285,2285,2285,2285,2285,2285,2285,2285,2285,2285,2285,2285,2285,2285,2285,2285,2285,2285,2285,2285,2285,2285,2285,2285,2285,2285,2285,2285,2285,2285,2285,
2285,2285,2285,2285,2285,2285,2285,2285,2285,2285,2285,2285,2285,2285,2285,2285,2285,2285,2285,2285,2285,2285,2285,2285,2285,2285,2285,2285,2285,2285,2285,2285,2285,2285,2285,2285,2285,2285,2285,2285,2285,2285,2285,2285,2285,2285,2285,2285,
2285,2285,2285,2285,2285,2285,2285,2285,2285,2285,2285,2285,2285,2285,2285,2285,2285,2285,2285,2285,2285,2285,2285,2285,2285,2285,2285,2285,2285,2285,2285,2285,2285,2285,2285,2285,2285,2285,2285,2285,2285,2285,2285,2285,2285,2285,2285,2285,
2285,2285,2285,2285,2285,2285,2285,2285,2285,2285,2285,2285,2285,2285,2285,2285,2285,2285,2285,2285,2285,2285,2285,2285,2285,2285,2285,2285,2285,2285,2285,2285,2285,2285,2285,2285,2285,2285,2285,2285,2285,2285,2285,2285,2285,2285,2285,2285,
2285,2285,2285,2285,2285,2285,2285,2285,2285,2285,2285,2285,2285,2285,2285,2285,2285,2285,2285,2285,2285,2285,2285,2285,2285,2285,2285,2285,2285,2285,2285,2285,2285,2285,2285,2285,2285,2285,2285,2285,2285,2285,2285,2285,2285,2285,2285,2285,
2285,2285,2285,2285,2285,2285,2285,2285,2285,2285,2285,2285,2285,2285,2285,2285,2285,2285,2285,2285,2285,2285,2285,2285,2285,2285,2285,2285,2285,2285,2285,2285,2285,2285,2285,2285,2285,2285,2285,2285,2285,2285,2285,2285,2285,2285,2285,2285,
2285,2285,2285,2285,2285,2285,2285,2285,2285,2285,2285,2285,2285,2285,2285,2285,2285,2285,2285,2285,2285,2285,2285,2285,2285,2285,2285,2285,2285,2285,2285,2285,2285,2285,2285,2285,2285,2285,2285,2285,2285,2285,2285,2285,2285,2285,2285,2285,
2285,2285,2285,2285,2285,2285,2285,2285,2285,2285,2285,2285,2285,2285,2285,2285,2285,2285,2285,2285,2285,2285,2285,2285,2285,2285,2285,2285,2285,2285,2285,2285,2285,2285,2285,2285,2285,2285,2285,2285,2285,2285,2285,2285,2285,2285,2285,2285,
2285,2285,2285,2285,2285,2285,2285,2285,2285,2285,2285,2285,2285,2285,2285,2285,2285,2285,2285,2285,2285,2285,2285,2285,2285,2285,2285,2285,2285,2285,2285,2285,2285,2285,2285,2285,2285,2285,2285,2285,2285,2285,2285,2285,2285,2285,2285,2285,
2285,2285,2285,2285,2285,2285,2285,2285,2285,2285,2285,2285,2285,2285,2285,2285,2285,2285,2285,2285,2285,2285,2285,2285,2285,2285,2285,2285,2285,0,2285,2285,2285,2285,2285,2285,2285,2285,2285,2285,2285,2285,2285,2285,2285,2285,2285,2285,
2285,2285,2285,2285,2285,2285,2285,2285,2285,2285,2285,2285,2285,2285,2285,2285,2285,2285,2285,2285,2285,2285,2285,2285,2285,2285,2285,2285,2285,0,2285,2285,2285,2285,2285,2285,2285,2285,2285,2285,2285,2285,2285,2285,2285,2285,2285,2285,
2285,2285,2285,2285,2285,2285,2285,2285,2285,2285,2285,2285,2285,2285,2285,2285,2285,2285,2285,2285,2285,2285,2285,2285,2285,2285,2285,2285,2285,2285,2285,2285,2285,2285,2285,2285,2285,2285,2285,2285,2285,2285,2285,2285,2285,2285,2285,2285,
2285,2285,2285,2285,2285,2285,2285,2285,2285,2285,2285,2285,2285,2285,2285,2285,2285,2285,2285,2285,2285,2285,2285,2285,2285,2285,2285,2285,2285,2285,2285,2285,2285,2285,2285,2285,2285,2285,2285,2285,2285,2285,2285,2285,2285,2285,2285,2285,
2285,2285,2285,2285,2285,2285,2285,2285,2285,2285,2285,2285,2285,2285,2285,2285,2285,2285,2285,2285,2285,2285,2285,2285,2285,2285,2285,2285,2285,2285,2285,2285,2285,2285,2285,2285,2285,2285,2285,2285,2285,2285,2285,2285,2285,2285,2285,2285,
2285,2285,2285,2285,2285,2285,2285,2285,2285,2285,2285,2285,2285,2285,2285,2285,2285,2285,2285,2285,2285,2285,2285,2285,2285,2285,2285,2285,2285,2285,2285,2285,2285,2285,2285,2285,2285,2285,2285,2285,2285,2285,2285,2285,2285,2285,2285,2285,
2285,2285,2285,2285,2285,2285,2285,2285,2285,2285,2285,2285,2285,2285,2285,2285,2285,2285,2285,2285,2285,2285,2285,2285,2285,2285,2285,2285,2285,2285,2285,2285,2285,2285,2285,2285,2285,2285,2285,2285,2285,2285,2285,2285,2285,2285,2285,2285,
2285,2285,2285,2285,2285,2285,2285,2285,2285,2285,2285,2285,2285,2285,2285,2285,2285,2285,2285,2285,2285,2285,2285,2285,2285,2285,2285,2285,2285,2285,2285,2285,2285,2285,2285,2285,2285,2285,2285,2285,2285,2285,2285,2285,2285,2285,2285,2285,
2285,2285,2285,2285,2285,2285,2285,2285,2285,2285,2285,2285,2285,2285,2285,2285,2285,2285,2285,2285,2285,2285,2285,2285,2285,2285,2285,2285,2285,2285,2285,2285,2285,2285,2285,2285,2285,2285,2285,2285,2285,2285,2285,2285,2285,2285,2285,2285,
2285,2285,2285,2285,2285,2285,2285,2285,2285,2285,2285,2285,2285,2285,2285,2285,2285,2285,2285,2285,2285,2285,2285,2285,2285,2285,2285,2285,2285,2285,2285,2285,2285,2285,2285,2285,2285,2285,2285,2285,2285,2285,2285,2285,2285,2285,2285,2285,
2285,2285,2285,2285,2285,2285,2285,2285,2285,2285,2285,2285,2285,2285,2285,2285,2285,2285,2285,2285,2285,2285,2285,2285,2285,2285,2285,2285,2285,2285,2285,2285,2285,2285,2285,2285,2285,2285,2285,2285,2285,2285,2285,2285,2285,2285,2285,2285,
2285,2285,2285,2285,2285,2285,2285,2285,2285,2285,2285,2285,2285,2285,2285,2285,2285,2285,2285,2285,2285,2285,2285,2285,2285,2285,2285,2285,2285,2285,2285,2285,2285,2285,2285,2285,2285,2285,2285,2285,2285,2285,2285,2285,2285,2285,2285,2285,
2285,2285,2285,2285,2285,2285,2285,2285,2285,2285,2285,2285,2285,2285,2285,2285,2285,2285,2285,2285,2285,2285,2285,2285,2285,2285,2285,2285,2285,2285,2285,2285,2285,2285,2285,2285,2285,2285,2285,2285,2285,2285,2285,2285,2285,2285,2285,2285,
2285,2285,2285,2285,2285,2285,2285,2285,2285,2285,2285,2285,2285,2285,2285,2285,2285,2285,2285,2285,2285,2285,2285,2285,2285,2285,2285,2285,2285,2285,2285,2285,2285,2285,2285,2285,2285,2285,2285,2285,2285,2285,2285,2285,2285,2285,2285,2285,
2285,2285,2285,2285,2285,2285,2285,2285,2285,2285,2285,2285,2285,2285,2285,2285,2285,2285,2285,2285,2285,2285,2285,2285,2285,2285,2285,2285,2285,2285,2285,2285,2285,2285,2285,2285,2285,2285,2285,2285,2285,2285,2285,2285,2285,2285,2285,2285,
2285,2285,2285,2285,2285,2285,2285,2285,2285,2285,2285,2285,2285,2285,2285,2285,2285,2285,2285,2285,2285,2285,2285,2285,2285,2285,2285,2285,2285,2285,2285,2285,2285,2285,2285,2285,2285,2285,2285,2285,2285,2285,2285,2285,2285,2285,2285,2285,
2285,2285,2285,2285,2285,2285,2285,2285,2285,2285,2285,2285,2285,2285,2285,2285,2285,2285,2285,2285,2285,2285,2285,2285,2285,2285,2285,2285,2285,2285,2285,2285,2285,2285,2285,2285,2285,2285,2285,2285,2285,2285,2285,2285,2285,2285,2285,2285,
2285,2285,2285,2285,2285,2285,2285,2285,2285,2285,2285,2285,2285,2285,2285,2285,2285,2285,2285,2285,2285,2285,2285,2285,2285,2285,2285,2285,2285,2285,2285,2285,2285,2285,2285,2285,2285,2285,2285,2285,2285,2285,2285,2285,2285,2285,2285,2285,
2285,2285,2285,2285,2285,2285,2285,2285,2285,2285,2285,2285,2285,2285,2285,2285,2285,2285,2285,2285,2285,2285,2285,2285,2285,2285,2285,2285,2285,2285,2285,2285,2285,2285,2285,2285,2285,2285,2285,2285,2285,2285,2285,2285,2285,2285,2285,2285,
2285,2285,2285,2285,2285,2285,2285,2285,2285,2285,2285,2285,2285,2285,2285,2285,2285,2285,2285,2285,2285,2285,2285,2285,2285,2285,2285,2285,2285,2285,2285,2285,2285,2285,2285,2285,2285,2285,2285,2285,2285,2285,2285,2285,2285,2285,2285,2285,
2285,2285,2285,2285,2285,2285,2285,2285,2285,2285,2285,2285,2285,2285,2285,2285,2285,2285,2285,2285,2285,2285,2285,2285,2285,2285,2285,2285,2285,2285,2285,2285,2285,2285,2285,2285,2285,2285,2285,2285,2285,2285,2285,2285,2285,2285,2285,2285,
2285,2285,2285,2285,2285,2285,2285,2285,2285,2285,2285,2285,2285,2285,2285,2285,2285,2285,2285,2285,2285,2285,2285,2285,2285,2285,2285,2285,2285,2285,2285,2285,2285,2285,2285,2285,2285,2285,2285,2285,2285,2285,2285,2285,2285,2285,2285,2285,
2285,2285,2285,2285,2285,2285,2285,2285,2285,2285,2285,2285,2285,2285,2285,2285,2285,2285,2285,2285,2285,2285,2285,2285,2285,2285,2285,2285,2285,2285,2285,2285,2285,2285,2285,2285,2285,2285,2285,2285,2285,2285,2285,2285,2285,2285,2285,2285,
2285,2285,2285,2285,2285,2285,2285,2285,2285,2285,2285,2285,2285,2285,2285,2285,2285,2285,2285,2285,2285,2285,2285,2285,2285,2285,2285,2285,2285,2285,2285,2285,2285,2285,2285,2285,2285,2285,2285,2285,2285,2285,2285,2285,2285,2285,2285,2285,
2285,2285,2285,2285,2285,2285,2285,2285,2285,2285,2285,2285,2285,2285,2285,2285,2285,2285,2285,2285,2285,2285,2285,2285,2285,2285,2285,2285,2285,2285,2285,2285,2285,2285,2285,2285,2285,2285,2285,2285,2285,2285,2285,2285,2285,2285,2285,2285,
2285,2285,2285,2285,2285,2285,2285,2285,2285,2285,2285,2285,2285,2285,2285,2285,2285,2285,2285,2285,2285,2285,2285,2285,2285,2285,2285,2285,2285,2285,2285,2285,2285,2285,2285,2285,2285,2285,2285,2285,2285,2285,2285,2285,2285,2285,2285,2285,
2285,2285,2285,2285,2285,2285,2285,2285,2285,2285,2285,2285,2285,2285,2285,2285,2285,2285,2285,2285,2285,2285,2285,2285,2285,2285,2285,2285,2285,2285,2285,2285,2285,2285,2285,2285,2285,2285,2285,2285,2285,2285,2285,2285,2285,2285,2285,2285,
2285,2285,2285,2285,2285,2285,2285,2285,2285,2285,2285,2285,2285,2285,2285,2285,2285,2285,2285,2285,2285,2285,2285,2285,2285,2285,2285,2285,2285,2285,2285,2285,2285,2285,2285,2285,2285,2285,2285,2285,2285,2285,2285,2285,2285,2285,2285,2285,
2285,2285,2285,2285,2285,2285,2285,2285,2285,2285,2285,2285,2285,2285,2285,2285,2285,2285,2285,2285,2285,2285,2285,2285,2285,2285,2285,2285,2285,2285,2285,2285,2285,2285,2285,2285,2285,2285,2285,2285,2285,2285,2285,2285,2285,2285,2285,2285,
2285,2285,2285,2285,2285,2285,2285,2285,2285,2285,2285,2285,2285,2285,2285,2285,2285,2285,2285,2285,2285,2285,2285,2285,2285,2285,2285,2285,2285,2285,2285,2285,2285,2285,2285,2285,2285,2285,2285,2285,2285,2285,2285,2285,2285,2285,2285,2285,
2285,2285,2285,2285,2285,2285,2285,2285,2285,2285,2285,2285,2285,2285,2285,2285,2285,2285,2285,2285,2285,2285,2285,2285,2285,2285,2285,2285,2285,2285,2285,2285,2285,2285,2285,2285,2285,2285,2285,2285,2285,2285,2285,2285,2285,2285,2285,2285
</data>
 </layer>
 <layer id="99" name="water_effect" width="48" height="64">
  <data encoding="csv">
0,0,0,0,0,0,0,0,0,0,0,0,0,0,0,0,0,0,0,0,0,0,0,0,0,0,0,0,0,0,0,0,0,0,0,0,0,0,0,0,0,0,0,0,0,0,0,0,
0,0,0,0,0,0,0,0,0,0,0,0,0,0,0,0,0,0,0,0,0,0,0,0,0,0,0,0,0,0,0,0,0,0,0,0,0,0,0,0,0,0,0,0,0,0,0,0,
0,0,0,0,0,0,0,0,0,0,0,0,0,0,0,0,0,0,0,0,0,0,0,0,0,0,0,0,0,0,0,0,0,0,0,0,0,0,0,0,0,0,0,0,0,0,0,0,
0,0,0,0,0,0,0,0,0,0,0,0,0,0,0,0,0,0,0,0,0,0,0,0,0,0,0,0,0,0,0,0,0,0,0,0,0,0,0,0,0,0,0,0,0,0,0,0,
0,0,0,0,0,0,0,0,0,0,0,0,0,0,0,0,0,0,0,0,0,0,0,0,0,0,0,0,0,0,0,0,0,0,0,0,0,0,0,0,0,0,0,0,0,0,0,0,
0,0,0,0,0,0,0,0,0,0,0,0,0,0,0,0,0,0,0,0,0,0,0,0,0,0,0,0,0,0,0,0,0,0,0,0,0,0,0,0,0,0,0,0,0,0,0,0,
0,0,0,0,0,0,0,0,0,0,0,0,0,0,0,0,0,0,0,0,0,0,0,0,0,0,0,0,0,0,0,0,0,0,0,0,0,0,0,0,0,0,0,0,0,0,0,0,
0,0,0,0,0,0,0,0,0,0,0,0,0,0,0,0,0,0,0,0,0,0,0,0,0,0,0,0,0,0,0,0,0,0,0,0,0,0,0,0,0,0,0,0,0,0,0,0,
0,0,0,0,0,0,0,0,0,0,0,0,0,0,0,0,0,0,0,0,0,0,0,0,0,0,0,0,0,0,0,0,0,0,0,0,0,0,0,0,0,0,0,0,0,0,0,0,
0,0,0,0,0,0,0,0,0,0,0,0,0,0,0,0,0,0,0,0,0,0,0,0,0,0,0,0,0,0,0,0,0,0,0,0,0,0,0,0,0,0,0,0,0,0,0,0,
0,0,0,0,0,0,0,0,0,0,0,0,0,0,0,0,0,0,0,0,0,0,0,0,0,0,0,0,0,0,0,0,0,0,0,0,0,0,0,0,0,0,0,0,0,0,0,0,
0,0,0,0,0,0,0,0,0,0,0,0,0,0,0,0,0,0,0,0,0,0,0,0,0,0,0,0,0,0,0,0,0,0,0,0,0,0,0,0,0,0,0,0,0,0,0,0,
0,0,0,0,0,0,0,0,0,0,0,0,0,0,0,0,0,0,0,0,0,0,0,0,0,0,0,0,0,0,0,0,0,0,0,0,0,0,0,0,0,0,0,0,0,0,0,0,
0,0,0,0,0,0,0,0,0,0,0,0,0,0,0,0,0,0,0,0,0,0,0,0,0,0,0,0,0,0,0,0,0,0,0,0,0,0,0,0,0,0,0,0,0,0,0,0,
0,0,0,0,0,0,0,0,0,0,0,0,0,0,0,0,0,0,0,0,0,0,0,0,0,0,0,0,0,0,0,0,0,0,0,0,0,0,0,0,0,0,0,0,0,0,0,0,
0,0,0,0,0,0,0,0,0,0,0,0,0,0,0,0,0,0,0,0,0,0,0,0,0,0,0,0,0,0,0,0,0,0,0,0,0,0,0,0,0,0,0,0,0,0,0,0,
0,0,0,0,0,0,0,0,0,0,0,0,0,0,0,0,0,0,0,0,0,0,0,0,0,0,0,0,0,0,0,0,0,0,0,0,0,0,0,0,0,0,0,0,0,0,0,0,
0,0,0,0,0,0,0,0,0,0,0,0,0,0,0,0,0,0,0,0,0,0,0,0,0,0,0,0,0,0,0,0,0,0,0,0,0,0,0,0,0,0,0,0,0,0,0,0,
0,0,0,0,0,0,0,0,0,0,0,0,0,0,0,0,0,0,0,0,0,0,0,0,0,0,0,0,0,0,0,0,0,0,0,0,0,0,0,0,0,0,0,0,0,0,0,0,
0,0,0,0,0,0,0,0,0,0,0,0,0,0,0,0,0,0,0,0,0,0,0,0,0,0,0,0,0,0,0,0,0,0,0,0,0,0,0,0,0,0,0,0,0,0,0,0,
0,0,0,0,0,0,0,0,0,0,0,0,0,0,0,0,0,0,0,0,0,0,0,0,0,0,0,0,0,0,0,0,0,0,0,0,0,0,0,0,0,0,0,0,0,0,0,0,
0,0,0,0,0,0,0,0,0,0,0,0,0,0,0,0,0,0,0,0,0,0,0,0,0,0,0,0,0,0,0,0,0,0,0,0,0,0,0,0,0,0,0,0,0,0,0,0,
0,0,0,0,0,0,0,0,0,0,0,0,0,0,0,0,0,0,0,0,0,0,0,0,0,0,0,0,0,0,0,0,0,0,0,0,0,0,0,0,0,0,0,0,0,0,0,0,
0,0,0,0,0,0,0,0,0,0,0,0,0,0,0,0,0,0,0,0,0,0,0,0,0,0,0,0,0,0,0,0,0,0,0,0,0,0,0,0,0,0,0,0,0,0,0,0,
0,0,0,0,0,0,0,0,0,0,0,0,0,0,0,0,0,0,0,0,0,0,0,0,0,0,0,0,0,0,0,0,0,0,0,0,0,0,0,0,0,0,0,0,0,0,0,0,
0,0,0,0,0,0,0,0,0,0,0,0,0,0,0,0,0,0,0,0,0,0,0,0,0,0,0,0,0,0,0,0,0,0,0,0,0,0,0,0,0,0,0,0,0,0,0,0,
0,0,0,0,0,0,0,0,0,0,0,0,0,0,0,0,0,0,0,0,0,0,0,0,0,0,0,0,0,0,0,0,0,0,0,0,0,0,0,0,0,0,0,0,0,0,0,0,
0,0,0,0,0,0,0,0,0,0,0,0,0,0,0,0,0,0,0,0,0,0,0,0,0,0,0,0,0,0,0,0,0,0,0,0,0,0,0,0,0,0,0,0,0,0,0,0,
0,0,0,0,0,0,0,0,0,0,0,0,0,0,0,0,0,0,0,0,0,0,0,0,0,0,0,0,0,0,0,0,0,0,0,0,0,0,0,0,0,0,0,0,0,0,0,0,
0,0,0,0,0,0,0,0,0,0,0,0,0,0,0,0,0,0,0,0,0,0,0,0,0,0,0,0,0,0,0,0,0,0,0,0,0,0,0,0,0,0,0,0,0,0,0,0,
0,0,0,0,0,0,0,0,0,0,0,0,0,0,0,0,0,0,0,0,0,0,0,0,0,0,0,0,0,0,0,0,0,0,0,0,0,0,0,0,0,0,0,0,0,0,0,0,
0,0,0,0,0,0,0,0,0,0,0,0,0,0,0,0,0,0,0,0,0,0,0,0,0,0,0,0,0,0,0,0,0,0,0,0,0,0,0,0,0,0,0,0,0,0,0,0,
0,0,0,0,0,0,0,0,0,0,0,0,0,0,0,0,0,0,0,0,0,0,0,0,0,0,0,0,0,0,0,0,0,0,0,0,0,0,0,0,0,0,0,0,0,0,0,0,
0,0,0,0,0,0,0,0,0,0,0,0,0,0,0,0,0,0,0,0,0,0,0,0,0,0,0,0,0,0,0,0,0,0,0,0,0,0,0,0,0,0,0,0,0,0,0,0,
0,0,0,0,0,0,0,0,0,0,0,0,0,0,0,0,0,0,0,0,0,0,0,0,0,0,0,0,0,0,0,0,0,0,0,0,0,0,0,0,0,0,0,0,0,0,0,0,
0,0,0,0,0,0,0,0,0,0,0,0,0,0,0,0,0,0,0,0,0,0,0,0,0,0,0,0,0,0,0,0,0,0,0,0,0,0,0,0,0,0,0,0,0,0,0,0,
0,0,0,0,0,0,0,0,0,0,0,0,0,0,0,0,0,0,0,0,0,0,0,0,0,0,0,0,0,0,0,0,0,0,0,0,0,0,0,0,0,0,0,0,0,0,0,0,
0,0,0,0,0,0,0,0,0,0,0,0,0,0,0,0,0,0,0,0,0,0,0,0,0,0,0,0,0,0,0,0,0,0,0,0,0,0,0,0,0,0,0,0,0,0,0,0,
0,0,0,0,0,0,0,0,0,0,0,0,0,0,0,0,0,0,0,0,0,0,0,0,0,0,0,0,0,0,0,0,0,0,0,0,0,0,0,0,0,0,0,0,0,0,0,0,
0,0,0,0,0,0,0,0,0,0,0,0,0,0,0,0,0,0,0,0,0,0,0,0,0,0,0,0,0,0,0,0,0,0,0,0,0,0,0,0,0,0,0,0,0,0,0,0,
0,0,0,0,0,0,0,0,0,0,0,0,0,0,0,0,0,0,0,0,0,0,0,0,0,0,0,0,0,0,0,0,0,0,0,0,0,0,0,0,0,0,0,0,0,0,0,0,
0,0,0,0,0,0,0,0,0,0,0,0,0,0,0,0,0,0,0,0,0,0,0,0,0,0,0,0,0,0,0,0,0,0,0,0,0,0,0,0,0,0,0,0,0,0,0,0,
0,0,0,0,0,0,0,0,0,0,0,0,0,0,0,0,0,0,0,0,0,0,0,0,0,0,0,0,0,0,0,0,0,0,0,0,0,0,0,0,0,0,0,0,0,0,0,0,
0,0,0,0,0,0,0,0,0,0,0,0,0,0,0,0,0,0,0,0,0,0,0,0,0,0,0,0,0,0,0,0,0,0,0,0,0,0,0,0,0,0,0,0,0,0,0,0,
0,0,0,0,0,0,0,0,0,0,0,0,0,0,0,0,0,0,0,0,0,0,0,0,0,0,0,0,0,0,0,0,0,0,0,0,0,0,0,0,0,0,0,0,0,0,0,0,
0,0,0,0,0,0,0,0,0,0,0,0,0,0,0,0,0,0,0,0,0,0,0,0,0,0,0,0,0,0,0,0,0,0,0,0,0,0,0,0,0,0,0,0,0,0,0,0,
0,0,0,0,0,0,0,0,0,0,0,0,0,0,0,0,0,0,0,0,0,0,0,0,0,0,0,0,0,0,0,0,0,0,0,0,0,0,0,0,0,0,0,0,0,0,0,0,
0,0,0,0,0,0,0,0,0,0,0,0,0,0,0,0,0,0,0,0,0,0,0,0,0,0,0,0,0,0,0,0,0,0,0,0,0,0,0,0,0,0,0,0,0,0,0,0,
0,0,0,0,0,0,0,0,0,0,0,0,0,0,0,0,0,0,0,0,0,0,0,0,0,0,0,0,0,0,0,0,0,0,0,0,0,0,0,0,0,0,0,0,0,0,0,0,
0,0,0,0,0,0,0,0,0,0,0,0,0,0,0,0,0,0,0,0,0,0,0,0,0,0,0,0,0,0,0,0,0,0,0,0,0,0,0,0,0,0,0,0,0,0,0,0,
0,0,0,0,0,0,0,0,0,0,0,0,0,0,0,0,0,0,0,0,0,0,0,0,0,0,0,0,0,0,0,0,0,0,0,0,0,0,0,0,0,0,0,0,0,0,0,0,
0,0,0,0,0,0,0,0,0,0,0,0,0,0,0,0,0,0,0,0,0,0,0,0,0,0,0,0,0,0,0,0,0,0,0,0,0,0,0,0,0,0,0,0,0,0,0,0,
0,0,0,0,0,0,0,0,0,0,0,0,0,0,0,0,0,0,0,0,0,0,0,0,0,0,0,0,0,0,0,0,0,0,0,0,0,0,0,0,0,0,0,0,0,0,0,0,
0,0,0,0,0,0,0,0,0,0,0,0,0,0,0,0,0,0,0,0,0,0,0,0,0,0,0,0,0,0,0,0,0,0,0,0,0,0,0,0,0,0,0,0,0,0,0,0,
0,0,0,0,0,0,0,0,0,0,0,0,0,0,0,0,0,0,0,0,0,0,0,0,0,0,0,0,0,0,0,0,0,0,0,0,0,0,0,0,0,0,0,0,0,0,0,0,
0,0,0,0,0,0,0,0,0,0,0,0,0,0,0,0,0,0,0,0,0,0,0,0,0,0,0,0,0,0,0,0,0,0,0,0,0,0,0,0,0,0,0,0,0,0,0,0,
0,0,0,0,0,0,0,0,0,0,0,0,0,0,0,0,0,0,0,0,0,0,0,0,0,0,0,0,0,0,0,0,0,0,0,0,0,0,0,0,0,0,0,0,0,0,0,0,
0,0,0,0,0,0,0,0,0,0,0,0,0,0,0,0,0,0,0,0,0,0,0,0,0,0,0,0,0,0,0,0,0,0,0,0,0,0,0,0,0,0,0,0,0,0,0,0,
0,0,0,0,0,0,0,0,0,0,0,0,0,0,0,0,0,0,0,0,0,0,0,0,0,0,0,0,0,0,0,0,0,0,0,0,0,0,0,0,0,0,0,0,0,0,0,0,
0,0,0,0,0,0,0,0,0,0,0,0,0,0,0,0,0,0,0,0,0,0,0,0,0,0,0,0,0,0,0,0,0,0,0,0,0,0,0,0,0,0,0,0,0,0,0,0,
0,0,0,0,0,0,0,0,0,0,0,0,0,0,0,0,0,0,0,0,0,0,0,0,0,0,0,0,0,0,0,0,0,0,0,0,0,0,0,0,0,0,0,0,0,0,0,0,
0,0,0,0,0,0,0,0,0,0,0,0,0,0,0,0,0,0,0,0,0,0,0,0,0,0,0,0,0,0,0,0,0,0,0,0,0,0,0,0,0,0,0,0,0,0,0,0,
0,0,0,0,0,0,0,0,0,0,0,0,0,0,0,0,0,0,0,0,0,0,0,0,0,0,0,0,0,0,0,0,0,0,0,0,0,0,0,0,0,0,0,0,0,0,0,0,
0,0,0,0,0,0,0,0,0,0,0,0,0,0,0,0,0,0,0,0,0,0,0,0,0,0,0,0,0,0,0,0,0,0,0,0,0,0,0,0,0,0,0,0,0,0,0,0
</data>
 </layer>
 <layer id="74" name="ground" width="48" height="64">
  <data encoding="csv">
2426,2426,2426,2426,2426,2426,2426,2426,2426,2426,2426,2426,2426,2426,2426,2426,2426,2426,2426,2426,2426,2426,2426,2426,2426,2426,2426,2426,2426,2426,2426,2426,2426,2426,2426,2426,2426,2426,2426,2426,2426,2426,2426,2426,2426,2426,2426,2426,
2426,2426,2426,2426,2426,2426,2426,2426,2426,2426,2426,2426,2426,2426,2426,2426,2426,2426,2426,2426,2426,2426,2426,2426,2426,2426,2426,2426,2426,2426,2426,2426,2426,2426,2426,2426,2426,2426,2426,2426,2426,2426,2426,2426,2426,2426,2426,2426,
2426,2426,2426,2426,2426,2426,2426,2426,2426,2426,2426,2426,2426,2426,2426,2426,2426,2426,2426,2426,2426,2426,2426,2426,2426,2426,2426,2426,2426,2426,2426,2426,2426,2426,2426,2426,2426,2426,2426,2426,2426,2426,2426,2426,2426,2426,2426,2426,
2426,2426,2426,2426,2426,2426,2426,2426,2426,2426,2426,2426,2426,2426,2426,2426,2426,2426,2426,2426,2426,2426,2426,2426,2426,2426,2426,2426,2426,2426,2426,2426,2426,2426,2426,2426,2426,2426,2426,2426,2426,2426,2426,2426,2426,2426,2426,2426,
2426,2426,2426,2426,2426,2426,2426,2426,2426,2426,2426,2426,2426,2426,2426,2426,2426,2426,2426,2426,2426,2426,2426,2426,2426,2426,2426,2426,2426,2426,2426,2426,2426,2426,2426,2426,0,0,0,0,2426,2426,2426,2426,2426,2426,2426,2426,
2426,2426,2426,2426,2426,2426,2426,2426,2426,2426,2426,2426,2426,2426,2426,2426,2426,2426,2426,2426,2426,2426,2426,2426,2426,2426,2426,2426,2426,2426,2426,2426,2426,2426,2426,2426,0,0,0,0,2426,2426,2426,2426,2426,2426,2426,2426,
2426,2426,2426,2426,2426,2426,2426,2426,2426,2426,2426,2426,2426,2426,2426,2426,2426,2426,2426,2426,2426,2426,2426,2426,2426,2426,2426,2426,2426,2426,2426,2426,2426,2426,2426,0,0,0,0,0,2426,2426,2426,2426,2426,2426,2426,2426,
2426,2426,2426,2426,2426,0,0,0,0,0,0,0,0,2426,2426,2426,2426,2426,2426,2426,2426,2426,2426,2426,2426,2426,2426,2426,2426,2426,0,0,0,0,0,0,0,0,0,0,2426,2426,2426,2426,2426,2426,2426,2426,
2426,2426,2426,2426,2426,0,0,0,0,0,0,0,0,0,0,0,2426,2426,2426,2426,2426,2426,2426,2426,2426,2426,2426,2426,2426,2426,0,0,0,0,0,0,0,0,0,0,2426,2426,2426,2426,2426,2426,2426,2426,
2426,2426,2426,0,0,0,0,0,0,0,0,0,0,0,0,0,2426,2426,2426,2426,2426,2426,2426,2426,2426,2426,2426,2426,2426,2426,0,0,0,0,0,0,0,0,0,0,2426,2426,2426,2426,2426,2426,2426,2426,
2426,2426,2426,0,0,0,0,0,0,0,0,0,0,0,0,0,0,0,0,2426,2426,2426,2426,2426,2426,2426,2426,2426,2426,2426,0,0,0,0,0,0,0,0,0,0,2426,2426,2426,2426,2426,2426,2426,2426,
2426,2426,2426,0,0,0,0,0,0,0,0,0,0,0,0,0,0,0,0,2426,2426,2426,2426,2426,2426,2426,2426,2426,2426,0,0,0,0,0,0,0,0,0,0,2426,2426,2426,2426,2426,2426,2426,2426,2426,
2426,2426,2426,0,0,0,0,0,0,0,0,0,0,0,0,0,0,0,0,2426,2426,2426,2426,2426,2426,2426,2426,2426,2426,2426,0,0,0,0,0,2426,2426,2426,2426,2426,2426,2426,2426,2426,2426,2426,2426,2426,
2426,2426,2426,2426,2426,2426,2426,2426,0,0,0,0,0,2426,2426,2426,2426,2426,2426,2426,2426,2426,2426,2426,2426,2426,2426,2426,2426,2426,0,0,0,0,0,2426,2426,2426,2426,2426,2426,2426,2426,2426,2426,2426,2426,2426,
2426,2426,2426,2426,2426,2426,2426,2426,2426,2426,2426,2426,2426,2426,2426,2426,2426,2426,2426,2426,2426,2426,2426,2426,2426,2426,2426,2426,2426,2426,2426,2426,2426,2426,2426,2426,2426,2426,2426,2426,2426,2426,2426,2426,2426,2426,2426,2426,
2426,2426,2426,2426,2426,2426,2426,2426,2426,2426,2426,2426,2426,2426,2426,2426,2426,2426,2426,2426,2426,2426,2426,2426,2426,2426,2426,2426,2426,2426,2426,2426,2426,2426,2426,2426,2426,2426,2426,2426,2426,2426,2426,2426,2426,2426,2426,2426,
2426,2426,2426,2426,2426,2426,2426,2426,2426,2426,2426,2426,2426,2426,2426,2426,2426,2426,2426,2426,2426,2426,2426,2426,2426,2426,2426,2426,2426,2426,2426,2426,2426,2426,2426,2426,2426,2426,2426,2426,2426,2426,2426,2426,2426,2426,2426,2426,
2426,2426,2426,2426,2426,2426,2426,2426,2426,2426,2426,2426,2426,2426,2426,2426,2426,2426,2426,2426,2426,2426,2426,2426,2426,2426,2426,2426,2426,2426,2426,2426,2426,2426,2426,2426,2426,2426,2426,2426,2426,2426,2426,2426,2426,2426,2426,2426,
2426,2426,2426,2426,2426,2426,2426,2426,2426,2426,2426,2426,2426,2426,2426,2426,2426,2426,2426,2426,2426,2426,2426,2426,2426,2426,2426,2426,2426,2426,2426,2426,2426,2426,2426,2426,2426,2426,2426,2426,2426,2426,2426,2426,2426,2426,2426,2426,
2426,2426,2426,2426,2426,2426,2426,2426,2426,2426,2426,2426,2426,2426,2426,2426,2426,2426,2426,2426,2426,2426,2426,2426,2426,2426,2426,2426,2426,2426,2426,2426,2426,2426,2426,2426,2426,2426,2426,2426,2426,2426,2426,2426,2426,2426,2426,2426,
2426,2426,2426,2426,2426,2426,2426,2426,2426,2426,2426,2426,2426,2426,2426,2426,2426,2426,2426,2426,2426,2426,2426,2426,2426,2426,2426,2426,2426,2426,2426,2426,2426,2426,2426,2426,2426,2426,2426,2426,2426,2426,2426,2426,2426,2426,2426,2426,
2426,2426,2426,2426,2426,2426,2426,2426,2426,2426,2426,2426,2426,2426,2426,2426,2426,2426,2426,2426,2426,2426,2426,2426,2426,2426,2426,2426,2426,2426,2426,2426,2426,2426,2426,2426,2426,2426,2426,2426,2426,2426,2426,2426,2426,2426,2426,2426,
2426,2426,2426,2426,2426,2426,2426,2426,2426,2426,2426,2426,2426,2426,2426,2426,2426,2426,2426,2426,2426,2426,2426,2426,2426,2426,2426,2426,2426,2426,2426,2426,2426,2426,2426,2426,2426,2426,2426,2426,2426,2426,2426,2426,2426,2426,2426,2426,
2426,2426,2426,2426,2426,2426,2426,2426,2426,2426,2426,2426,2426,2426,2426,2426,2426,2426,2426,2426,2426,2426,2426,2426,2426,2426,2426,2426,2426,2426,2426,2426,2426,2426,2426,2426,2426,2426,2426,2426,2426,2426,2426,2426,2426,2426,2426,2426,
2426,2426,2426,2426,2426,2426,2426,2426,2426,2426,2426,2426,2426,2426,2426,2426,2426,2426,2426,2426,2426,2426,2426,2426,2426,2426,2426,2311,2311,2311,2426,2426,2426,2426,2426,2426,2426,2426,2426,2426,2311,2311,2311,2311,2311,2311,2426,2426,
2426,2426,2426,2426,2426,2426,2426,2426,2426,2426,2426,2426,2426,2426,2426,2426,2426,2426,2426,2426,2426,2426,2426,2426,2426,2426,2426,2311,2311,2311,0,0,0,0,0,0,0,0,0,0,2311,2311,2311,2311,2311,2311,2426,2426,
2426,2426,2426,2426,2426,2426,2426,2426,2426,2426,2426,2426,2426,2426,2426,2426,2426,2426,2426,2426,2426,2426,2426,2426,2426,2426,2426,0,0,0,0,0,0,0,0,0,0,0,0,0,2311,2311,2311,2311,2311,2311,2426,2426,
2426,2426,2426,2426,2426,2426,2426,2426,2426,2426,2426,2426,2426,2426,2426,2426,2426,2426,2426,2426,2426,2426,2426,2426,2426,2426,2426,0,0,0,0,0,0,0,0,0,0,0,0,0,2311,2311,2311,2311,2311,2311,2426,2426,
2426,2426,2426,2426,2426,2426,2426,2426,2426,2426,2426,2426,2426,2426,2426,2426,2426,2426,2426,2426,2426,2426,2426,2426,2426,2426,2426,0,0,0,0,0,0,0,0,0,0,0,0,0,2311,2311,2311,2311,2311,2311,2426,2426,
2426,2426,2426,2426,2426,2426,2426,2426,2426,2426,2426,2426,2426,2426,2426,2426,2426,2426,2426,2426,2426,2426,2426,2426,2426,2426,2426,0,0,0,0,0,0,0,0,0,0,0,0,0,0,0,0,0,0,0,2426,2426,
2426,2426,2426,2426,2426,2426,2426,2426,2426,2426,2426,2426,2426,2426,2426,2426,2426,2426,2426,2426,2426,2426,2426,2426,2426,2426,2426,0,0,0,0,0,0,0,0,0,0,0,0,0,0,0,0,0,0,0,2426,2426,
2426,2426,2426,2426,2426,2426,2426,2426,2426,2426,2426,2426,2426,2426,2426,2426,2426,2426,2426,2426,2426,2426,2426,2426,2426,2426,2311,0,0,0,0,0,0,0,0,0,0,0,0,0,0,0,0,0,0,0,2426,2426,
2426,2426,2426,2426,2426,2426,2426,2426,2426,2426,2426,2426,2426,2426,2426,2426,2426,2426,2426,2426,2426,2426,2426,2426,2426,2426,2426,2360,0,0,0,0,0,0,0,0,0,0,0,0,0,0,0,0,0,2311,2426,2426,
2426,2426,2426,2426,2426,2426,2426,2426,2426,2426,2426,2426,2426,2426,2426,2426,2426,2426,2426,2426,2426,2426,2426,2426,2426,2426,2426,2311,2311,2311,0,2313,0,0,0,0,0,0,0,0,0,0,2426,2311,2311,2311,2426,2426,
2426,2426,2426,2426,2426,2426,2426,2426,2426,2426,2426,2426,2426,2426,2426,2426,2426,2426,2426,2426,2426,2426,2426,2426,2426,2426,2426,2311,2311,2311,0,2313,0,0,0,0,0,0,0,0,0,0,2426,2311,2311,2311,2426,2426,
2426,2426,2426,2426,2426,2426,2426,2426,2426,2426,2426,2426,2426,2426,2426,2426,2426,2426,2426,2426,2426,2426,2426,2426,2426,2426,2426,2426,2426,2426,2360,2426,2426,2426,2426,2426,2426,2426,2426,2426,2426,2426,2311,2311,2311,2311,2426,2426,
2426,2426,2426,2426,2426,2426,2426,2426,2426,2426,2426,2426,2426,2426,2426,2426,2426,2426,2426,2426,2426,2426,2426,2426,2426,2426,2426,2426,2426,2426,2426,2426,2426,2426,2426,2426,2426,2426,2426,2426,2426,2426,2426,2426,2426,2426,2426,2426,
2426,2426,2426,2426,2426,2426,2426,2426,2426,2426,2426,2426,2426,2426,2426,2426,2426,2426,2426,2426,2426,2426,2426,2426,2426,2426,2426,2426,2426,2426,2426,2426,2426,2426,2426,2426,2426,2426,2426,2426,2426,2426,2426,2426,2426,2426,2426,2426,
2426,2426,2426,2426,2426,2426,2426,2426,2426,2426,2426,2426,2426,2426,2426,2426,2426,2426,2426,2426,2426,2426,2426,2426,2426,2426,2426,2426,2426,2426,2426,2426,2426,2426,2426,2426,2426,2426,2426,2426,2426,2426,2426,2426,2426,2426,2426,2426,
2426,2426,2426,2426,2426,2426,2426,2426,2426,2426,2311,2311,434,434,434,434,434,434,434,2426,2426,2426,2426,2426,2426,2426,2426,2426,2426,2426,2426,2426,2426,2426,2426,2426,2426,2426,2426,2426,2426,2426,2426,2426,2426,2426,2426,2426,
2426,2426,2426,2426,2426,2426,2426,2426,2426,2426,2311,2311,434,434,434,434,434,434,434,2426,2426,2426,2426,2426,2426,2426,2426,2426,2426,2426,2426,2426,2426,2426,2426,2426,2426,2426,2426,2426,2426,2426,2426,2426,2426,2426,2426,2426,
2426,2426,2426,2426,2426,2426,2426,2426,2426,2311,2311,2311,434,434,434,434,434,434,434,2426,2426,2426,2426,2426,2426,2426,2426,2426,2426,2426,2426,2426,2426,2426,2426,2426,2426,2426,2426,2426,2426,2426,2426,2426,2426,2426,2426,2426,
2426,2426,2426,2426,2426,2426,2311,2311,2311,2311,434,434,434,434,434,434,434,434,434,2426,2426,2426,2426,2426,2426,2426,2426,2426,2426,2426,2426,2426,2426,2426,2426,2426,2426,2426,2426,2426,2426,2426,2426,2426,2426,2426,2426,2426,
2426,2426,2426,2426,2426,2426,2426,2426,2426,2426,434,434,434,434,434,434,434,434,434,2426,2426,2426,2426,2426,2426,2426,2426,2426,2426,2426,2426,2426,2426,2426,2426,2426,2426,2426,2426,2426,2426,2426,2426,2426,2426,2426,2426,2426,
2426,2426,2426,2426,2426,2426,2426,2426,2426,2426,434,434,434,434,434,434,434,434,434,2311,2426,2426,2426,2426,2426,2426,2426,2426,2426,2426,2426,2426,2426,2426,2426,2426,2426,2426,2426,2426,2426,2426,2426,2426,2426,2426,2426,2426,
2426,2426,2426,2426,2426,2426,2426,2426,2426,2426,434,434,434,434,434,434,434,434,434,2426,2426,2426,2426,2426,2426,2426,2426,2426,2426,2426,2426,2426,2426,2426,2426,2426,2426,2426,2426,2426,2426,2426,2426,2426,2426,2426,2426,2426,
2426,2426,2426,2426,2426,2426,2426,2426,2426,2426,434,434,434,434,434,434,434,434,434,2426,2426,2426,2426,2426,2426,2426,2426,2426,2426,2426,2426,2426,2426,2426,2426,2426,2426,2426,2426,2426,2426,2426,2426,2426,2426,2426,2426,2426,
2426,2426,2426,2426,2426,2426,2426,2426,2426,2426,434,434,434,434,434,434,434,434,434,2311,2311,2426,2426,2426,2426,2426,2426,2426,2426,2426,2426,2426,2426,2426,2426,2426,2426,2426,2426,2426,2426,2426,2426,2426,2426,2426,2426,2426,
2426,2426,2426,2426,2426,2426,2426,2426,2426,2426,434,434,434,434,434,434,434,434,434,2426,2426,2426,2426,2426,2426,2426,2426,2426,2426,2426,2426,2426,2426,2426,2426,2426,2426,2426,2426,2426,2426,2426,2426,2426,2426,2426,2426,2426,
2426,2426,2426,2426,2426,2426,2426,2426,2426,2426,434,434,434,434,434,434,434,434,434,2426,2426,2426,2426,2426,2426,2426,2426,2426,2426,2426,2426,2426,2426,2426,2426,2426,2426,2426,2426,2426,2426,2426,2426,2426,2426,2426,2426,2426,
2426,2426,2426,2426,2426,2426,2426,2426,2426,2311,2311,2311,2311,434,434,434,434,434,434,2426,2426,2426,2426,2426,2426,2426,2426,2426,2426,2426,2426,2426,2426,2426,2426,2426,2426,2426,2426,2426,2426,2426,2426,2426,2426,2426,2426,2426,
2426,2426,2426,2426,2426,2426,2426,2426,2426,2426,2311,2311,2311,434,434,434,434,434,434,2426,2426,2426,2426,2426,2426,2426,2426,2426,2426,2426,2426,2426,2426,2426,2426,2426,2426,2426,2426,2426,2426,2426,2426,2426,2426,2426,2426,2426,
2426,2426,2426,2426,2426,2426,2426,2426,2426,2426,434,434,434,434,434,434,434,434,434,2426,2426,2426,2426,2426,2426,2426,2426,2426,2426,2426,2426,2426,2426,2426,2426,2426,2426,2426,2426,2426,2426,2426,2426,2426,2426,2426,2426,2426,
2426,2426,2426,2426,2426,2426,2426,2426,2426,2426,434,434,434,434,434,434,434,434,434,2426,2426,2426,2426,2426,2426,2426,2426,2426,2426,2426,2426,2426,2426,2426,2426,2426,2426,2426,2426,2426,2426,2426,2426,2426,2426,2426,2426,2426,
2426,2426,2426,2426,2426,2426,2426,2426,2426,2426,434,434,434,434,434,434,434,434,434,2426,2426,2426,2426,2426,2426,2426,2426,2426,2426,2426,2426,2426,2426,2426,2426,2426,2426,2426,2426,2426,2426,2426,2426,2426,2426,2426,2426,2426,
2426,2426,2426,2426,2426,2426,2426,2426,2426,2426,2426,2426,2426,2426,2426,2426,2426,2426,2426,2426,2426,2426,2426,2426,2426,2426,2426,2426,2426,2426,2426,2426,2426,2426,2426,2426,2426,2426,2426,2426,2426,2426,2426,2426,2426,2426,2426,2426,
2426,2426,2426,2426,2426,2426,2426,2426,2426,2426,2426,2426,2426,2426,2426,2426,2426,2426,2426,2426,2426,2426,2426,2426,2426,2426,2426,2426,2426,2426,2426,2426,2426,2426,2426,2426,2426,2426,2426,2426,2426,2426,2426,2426,2426,2426,2426,2426,
2426,2426,2426,2426,2426,2426,2426,2426,2426,2426,2426,2426,2426,2426,2426,2426,2426,2426,2426,2426,2426,2426,2426,2426,2426,2426,2426,2426,2426,2426,2426,2426,2426,2426,2426,2426,2426,2426,2426,2426,2426,2426,2426,2426,2426,2426,2426,2426,
2426,2426,2426,2426,2426,2426,2426,2426,2426,2426,2426,2426,2426,2426,2426,2426,2426,2426,2426,2426,2426,2426,2426,2426,2426,2426,2426,2426,2426,2426,2426,2426,2426,2426,2426,2426,2426,2426,2426,2426,2426,2426,2426,2426,2426,2426,2426,2426,
2426,2426,2426,2426,2426,2426,2426,2426,2426,2426,2426,2426,2426,2426,2426,2426,2426,2426,2426,2426,2426,2426,2426,2426,2426,2426,2426,2426,2426,2426,2426,2426,2426,2426,2426,2426,2426,2426,2426,2426,2426,2426,2426,2426,2426,2426,2426,2426,
2426,2426,2426,2426,2426,2426,2426,2426,2426,2426,2426,2426,2426,2426,2426,2426,2426,2426,2426,2426,2426,2426,2426,2426,2426,2426,2426,2426,2426,2426,2426,2426,2426,2426,2426,2426,2426,2426,2426,2426,2426,2426,2426,2426,2426,2426,2426,2426,
2426,2426,2426,2426,2426,2426,2426,2426,2426,2426,2426,2426,2426,2426,2426,2426,2426,2426,2426,2426,2426,2426,2426,2426,2426,2426,2426,2426,2426,2426,2426,2426,2426,2426,2426,2426,2426,2426,2426,2426,2426,2426,2426,2426,2426,2426,2426,2426,
2426,2426,2426,2426,2426,2426,2426,2426,2426,2426,2426,2426,2426,2426,2426,2426,2426,2426,2426,2426,2426,2426,2426,2426,2426,2426,2426,2426,2426,2426,2426,2426,2426,2426,2426,2426,2426,2426,2426,2426,2426,2426,2426,2426,2426,2426,2426,2426,
2426,2426,2426,2426,2426,2426,2426,2426,2426,2426,2426,2426,2426,2426,2426,2426,2426,2426,2426,2426,2426,2426,2426,2426,2426,2426,2426,2426,2426,2426,2426,2426,2426,2426,2426,2426,2426,2426,2426,2426,2426,2426,2426,2426,2426,2426,2426,2426
</data>
 </layer>
 <layer id="100" name="bridge_edges" width="48" height="64" visible="0">
  <data encoding="csv">
0,0,0,0,0,0,0,0,0,0,0,0,0,0,0,0,0,0,0,0,0,0,0,0,0,0,0,0,0,0,0,0,0,0,0,0,0,0,0,0,0,0,0,0,0,0,0,0,
0,0,0,0,0,0,0,0,0,0,0,0,0,0,0,0,0,0,0,0,0,0,0,0,0,0,0,0,0,0,0,0,0,0,0,0,0,0,0,0,0,0,0,0,0,0,0,0,
0,0,0,0,0,0,0,0,0,0,0,0,0,0,0,0,0,0,0,0,0,0,0,0,0,0,0,0,0,0,0,0,0,0,0,0,0,0,0,0,0,0,0,0,0,0,0,0,
0,0,0,0,0,0,0,0,0,0,0,0,0,0,0,0,0,0,0,0,0,0,0,0,0,0,0,0,0,0,0,0,0,0,0,0,0,0,0,0,0,0,0,0,0,0,0,0,
0,0,0,0,0,0,0,0,0,0,0,0,0,0,0,0,0,0,0,0,0,0,0,0,0,0,0,0,0,0,0,0,0,0,0,0,0,0,0,0,0,0,0,0,0,0,0,0,
0,0,0,0,0,0,0,0,0,0,0,0,0,0,0,0,0,0,0,0,0,0,0,0,0,0,0,0,0,0,0,0,0,0,0,0,0,0,0,0,0,0,0,0,0,0,0,0,
0,0,0,0,0,0,0,0,0,0,0,0,0,0,0,0,0,0,0,0,0,0,0,0,0,0,0,0,0,0,0,0,0,0,0,0,0,0,0,0,0,0,0,0,0,0,0,0,
0,0,0,0,0,2291,2334,2334,2334,2334,2334,2334,2294,0,0,0,0,0,0,0,0,0,0,0,0,0,0,0,0,0,0,0,0,0,0,0,0,0,0,0,0,0,0,0,0,0,0,0,
0,0,0,0,0,2312,0,0,0,0,0,0,2333,2334,2334,2294,0,0,0,0,0,0,0,0,0,0,0,0,0,0,0,0,0,0,0,0,0,0,0,0,0,0,0,0,0,0,0,0,
0,0,0,2291,2292,2335,0,0,0,0,0,0,0,0,0,2317,0,0,0,0,0,0,0,0,0,0,0,0,0,0,0,0,0,0,0,0,0,0,0,0,0,0,0,0,0,0,0,0,
0,0,0,2314,0,0,0,0,0,0,0,0,0,0,0,2333,2334,2334,2294,0,0,0,0,0,0,0,0,0,0,0,0,0,0,0,0,0,2265,2265,2287,0,0,0,0,0,0,0,0,0,
0,0,0,2337,2265,2265,2265,2265,2266,0,0,0,2264,2265,2265,2265,2265,2265,2317,0,0,0,0,0,0,0,0,0,0,0,0,0,0,0,0,0,2288,2288,0,0,0,0,0,0,0,0,0,0,
0,0,0,2360,2288,2288,2288,2288,2289,0,0,0,2287,2288,2288,2288,2288,2288,2363,0,0,0,0,0,0,0,0,0,0,0,0,0,0,0,0,0,0,0,0,0,0,0,0,0,0,0,0,0,
0,0,0,0,0,0,0,0,2360,2362,2362,2362,2363,0,0,0,0,0,0,0,0,0,0,0,0,0,0,0,0,0,0,0,0,0,0,0,0,0,0,0,0,0,0,0,0,0,0,0,
0,0,0,0,0,0,0,0,0,0,0,0,0,0,0,0,0,0,0,0,0,0,0,0,0,0,0,0,0,0,0,0,0,0,0,0,0,0,0,0,0,0,0,0,0,0,0,0,
0,0,0,0,0,0,0,0,0,0,0,0,0,0,0,0,0,0,0,0,0,0,0,0,0,0,0,0,0,0,0,0,0,0,0,0,0,0,0,0,0,0,0,0,0,0,0,0,
0,0,0,0,0,0,0,0,0,0,0,0,0,0,0,0,0,0,0,0,0,0,0,0,0,0,0,0,0,0,0,0,0,0,0,0,0,0,0,0,0,0,0,0,0,0,0,0,
0,0,0,0,0,0,0,0,0,0,0,0,0,0,0,0,0,0,0,0,0,0,0,0,0,0,0,0,0,0,0,0,0,0,0,0,0,0,0,0,0,0,0,0,0,0,0,0,
0,0,0,0,0,0,0,0,0,0,0,0,0,0,0,0,0,0,0,0,0,0,0,0,0,0,0,0,0,0,0,0,0,0,0,0,0,0,0,0,0,0,0,0,0,0,0,0,
0,0,0,0,0,0,0,0,0,0,0,0,0,0,0,0,0,0,0,0,0,0,0,0,0,0,0,0,0,0,0,0,0,0,0,0,0,0,0,0,0,0,0,0,0,0,0,0,
0,0,0,0,0,0,0,0,0,0,0,0,0,0,0,0,0,0,0,0,0,0,0,0,0,0,0,0,0,0,0,0,0,0,0,0,0,0,0,0,0,0,0,0,0,0,0,0,
0,0,0,0,0,0,0,0,0,0,0,0,0,0,0,0,0,0,0,0,0,0,0,0,0,0,0,0,0,0,0,0,0,0,0,0,0,0,0,0,0,0,0,0,0,0,0,0,
0,0,0,0,0,0,0,0,0,0,0,0,0,0,0,0,0,0,0,0,0,0,0,0,0,0,0,0,0,0,0,0,0,0,0,0,0,0,0,0,0,0,0,0,0,0,0,0,
0,0,0,0,0,0,0,0,0,0,0,0,0,0,0,0,0,0,0,0,0,0,0,0,0,0,0,0,0,0,0,0,0,0,0,0,0,0,0,0,0,0,0,0,0,0,0,0,
0,0,0,0,0,0,0,0,0,0,0,0,0,0,0,0,0,0,0,0,0,0,0,0,0,0,0,0,0,2291,2334,2334,2334,2334,2334,2334,2334,2334,2334,2294,0,0,0,0,0,0,0,0,
0,0,0,0,0,0,0,0,0,0,0,0,0,0,0,0,0,0,0,0,0,0,0,0,0,0,2311,0,0,2314,2357,2357,2357,2329,2330,2357,2357,2357,2357,2317,0,0,0,0,0,0,0,0,
0,0,0,0,0,0,0,0,0,0,0,0,0,0,0,0,0,0,0,0,0,0,0,0,0,0,2311,2291,2292,2335,0,0,0,2352,2353,0,0,0,0,2317,0,0,0,0,0,0,0,0,
0,0,0,0,0,0,0,0,0,0,0,0,0,0,0,0,0,0,0,0,0,0,0,0,0,0,2311,2314,2315,0,0,0,0,2352,2353,0,0,0,0,2317,0,0,0,0,0,0,0,0,
0,0,0,0,0,0,0,0,0,0,0,0,0,0,0,0,0,0,0,0,0,0,0,0,0,0,2311,2314,0,0,0,0,0,2352,2353,0,0,0,0,2340,0,0,0,0,0,0,0,0,
0,0,0,0,0,0,0,0,0,0,0,0,0,0,0,0,0,0,0,0,0,0,0,0,0,0,2311,2314,0,0,0,0,0,2352,2353,0,0,0,0,2323,2292,2292,2292,2292,2292,2294,0,0,
0,0,0,0,0,0,0,0,0,0,0,0,0,0,0,0,0,0,0,0,0,0,0,0,0,0,2311,2314,0,0,0,0,0,2352,2353,0,0,0,0,0,0,0,0,0,0,2340,0,0,
0,0,0,0,0,0,0,0,0,0,0,0,0,0,0,0,0,0,0,0,0,0,0,0,0,0,2311,2337,0,2265,2266,0,0,2352,2353,0,0,0,0,0,0,0,0,0,0,2317,0,0,
0,0,0,0,0,0,0,0,0,0,0,0,0,0,0,0,0,0,0,0,0,0,0,0,0,0,2311,0,0,2288,2289,0,0,2352,2353,0,0,0,0,0,0,2287,2362,2362,2362,2363,0,0,
0,0,0,0,0,0,0,0,0,0,0,0,0,0,0,0,0,0,0,0,0,0,0,0,0,0,2311,0,0,0,0,0,0,2352,2353,0,0,0,0,0,0,2317,0,0,0,0,0,0,
0,0,0,0,0,0,0,0,0,0,0,0,0,0,0,0,0,0,0,0,0,0,0,0,0,0,2311,0,0,0,0,2265,2265,2375,2376,2265,2265,2265,2265,2265,2265,2340,0,0,0,0,0,0,
0,0,0,0,0,0,0,0,0,0,0,0,0,0,0,0,0,0,0,0,0,0,0,0,0,0,0,0,0,0,0,2288,2288,2288,2288,2288,2288,2288,2288,2288,2288,2363,0,0,0,0,0,0,
0,0,0,0,0,0,0,0,0,0,0,0,0,0,0,0,0,0,0,0,0,0,0,0,0,0,0,0,0,0,0,0,0,0,0,0,0,0,0,0,0,0,0,0,0,0,0,0,
0,0,0,0,0,0,0,0,0,0,0,0,0,0,0,0,0,0,0,0,0,0,0,0,0,0,0,0,0,0,0,0,0,0,0,0,0,0,0,0,0,0,0,0,0,0,0,0,
0,0,0,0,0,0,0,0,0,0,0,0,0,0,0,0,0,0,0,0,0,0,0,0,0,0,0,0,0,0,0,0,0,0,0,0,0,0,0,0,0,0,0,0,0,0,0,0,
0,0,0,0,0,0,0,0,0,0,0,0,0,0,0,0,0,0,0,0,0,0,0,0,0,0,0,0,0,0,0,0,0,0,0,0,0,0,0,0,0,0,0,0,0,0,0,0,
0,0,0,0,0,0,0,0,0,0,0,0,0,0,0,0,0,0,0,0,0,0,0,0,0,0,0,0,0,0,0,0,0,0,0,0,0,0,0,0,0,0,0,0,0,0,0,0,
0,0,0,0,0,0,0,0,0,0,0,0,0,0,0,0,0,0,0,0,0,0,0,0,0,0,0,0,0,0,0,0,0,0,0,0,0,0,0,0,0,0,0,0,0,0,0,0,
0,0,0,0,0,0,0,0,0,0,0,0,0,0,0,0,0,0,0,0,0,0,0,0,0,0,0,0,0,0,0,0,0,0,0,0,0,0,0,0,0,0,0,0,0,0,0,0,
0,0,0,0,0,0,0,0,0,0,0,0,0,0,0,0,0,0,0,0,0,0,0,0,0,0,0,0,0,0,0,0,0,0,0,0,0,0,0,0,0,0,0,0,0,0,0,0,
0,0,0,0,0,0,0,0,0,0,0,0,0,0,0,0,0,0,0,0,0,0,0,0,0,0,0,0,0,0,0,0,0,0,0,0,0,0,0,0,0,0,0,0,0,0,0,0,
0,0,0,0,0,0,0,0,0,0,0,0,0,0,0,0,0,0,0,0,0,0,0,0,0,0,0,0,0,0,0,0,0,0,0,0,0,0,0,0,0,0,0,0,0,0,0,0,
0,0,0,0,0,0,0,0,0,0,0,0,0,0,0,0,0,0,0,0,0,0,0,0,0,0,0,0,0,0,0,0,0,0,0,0,0,0,0,0,0,0,0,0,0,0,0,0,
0,0,0,0,0,0,0,0,0,0,0,0,0,0,0,0,0,0,0,0,0,0,0,0,0,0,0,0,0,0,0,0,0,0,0,0,0,0,0,0,0,0,0,0,0,0,0,0,
0,0,0,0,0,0,0,0,0,0,0,0,0,0,0,0,0,0,0,0,0,0,0,0,0,0,0,0,0,0,0,0,0,0,0,0,0,0,0,0,0,0,0,0,0,0,0,0,
0,0,0,0,0,0,0,0,0,0,0,0,0,0,0,0,0,0,0,0,0,0,0,0,0,0,0,0,0,0,0,0,0,0,0,0,0,0,0,0,0,0,0,0,0,0,0,0,
0,0,0,0,0,0,0,0,0,0,0,0,0,0,0,0,0,0,0,0,0,0,0,0,0,0,0,0,0,0,0,0,0,0,0,0,0,0,0,0,0,0,0,0,0,0,0,0,
0,0,0,0,0,0,0,0,0,0,0,0,0,0,0,0,0,0,0,0,0,0,0,0,0,0,0,0,0,0,0,0,0,0,0,0,0,0,0,0,0,0,0,0,0,0,0,0,
0,0,0,0,0,0,0,0,0,0,0,0,0,0,0,0,0,0,0,0,0,0,0,0,0,0,0,0,0,0,0,0,0,0,0,0,0,0,0,0,0,0,0,0,0,0,0,0,
0,0,0,0,0,0,0,0,0,0,0,0,0,0,0,0,0,0,0,0,0,0,0,0,0,0,0,0,0,0,0,0,0,0,0,0,0,0,0,0,0,0,0,0,0,0,0,0,
0,0,0,0,0,0,0,0,0,0,0,0,0,0,0,0,0,0,0,0,0,0,0,0,0,0,0,0,0,0,0,0,0,0,0,0,0,0,0,0,0,0,0,0,0,0,0,0,
0,0,0,0,0,0,0,0,0,0,0,0,0,0,0,0,0,0,0,0,0,0,0,0,0,0,0,0,0,0,0,0,0,0,0,0,0,0,0,0,0,0,0,0,0,0,0,0,
0,0,0,0,0,0,0,0,0,0,0,0,0,0,0,0,0,0,0,0,0,0,0,0,0,0,0,0,0,0,0,0,0,0,0,0,0,0,0,0,0,0,0,0,0,0,0,0,
0,0,0,0,0,0,0,0,0,0,0,0,0,0,0,0,0,0,0,0,0,0,0,0,0,0,0,0,0,0,0,0,0,0,0,0,0,0,0,0,0,0,0,0,0,0,0,0,
0,0,0,0,0,0,0,0,0,0,0,0,0,0,0,0,0,0,0,0,0,0,0,0,0,0,0,0,0,0,0,0,0,0,0,0,0,0,0,0,0,0,0,0,0,0,0,0,
0,0,0,0,0,0,0,0,0,0,0,0,0,0,0,0,0,0,0,0,0,0,0,0,0,0,0,0,0,0,0,0,0,0,0,0,0,0,0,0,0,0,0,0,0,0,0,0,
0,0,0,0,0,0,0,0,0,0,0,0,0,0,0,0,0,0,0,0,0,0,0,0,0,0,0,0,0,0,0,0,0,0,0,0,0,0,0,0,0,0,0,0,0,0,0,0,
0,0,0,0,0,0,0,0,0,0,0,0,0,0,0,0,0,0,0,0,0,0,0,0,0,0,0,0,0,0,0,0,0,0,0,0,0,0,0,0,0,0,0,0,0,0,0,0,
0,0,0,0,0,0,0,0,0,0,0,0,0,0,0,0,0,0,0,0,0,0,0,0,0,0,0,0,0,0,0,0,0,0,0,0,0,0,0,0,0,0,0,0,0,0,0,0,
0,0,0,0,0,0,0,0,0,0,0,0,0,0,0,0,0,0,0,0,0,0,0,0,0,0,0,0,0,0,0,0,0,0,0,0,0,0,0,0,0,0,0,0,0,0,0,0
</data>
 </layer>
 <layer id="101" name="upper_level_1" width="48" height="64">
  <data encoding="csv">
0,0,0,0,0,0,0,0,0,0,0,0,0,0,0,0,0,0,0,0,0,0,0,0,0,0,0,0,0,0,0,0,0,0,0,0,0,0,0,0,0,0,0,0,0,0,0,0,
0,0,0,0,0,0,0,0,0,0,0,0,0,0,0,0,0,0,0,0,0,0,0,0,0,0,0,0,0,0,0,0,0,0,0,0,0,0,0,0,0,0,0,0,0,0,0,0,
0,0,0,0,0,0,0,0,0,0,0,0,0,0,0,0,0,0,0,0,0,0,0,0,0,0,0,0,0,0,0,0,0,0,0,0,0,0,0,0,0,0,0,0,0,0,0,0,
0,0,0,0,0,0,0,0,0,0,0,0,0,0,0,0,0,0,0,0,0,0,0,0,0,0,0,0,0,0,0,0,0,0,0,0,0,0,0,0,0,0,0,0,0,0,0,0,
0,0,0,0,0,0,0,0,0,0,0,0,0,0,0,0,0,0,0,0,0,0,0,0,0,0,0,0,0,0,0,0,0,0,0,0,0,0,0,0,0,0,0,0,0,0,0,0,
0,0,0,0,0,0,0,0,0,0,0,0,0,0,0,0,0,0,0,0,0,0,0,0,0,0,0,0,0,0,0,0,0,0,0,0,0,0,0,0,0,0,0,0,0,0,0,0,
0,0,0,0,0,0,0,0,0,0,0,0,0,0,0,0,0,0,0,0,0,0,0,0,0,0,0,0,0,0,0,0,0,0,0,0,0,0,0,0,0,0,0,0,0,0,0,0,
0,0,0,0,0,0,0,0,0,0,0,0,0,0,0,0,0,0,0,0,0,0,0,0,0,0,0,0,0,0,0,0,0,0,0,0,0,0,0,0,0,0,0,0,0,0,0,0,
0,0,0,0,0,0,0,0,0,0,0,0,0,0,0,0,0,0,0,0,0,0,0,0,0,0,0,0,0,0,0,0,0,0,0,0,0,0,0,0,0,0,0,0,0,0,0,0,
0,0,0,0,0,0,0,0,0,0,0,0,0,0,0,0,0,0,0,0,0,0,0,0,0,0,0,0,0,0,0,0,0,0,0,0,0,0,0,0,0,0,0,0,0,0,0,0,
0,0,0,0,0,0,0,0,0,0,0,0,0,0,0,0,0,0,0,0,0,0,0,0,0,0,0,0,0,0,0,0,0,0,0,0,0,0,0,0,0,0,0,0,0,0,0,0,
0,0,0,0,0,0,0,0,0,0,0,0,0,0,0,0,0,0,0,0,0,0,0,0,0,0,0,0,0,0,0,0,0,0,0,0,0,0,0,0,0,0,0,0,0,0,0,0,
0,0,0,0,0,0,0,0,0,0,0,0,0,0,0,0,0,0,0,0,0,0,0,0,0,0,0,0,0,0,0,0,0,0,0,0,0,0,0,0,0,0,0,0,0,0,0,0,
0,0,0,0,0,0,0,0,0,0,0,0,0,0,0,0,0,0,0,0,0,0,0,0,0,0,0,0,0,0,0,0,0,0,0,0,0,0,0,0,0,0,0,0,0,0,0,0,
0,0,0,0,0,0,0,0,0,0,0,0,0,0,0,0,0,0,0,0,0,0,0,0,0,0,0,0,0,0,0,0,0,0,0,0,0,0,0,0,0,0,0,0,0,0,0,0,
0,0,0,0,0,0,0,0,0,0,0,0,0,0,0,0,0,0,0,0,0,0,0,0,0,0,0,0,0,0,0,0,0,0,0,0,0,0,0,0,0,0,0,0,0,0,0,0,
0,0,0,0,0,0,0,0,0,0,0,0,0,0,0,0,0,0,0,0,0,0,0,0,0,0,0,0,0,0,0,0,0,0,0,0,0,0,0,0,0,0,0,0,0,0,0,0,
0,0,0,0,262,263,264,265,266,267,268,269,270,0,0,0,0,0,0,0,0,0,0,0,0,0,0,0,0,0,0,0,0,0,0,0,0,0,0,0,0,0,0,0,0,0,0,0,
0,0,1,2,288,289,290,291,292,293,294,295,296,3,3,3,3,3,3,3,3,4,5,0,0,0,0,0,0,0,0,0,0,0,0,0,0,0,0,0,0,0,0,0,0,0,0,0,
0,0,27,28,314,315,316,317,318,319,320,321,322,29,29,29,29,29,29,29,29,30,31,0,0,0,0,0,0,0,0,0,0,0,0,0,0,0,0,0,0,0,0,0,0,0,0,0,
0,0,53,54,340,341,342,343,344,345,346,347,348,0,0,0,0,0,0,0,0,56,57,0,0,0,0,0,0,0,0,0,0,0,0,0,0,0,0,0,0,0,0,0,0,0,0,0,
0,0,53,54,1469,1501,1502,1501,1502,1501,1502,1471,0,0,0,0,0,0,0,0,0,56,57,0,0,0,0,0,0,0,0,0,0,0,0,0,0,0,0,0,0,0,0,0,0,0,0,0,
0,0,53,54,1495,1496,1496,1496,1496,1496,1496,1497,0,0,0,0,0,0,0,0,0,56,57,0,0,0,0,0,0,0,0,0,0,0,0,0,0,0,0,0,0,0,0,0,0,0,0,0,
0,0,53,54,1495,1496,1496,1496,1496,1496,1496,1497,0,0,0,0,0,0,0,0,0,56,57,0,0,0,0,0,0,0,0,0,0,0,0,0,0,0,0,0,0,0,0,0,0,0,0,0,
0,0,53,54,1495,1496,1496,1496,1496,1496,1496,1479,1501,1502,1501,1502,1501,1502,1471,0,0,56,57,0,0,0,0,0,0,0,0,0,0,0,0,0,0,0,0,0,0,0,0,0,0,0,0,0,
0,0,53,54,1495,1496,1496,1496,1496,1496,1497,1505,1496,1496,1496,1496,1496,1496,1497,0,0,56,57,0,0,0,0,0,0,0,0,0,0,0,0,0,0,0,0,0,0,0,0,0,0,0,0,0,
0,0,79,80,1521,1527,1528,1527,1527,1528,1523,1505,1496,1496,1496,1496,1496,1496,1497,0,0,56,57,0,0,0,0,0,0,0,0,0,0,0,0,0,0,0,0,0,0,0,0,0,0,0,0,0,
0,0,105,106,397,398,0,0,0,0,0,1505,1496,1496,1496,1496,1496,1496,1497,0,0,56,57,0,0,0,0,0,0,0,0,0,0,0,0,0,0,0,0,0,0,0,0,0,0,0,0,0,
0,0,131,132,423,424,0,0,0,0,0,1495,1496,1496,1496,1496,1496,1496,1497,0,0,56,57,0,0,0,0,0,0,0,0,0,0,0,0,0,0,0,0,0,0,0,0,0,0,0,0,0,
0,0,0,0,449,450,397,398,0,0,0,1521,1522,1522,1522,1522,1522,1522,1523,0,0,56,57,0,0,0,0,0,0,0,0,0,0,0,0,0,0,0,0,0,0,0,0,0,0,0,0,0,
0,0,0,0,475,476,423,424,0,0,0,0,0,0,0,0,0,0,0,0,0,56,57,0,0,0,0,0,0,0,0,0,0,0,0,0,0,0,0,0,0,0,0,0,0,0,0,0,
0,0,0,0,0,0,449,450,0,0,0,0,0,0,0,0,0,38,39,40,41,56,57,0,0,0,0,0,0,0,0,0,0,0,0,0,0,0,0,0,0,0,0,0,0,0,0,0,
0,0,0,0,0,0,475,476,80,43,44,45,46,43,44,45,46,64,65,66,67,82,83,0,0,0,0,0,0,0,0,0,0,0,0,0,0,0,0,0,0,0,0,0,0,0,0,0,
0,0,0,0,0,0,0,105,106,69,70,71,72,69,70,71,72,90,91,92,93,108,109,0,0,0,0,0,0,0,0,0,0,0,0,0,0,0,0,0,0,0,0,0,0,0,0,0,
0,0,0,0,0,0,0,131,132,95,96,97,98,95,96,97,98,116,117,118,119,134,135,0,0,0,0,0,0,0,0,0,0,0,0,0,0,0,0,0,0,0,0,0,0,0,0,0,
0,0,0,0,0,0,0,157,158,121,122,123,124,121,122,123,124,0,0,0,0,0,0,0,0,0,0,0,0,0,0,0,0,0,0,0,0,0,0,0,0,0,0,0,0,0,0,0,
0,0,0,0,0,0,0,0,0,0,0,0,0,0,0,0,0,0,0,0,0,0,0,0,0,0,0,0,0,0,0,0,0,0,0,0,0,0,0,0,0,0,0,0,0,0,0,0,
0,0,0,0,0,0,0,0,0,0,0,0,0,0,0,0,0,0,0,0,0,0,0,0,0,0,0,0,0,0,0,0,0,0,0,0,0,0,0,0,0,0,0,0,0,0,0,0,
0,0,0,0,0,0,0,0,0,0,0,0,0,0,0,0,0,0,0,0,0,0,0,0,0,0,0,0,0,0,0,0,0,0,0,0,0,0,0,0,0,0,0,0,0,0,0,0,
0,0,0,0,0,0,0,0,0,0,0,0,0,0,0,0,0,0,0,0,0,0,0,0,0,0,0,0,0,0,0,0,0,0,0,0,0,0,0,0,0,0,0,0,0,0,0,0,
0,0,0,0,0,0,0,0,0,0,0,0,0,0,0,0,0,0,0,0,0,0,0,0,0,0,0,0,0,0,0,0,0,0,0,0,0,0,0,0,0,0,0,0,0,0,0,0,
0,0,0,0,0,0,0,0,0,0,0,0,0,0,0,0,0,0,0,0,0,0,0,0,0,0,0,0,0,0,0,0,0,844,845,846,847,0,0,0,844,845,846,847,0,0,0,0,
0,0,0,0,0,0,0,0,0,0,0,0,0,0,0,0,0,0,0,0,0,0,0,0,0,0,0,0,547,548,840,841,842,870,871,872,873,708,709,710,870,871,872,873,550,551,0,0,
0,0,0,0,0,0,0,0,0,0,0,0,0,0,0,0,0,0,0,0,0,0,0,0,0,0,0,547,573,574,866,867,868,896,897,898,899,734,735,736,896,897,898,899,576,577,0,0,
0,0,0,0,0,0,0,0,0,0,0,0,0,0,0,0,0,0,0,0,0,0,0,0,0,0,0,573,574,524,892,893,894,524,524,524,524,760,761,762,524,524,524,524,602,603,0,0,
0,0,0,0,0,0,0,0,0,0,0,0,0,0,0,0,0,0,0,0,0,0,0,0,0,0,0,599,600,524,524,524,524,524,524,524,524,786,787,788,524,524,524,524,602,603,0,0,
0,0,0,0,0,0,0,0,0,0,0,0,0,0,0,0,0,0,0,0,0,0,0,0,0,0,0,599,600,524,524,528,528,528,524,524,524,524,524,524,524,524,524,528,602,603,0,0,
0,0,0,0,0,0,0,0,0,0,0,0,0,0,0,0,0,0,0,0,0,0,0,0,0,0,0,599,600,524,524,524,524,524,524,524,524,524,528,528,524,524,524,528,602,603,0,0,
0,0,0,0,0,0,0,0,0,0,0,0,0,0,0,0,0,0,0,0,0,0,0,0,0,0,0,599,600,524,524,524,524,524,524,524,524,524,528,528,524,524,524,528,602,603,0,0,
0,0,0,0,0,0,0,0,0,0,0,0,0,0,0,0,0,0,0,0,0,0,0,0,0,0,0,599,600,524,524,524,524,524,524,524,524,524,524,524,524,524,524,528,602,603,0,0,
0,0,0,0,0,0,0,0,0,0,0,0,0,0,0,0,0,0,0,0,0,0,0,0,0,0,0,599,600,524,524,524,524,528,524,524,528,524,524,524,524,524,524,524,602,603,0,0,
0,0,0,0,0,0,0,0,0,0,0,0,0,0,0,0,0,0,0,0,0,0,0,0,0,0,0,599,600,524,524,524,524,524,524,524,524,524,524,524,524,524,524,524,602,603,0,0,
0,0,0,0,0,0,0,0,0,0,0,0,0,0,0,0,0,0,0,0,0,0,0,0,0,0,0,599,600,584,585,586,587,585,586,585,586,585,586,524,584,585,586,587,602,603,0,0,
0,0,0,0,0,0,0,0,0,0,0,0,0,0,0,0,0,0,0,0,0,0,0,0,0,0,0,625,626,610,611,612,613,611,612,611,612,611,612,586,610,611,612,613,628,629,0,0,
0,0,0,0,0,0,0,0,0,0,0,0,0,0,0,0,0,0,0,0,0,0,0,0,0,0,0,651,652,636,637,638,639,637,638,637,638,637,638,612,636,637,638,639,654,655,0,0,
0,0,0,0,0,0,0,0,0,0,0,0,0,0,0,0,0,0,0,0,0,0,0,0,0,0,0,677,678,662,663,664,665,663,664,663,664,663,664,638,662,663,664,665,680,681,0,0,
0,0,0,0,0,0,0,0,0,0,0,0,0,0,0,0,0,0,0,0,0,0,0,0,0,0,0,703,704,688,689,690,691,0,0,0,0,0,0,664,688,689,690,691,706,707,0,0,
0,0,0,0,0,0,0,0,0,0,0,0,0,0,0,0,0,0,0,0,0,0,0,0,0,0,0,0,0,0,0,0,0,0,0,0,0,0,0,0,0,0,0,0,0,0,0,0,
0,0,0,0,0,0,0,0,0,0,0,0,0,0,0,0,0,0,0,0,0,0,0,0,0,0,0,0,0,0,0,0,0,0,0,0,0,0,0,0,0,0,0,0,0,0,0,0,
0,0,0,0,0,0,0,0,0,0,0,0,0,0,0,0,0,0,0,0,0,0,0,0,0,0,0,0,0,0,0,0,0,0,0,0,0,0,0,0,0,0,0,0,0,0,0,0,
0,0,0,0,0,0,0,0,0,0,0,0,0,0,0,0,0,0,0,0,0,0,0,0,0,0,0,0,0,0,0,0,0,0,0,0,0,0,0,0,0,0,0,0,0,0,0,0,
0,0,0,0,0,0,0,0,0,0,0,0,0,0,0,0,0,0,0,0,0,0,0,0,0,0,0,0,0,0,0,0,0,0,0,0,0,0,0,0,0,0,0,0,0,0,0,0,
0,0,0,0,0,0,0,0,0,0,0,0,0,0,0,0,0,0,0,0,0,0,0,0,0,0,0,0,0,0,0,0,0,0,0,0,0,0,0,0,0,0,0,0,0,0,0,0,
0,0,0,0,0,0,0,0,0,0,0,0,0,0,0,0,0,0,0,0,0,0,0,0,0,0,0,0,0,0,0,0,0,0,0,0,0,0,0,0,0,0,0,0,0,0,0,0
</data>
 </layer>
 <layer id="102" name="roads_to_level1" width="48" height="64" visible="0">
  <data encoding="csv">
0,0,0,0,0,0,0,0,0,0,0,0,0,0,0,0,0,0,0,0,0,0,0,0,0,0,0,0,0,0,0,0,0,0,0,0,0,0,0,0,0,0,0,0,0,0,0,0,
0,0,0,0,0,0,0,0,0,0,0,0,0,0,0,0,0,0,0,0,0,0,0,0,0,0,0,0,0,0,0,0,0,0,0,0,0,0,0,0,0,0,0,0,0,0,0,0,
0,0,0,0,0,0,0,0,0,0,0,0,0,0,0,0,0,0,0,0,0,0,0,0,0,0,0,0,0,0,0,0,0,0,0,0,0,0,0,0,0,0,0,0,0,0,0,0,
0,0,0,0,0,0,0,0,0,0,0,0,0,0,0,0,0,0,0,0,0,0,0,0,0,0,0,0,0,0,0,0,0,0,0,0,0,0,0,0,0,0,0,0,0,0,0,0,
0,0,0,0,0,0,0,0,0,0,0,0,0,0,0,0,0,0,0,0,0,0,0,0,0,0,0,0,0,0,0,0,0,0,0,0,0,0,0,0,0,0,0,0,0,0,0,0,
0,0,0,0,0,0,0,0,0,0,0,0,0,0,0,0,0,0,0,0,0,0,0,0,0,0,0,0,0,0,0,0,0,0,0,0,0,0,0,0,0,0,0,0,0,0,0,0,
0,0,0,0,0,0,0,0,0,0,0,0,0,0,0,0,0,0,0,0,0,0,0,0,0,0,0,0,0,0,0,0,0,0,0,0,0,0,0,0,0,0,0,0,0,0,0,0,
0,0,0,0,0,0,0,0,0,0,0,0,0,0,0,0,0,0,0,0,0,0,0,0,0,0,0,0,0,0,0,0,0,0,0,0,0,0,0,0,0,0,0,0,0,0,0,0,
0,0,0,0,0,0,0,0,0,0,0,0,0,0,0,0,0,0,0,0,0,0,0,0,0,0,0,0,0,0,0,0,0,0,0,0,0,0,0,0,0,0,0,0,0,0,0,0,
0,0,0,0,0,0,0,0,0,0,0,0,0,0,0,0,0,0,0,0,0,0,0,0,0,0,0,0,0,0,0,0,0,0,0,0,0,0,0,0,0,0,0,0,0,0,0,0,
0,0,0,0,0,0,0,0,0,0,0,0,0,0,0,0,0,0,0,0,0,0,0,0,0,0,0,0,0,0,0,0,0,0,0,0,0,0,0,0,0,0,0,0,0,0,0,0,
0,0,0,0,0,0,0,0,0,0,0,0,0,0,0,0,0,0,0,0,0,0,0,0,0,0,0,0,0,0,0,0,0,0,0,0,0,0,0,0,0,0,0,0,0,0,0,0,
0,0,0,0,0,0,0,0,0,0,0,0,0,0,0,0,0,0,0,0,0,0,0,0,0,0,0,0,0,0,0,0,0,0,0,0,0,0,0,0,0,0,0,0,0,0,0,0,
0,0,0,0,0,0,0,0,0,0,0,0,0,0,0,0,0,0,0,0,0,0,0,0,0,0,0,0,0,0,0,0,0,0,0,0,0,0,0,0,0,0,0,0,0,0,0,0,
0,0,0,0,0,0,0,0,0,0,0,0,0,0,0,0,0,0,0,0,0,0,0,0,0,0,0,0,0,0,0,0,0,0,0,0,0,0,0,0,0,0,0,0,0,0,0,0,
0,0,0,0,0,0,0,0,0,0,0,0,0,0,0,0,0,0,0,0,0,0,0,0,0,0,0,0,0,0,0,0,0,0,0,0,0,0,0,0,0,0,0,0,0,0,0,0,
0,0,0,0,0,0,0,0,0,0,0,0,0,0,0,0,0,0,0,0,0,0,0,0,0,0,0,0,0,0,0,0,0,0,0,0,0,0,0,0,0,0,0,0,0,0,0,0,
0,0,0,0,0,0,0,0,0,0,0,0,0,0,0,0,0,0,0,0,0,0,0,0,0,0,0,0,0,0,0,0,0,0,0,0,0,0,0,0,0,0,0,0,0,0,0,0,
0,0,0,0,0,0,0,0,0,0,0,0,0,0,0,0,0,0,0,0,0,0,0,0,0,0,0,0,0,0,0,0,0,0,0,0,0,0,0,0,0,0,0,0,0,0,0,0,
0,0,0,0,0,0,0,0,0,0,0,0,0,0,0,0,0,0,0,0,0,0,0,0,0,0,0,0,0,0,0,0,0,0,0,0,0,0,0,0,0,0,0,0,0,0,0,0,
0,0,0,0,0,0,0,0,0,0,0,0,0,0,0,0,0,0,0,0,0,0,0,0,0,0,0,0,0,0,0,0,0,0,0,0,0,0,0,0,0,0,0,0,0,0,0,0,
0,0,0,0,0,0,0,0,0,0,0,0,0,0,0,0,0,0,0,0,0,0,0,0,0,0,0,0,0,0,0,0,0,0,0,0,0,0,0,0,0,0,0,0,0,0,0,0,
0,0,0,0,0,0,0,0,0,0,0,0,0,0,0,0,0,0,0,0,0,0,0,0,0,0,0,0,0,0,0,0,0,0,0,0,0,0,0,0,0,0,0,0,0,0,0,0,
0,0,0,0,0,0,0,0,0,0,0,0,0,0,0,0,0,0,0,0,0,0,0,0,0,0,0,0,0,0,0,0,0,0,0,0,0,0,0,0,0,0,0,0,0,0,0,0,
0,0,0,0,0,0,0,0,0,0,0,0,0,0,0,0,0,0,0,0,0,0,0,0,0,0,0,0,0,0,0,0,0,0,0,0,0,0,0,1532,1501,1533,0,0,0,0,0,0,
0,0,0,0,0,0,0,0,0,0,0,0,0,0,0,0,0,0,0,0,0,0,0,1469,1470,1470,1471,0,0,0,0,0,0,0,0,0,0,0,0,1499,1496,1504,0,0,0,0,0,0,
0,0,0,0,0,0,0,0,0,0,0,0,0,0,0,0,0,0,0,0,0,0,0,1495,1496,1496,1497,0,0,0,0,0,0,0,0,0,0,0,0,1505,1496,1497,0,0,0,0,0,0,
0,0,0,0,0,0,0,0,0,0,0,0,0,0,0,0,0,0,0,0,0,0,0,1505,1496,1496,1498,0,0,0,0,0,0,0,0,0,0,0,0,1499,1496,1524,1501,1502,1501,1471,0,0,
0,0,0,0,0,0,0,0,0,0,0,0,0,0,0,0,0,0,0,0,0,0,0,1499,1496,1496,1498,0,0,0,0,0,0,0,0,0,0,0,0,1521,1527,1527,1528,1528,1522,1530,0,0,
0,0,0,0,0,0,0,0,0,0,0,0,0,0,0,0,0,0,0,0,0,0,0,1505,1496,1496,1504,0,0,0,0,0,0,0,0,0,0,0,0,0,0,0,0,0,0,0,0,0,
0,0,0,0,0,0,0,0,0,0,0,0,0,0,0,0,0,0,0,0,0,0,0,1505,1496,1496,1504,0,0,0,0,0,0,0,0,0,0,0,0,0,0,0,0,0,0,0,0,0,
0,0,0,0,0,0,0,0,0,0,0,0,0,0,0,0,0,0,0,0,0,0,0,1495,1496,1496,1497,0,0,0,0,0,0,0,0,0,0,0,0,0,0,0,0,0,0,0,0,0,
0,0,0,0,0,0,0,0,0,0,0,0,0,0,0,0,0,0,0,0,0,0,0,1499,1496,1496,1498,0,0,0,0,0,0,0,0,0,0,0,0,0,0,0,0,0,0,0,0,0,
0,0,0,0,0,0,0,0,0,0,0,0,0,0,0,0,0,0,0,0,0,0,0,1505,1496,1496,1504,0,0,0,0,0,0,0,0,0,0,0,0,0,0,0,0,0,0,0,0,0,
0,0,0,0,0,0,0,0,0,0,0,0,0,0,0,0,0,0,0,0,0,0,0,1521,1527,1527,1530,0,0,0,0,0,0,0,0,0,0,0,0,0,0,0,0,0,0,0,0,0,
0,0,0,0,0,0,0,0,0,0,0,0,0,0,0,0,0,0,0,0,0,0,0,0,0,0,0,0,0,0,0,0,0,0,0,0,0,0,0,0,0,0,0,0,0,0,0,0,
0,0,0,0,0,0,0,0,0,0,0,0,0,0,0,0,0,0,0,0,0,0,0,0,0,0,0,0,0,0,0,0,0,0,0,0,0,0,0,0,0,0,0,0,0,0,0,0,
0,0,0,0,0,0,0,0,0,0,0,0,0,0,0,0,0,0,0,0,0,0,0,0,0,0,0,0,0,0,0,0,0,0,0,0,0,0,0,0,0,0,0,0,0,0,0,0,
0,0,0,0,0,0,0,0,0,0,0,0,0,0,0,0,0,0,0,0,0,0,0,0,0,0,0,0,0,0,0,0,0,0,0,0,0,0,0,0,0,0,0,0,0,0,0,0,
0,0,0,0,0,0,0,0,0,0,0,0,0,0,0,0,0,0,0,0,0,0,0,0,0,0,0,0,0,0,0,0,0,0,0,0,0,0,0,0,0,0,0,0,0,0,0,0,
0,0,0,0,0,0,0,0,0,0,0,0,0,0,0,0,0,0,0,0,0,0,0,0,0,0,0,0,0,0,0,0,0,0,0,0,0,0,0,0,0,0,0,0,0,0,0,0,
0,0,0,0,0,0,0,0,0,0,0,0,0,0,0,0,0,0,0,0,0,0,0,0,0,0,0,0,0,0,0,0,0,0,0,0,0,0,0,0,0,0,0,0,0,0,0,0,
0,0,0,0,0,0,0,0,0,0,0,0,0,0,0,0,0,0,0,0,0,0,0,0,0,0,0,0,0,0,0,0,0,0,0,0,0,0,0,0,0,0,0,0,0,0,0,0,
0,0,0,0,0,0,0,0,0,0,0,0,0,0,0,0,0,0,0,0,0,0,0,0,0,0,0,0,0,0,0,0,0,0,0,0,0,0,0,0,0,0,0,0,0,0,0,0,
0,0,0,0,0,0,0,0,0,0,0,0,0,0,0,0,0,0,0,0,0,0,0,0,0,0,0,0,0,0,0,0,0,0,0,0,0,0,0,0,0,0,0,0,0,0,0,0,
0,0,0,0,0,0,0,0,0,0,0,0,0,0,0,0,0,0,0,0,0,0,0,0,0,0,0,0,0,0,0,0,0,0,0,0,0,0,0,0,0,0,0,0,0,0,0,0,
0,0,0,0,0,0,0,0,0,0,0,0,0,0,0,0,0,0,0,0,0,0,0,0,0,0,0,0,0,0,0,0,0,0,0,0,0,0,0,0,0,1502,1533,0,0,0,0,0,
0,0,0,0,0,0,0,0,0,0,0,0,0,0,0,0,0,0,0,0,1469,1470,1502,1501,1470,1502,1471,0,0,0,0,1495,1496,1496,1496,1496,1496,1496,1496,1496,1496,1496,1497,0,0,0,0,0,
0,0,0,0,0,0,0,0,0,0,0,0,0,0,0,0,0,0,0,0,1495,1496,1496,1496,1496,1496,1504,0,0,0,0,1495,1496,1496,1496,1496,1496,1496,1496,1496,1496,1496,1498,0,0,0,0,0,
0,0,0,0,0,0,0,0,0,0,0,0,0,0,0,0,0,0,0,0,1495,1496,1496,1496,1496,1496,1497,0,0,0,0,1499,1496,1496,1496,1496,1496,1496,1496,1496,1496,1496,1498,0,0,0,0,0,
0,0,0,0,0,0,0,0,0,0,0,0,0,0,0,0,0,0,0,0,1505,1496,1496,1496,1496,1496,1497,0,0,0,0,1505,1496,1496,1496,1496,1496,1496,1496,1496,1496,1496,1504,0,0,0,0,0,
0,0,0,0,0,0,0,0,0,0,0,0,0,0,0,0,0,0,0,0,1495,1496,1496,1496,1496,1496,1498,0,0,0,0,1521,1527,1527,1527,1528,1527,1522,1528,1527,1527,1528,1530,0,0,0,0,0,
0,0,0,0,0,0,0,0,0,0,0,0,0,0,0,0,0,0,0,0,1499,1496,1496,1496,1496,1496,1504,0,0,0,0,0,0,0,0,0,0,0,0,0,0,0,0,0,0,0,0,0,
0,0,0,0,0,0,0,0,0,0,0,0,0,0,0,0,0,0,0,0,1495,1496,1496,1496,1496,1496,1504,0,0,0,0,0,0,0,0,0,0,0,0,0,0,0,0,0,0,0,0,0,
0,0,0,0,0,0,0,0,0,0,0,0,0,0,0,0,0,0,0,0,1531,1528,1522,1522,1528,1527,1523,0,0,0,0,0,0,0,0,0,0,0,0,0,0,0,0,0,0,0,0,0,
0,0,0,0,0,0,0,0,0,0,0,0,0,0,0,0,0,0,0,0,0,0,0,0,0,0,0,0,0,0,0,0,0,0,0,0,0,0,0,0,0,0,0,0,0,0,0,0,
0,0,0,0,0,0,0,0,0,0,0,0,0,0,0,0,0,0,0,0,0,0,0,0,0,0,0,0,0,0,0,0,0,0,0,0,0,0,0,0,0,0,0,0,0,0,0,0,
0,0,0,0,0,0,0,0,0,0,0,0,0,0,0,0,0,0,0,0,0,0,0,0,0,0,0,0,0,0,0,0,0,0,0,0,0,0,0,0,0,0,0,0,0,0,0,0,
0,0,0,0,0,0,0,0,0,0,0,0,0,0,0,0,0,0,0,0,0,0,0,0,0,0,0,0,0,0,0,0,0,0,0,0,0,0,0,0,0,0,0,0,0,0,0,0,
0,0,0,0,0,0,0,0,0,0,0,0,0,0,0,0,0,0,0,0,0,0,0,0,0,0,0,0,0,0,0,0,0,0,0,0,0,0,0,0,0,0,0,0,0,0,0,0,
0,0,0,0,0,0,0,0,0,0,0,0,0,0,0,0,0,0,0,0,0,0,0,0,0,0,0,0,0,0,0,0,0,0,0,0,0,0,0,0,0,0,0,0,0,0,0,0,
0,0,0,0,0,0,0,0,0,0,0,0,0,0,0,0,0,0,0,0,0,0,0,0,0,0,0,0,0,0,0,0,0,0,0,0,0,0,0,0,0,0,0,0,0,0,0,0,
0,0,0,0,0,0,0,0,0,0,0,0,0,0,0,0,0,0,0,0,0,0,0,0,0,0,0,0,0,0,0,0,0,0,0,0,0,0,0,0,0,0,0,0,0,0,0,0,
0,0,0,0,0,0,0,0,0,0,0,0,0,0,0,0,0,0,0,0,0,0,0,0,0,0,0,0,0,0,0,0,0,0,0,0,0,0,0,0,0,0,0,0,0,0,0,0
</data>
 </layer>
 <layer id="104" name="test_layer" width="48" height="64">
  <data encoding="csv">
0,0,0,0,0,0,0,0,0,0,0,0,0,0,0,0,0,0,0,0,0,0,0,0,0,0,0,0,0,0,0,0,0,0,0,0,0,0,0,0,0,0,0,0,0,0,0,0,
0,0,0,0,0,0,0,0,0,0,0,0,0,0,0,0,0,0,0,0,0,0,0,0,1469,1471,0,0,0,0,0,0,0,0,0,0,0,0,0,0,0,0,0,0,0,0,0,0,
1532,1470,1470,1470,1470,1470,1501,1501,1502,1502,1470,1502,1533,0,0,0,0,0,0,0,0,0,0,0,1499,1497,0,0,0,0,0,0,0,0,0,0,0,0,0,0,0,0,0,0,0,0,0,0,
1495,1496,1496,1496,1496,1496,1496,1496,1496,1496,1496,1472,1530,0,0,0,0,0,0,0,0,0,0,0,1505,1504,0,0,0,0,0,0,0,0,0,0,0,0,0,0,0,0,0,0,0,0,0,0,
1505,1496,1496,1496,1496,1496,1496,1496,1496,1496,1496,1498,0,0,0,0,0,0,0,0,0,0,0,0,1505,1504,0,0,0,0,0,0,0,0,0,0,0,0,0,0,0,0,0,0,0,0,0,0,
1505,1496,1496,1496,1496,1496,1496,1496,1496,1496,1472,1530,0,0,0,0,0,0,0,0,0,0,0,0,1495,1498,0,0,0,0,0,0,0,0,0,0,0,0,0,0,0,0,0,0,0,0,0,0,
1505,1496,1496,1496,1496,1496,1496,1496,1496,1496,1504,0,0,0,0,0,0,0,0,0,0,0,0,0,1495,1497,0,0,0,0,0,0,0,0,0,0,0,0,0,0,0,0,0,0,0,0,0,0,
1505,1496,1496,1496,1478,1528,1528,1528,1528,1527,1530,0,0,0,0,0,0,0,0,0,0,0,0,0,1505,1524,1533,0,0,0,0,0,0,0,0,0,0,0,0,0,0,0,0,0,0,0,0,0,
1531,1522,1522,1522,1523,0,0,0,0,0,0,0,0,0,0,0,0,0,0,0,0,0,0,0,1531,1473,1504,0,0,0,0,0,0,0,0,0,0,0,0,0,0,0,0,0,0,0,0,0,
0,0,0,0,0,0,0,0,0,0,0,0,0,0,0,0,0,0,0,0,0,0,0,0,0,1505,1524,1471,0,0,0,0,0,0,0,0,0,0,0,0,0,0,0,0,0,0,0,0,
0,0,0,0,0,0,0,0,0,0,0,0,0,0,0,0,0,0,0,0,0,0,0,0,0,1521,1479,1524,1533,0,0,0,0,0,0,0,0,0,0,0,0,0,0,0,0,0,0,0,
0,0,0,0,0,0,0,0,0,0,0,0,0,0,0,0,0,0,0,0,0,0,0,0,0,0,1495,1496,1524,1533,0,0,0,0,0,0,1532,1470,1470,1502,1502,1470,1502,1502,1471,0,0,0,
0,0,0,0,0,0,0,0,0,0,0,0,0,0,0,0,0,0,0,0,0,0,0,0,0,0,1521,1522,1473,1524,1471,0,0,0,0,1469,1525,1496,1496,1496,1496,1496,1496,1496,1524,1533,0,0,
0,0,0,0,0,0,0,0,0,0,0,0,0,0,0,1532,1501,1533,0,0,0,0,0,0,0,0,0,0,1531,1473,1524,1471,0,0,1469,1525,1496,1496,1496,1496,1496,1496,1496,1496,1496,1497,0,0,
0,0,0,0,0,0,0,0,0,0,0,0,0,0,0,1531,1473,1524,1501,1533,0,0,0,0,0,0,0,0,0,1531,1479,1524,1533,0,1495,1496,1496,1496,1496,1496,1496,1496,1496,1496,1496,1497,0,0,
0,0,0,0,0,0,0,0,0,0,0,0,0,0,0,0,1531,1528,1473,1524,1470,1502,1501,1533,0,0,0,0,0,0,1505,1496,1498,0,1499,1496,1496,1496,1496,1472,1479,1496,1496,1496,1496,1498,0,0,
0,0,0,0,0,0,0,0,0,0,0,0,0,0,0,0,0,0,1531,1527,1528,1522,1479,1524,1501,1470,1533,0,0,0,1531,1473,1497,0,1499,1496,1496,1496,1496,1524,1525,1496,1496,1496,1496,1498,0,0,
0,0,0,0,0,0,0,0,0,0,0,0,0,0,0,0,0,0,0,0,0,0,1521,1528,1522,1479,1524,1502,1470,1471,1469,1525,1498,0,1495,1496,1496,1496,1496,1496,1496,1496,1496,1496,1496,1498,0,0,
0,0,0,0,0,0,0,0,0,0,0,0,0,0,0,0,0,0,0,0,0,0,0,0,0,1531,1522,1522,1473,1524,1525,1478,1530,0,1499,1496,1496,1496,1496,1496,1496,1496,1496,1496,1496,1497,0,0,
0,0,0,0,0,0,0,0,0,0,0,0,0,0,0,0,0,0,0,0,0,0,0,0,0,0,0,0,1531,1522,1479,1524,1502,1471,1521,1473,1496,1496,1496,1496,1496,1496,1496,1496,1472,1523,0,0,
0,0,0,0,0,0,0,0,0,0,0,0,0,0,0,0,0,0,0,0,0,0,0,0,0,0,0,1532,1501,1502,1525,1472,1479,1524,1502,1525,1496,1496,1496,1496,1496,1496,1472,1528,1523,0,0,0,
0,0,0,0,0,0,0,0,0,0,0,0,0,0,0,0,0,0,0,0,0,0,0,0,0,1532,1502,1525,1472,1522,1527,1530,1521,1527,1528,1527,1522,1528,1527,1522,1522,1528,1530,0,0,0,0,0,
0,0,0,0,0,0,0,0,0,0,0,0,0,0,0,0,0,0,0,0,0,0,0,0,1469,1525,1472,1527,1530,0,0,0,0,0,0,0,0,0,0,0,0,0,0,0,0,0,0,0,
0,0,0,0,0,0,0,0,0,0,0,0,0,0,0,0,0,0,0,0,0,0,0,0,1499,1472,1530,0,0,0,0,0,0,0,0,0,0,0,0,0,0,0,0,0,0,0,0,0,
0,0,0,0,0,0,0,0,0,0,0,0,0,0,0,0,0,0,0,0,0,0,0,0,1505,1497,0,0,0,0,0,0,0,0,0,0,0,0,0,0,0,0,0,0,0,0,0,0,
0,0,0,0,0,0,0,0,0,0,0,0,0,0,0,0,0,0,0,0,0,0,0,0,1505,1498,0,0,0,0,0,0,0,0,0,0,0,0,0,0,0,0,0,0,0,0,0,0,
0,0,0,0,0,0,0,0,0,0,0,0,0,0,0,0,0,0,0,0,0,0,0,0,1505,1497,0,0,0,0,0,0,0,0,0,0,0,0,0,0,0,0,0,0,0,0,0,0,
0,0,0,0,0,0,0,0,0,0,0,0,0,0,0,0,0,0,0,0,0,0,0,0,1499,1497,0,0,0,0,0,0,0,0,0,0,0,0,0,0,0,0,0,0,0,0,0,0,
0,0,0,0,0,0,0,0,0,0,0,0,0,0,0,0,0,0,0,0,0,0,0,0,1505,1504,0,0,0,0,0,0,0,0,0,0,0,0,0,0,0,0,0,0,0,0,0,0,
0,0,0,0,0,0,0,0,0,0,0,0,0,0,0,0,0,0,0,0,0,0,0,0,1531,1523,0,0,0,0,0,0,0,0,0,0,0,0,0,0,0,0,0,0,0,0,0,0,
0,0,0,0,0,0,0,0,0,0,0,0,0,0,0,0,0,0,0,0,0,0,0,0,0,0,0,0,0,0,0,0,0,0,0,0,0,0,0,0,0,0,0,0,0,0,0,0,
0,0,0,0,0,0,0,0,0,0,0,0,0,0,0,0,0,0,0,0,0,0,0,0,0,0,0,0,0,0,0,0,0,0,0,0,0,0,0,0,0,0,0,0,0,0,0,0,
0,0,0,0,0,0,0,0,0,0,0,0,0,0,0,0,0,0,0,0,0,0,0,0,0,0,0,0,0,0,0,0,0,0,0,0,0,0,0,0,0,0,0,0,0,0,0,0,
0,0,0,0,0,0,0,0,0,0,0,0,0,0,0,0,0,0,0,0,0,0,0,0,0,0,0,0,0,0,0,0,0,0,0,0,0,0,0,0,0,0,0,0,0,0,0,0,
0,0,0,0,0,0,0,0,0,0,0,0,0,0,0,0,0,0,0,0,0,0,0,0,0,0,0,0,0,0,0,0,0,0,0,0,0,0,0,0,0,0,0,0,0,0,0,0,
0,1469,1501,1470,1502,1533,0,0,0,0,0,0,0,0,0,0,0,0,0,0,0,0,0,0,0,0,0,0,0,0,0,0,0,0,0,0,0,0,0,0,0,0,0,0,0,0,0,0,
0,1505,1496,1496,1496,1524,1501,1501,1471,0,0,0,0,0,0,0,0,0,0,0,0,0,0,0,0,0,0,0,0,0,0,0,0,0,0,0,0,0,0,0,0,0,0,0,0,0,0,0,
0,1495,1496,1496,1496,1496,1496,1496,1524,1470,1470,1470,1470,1502,1502,1502,1470,1501,1533,0,0,0,0,0,0,0,0,0,0,0,0,0,0,0,0,0,0,0,0,0,0,0,0,0,0,0,0,0,
0,1505,1496,1496,1496,1496,1496,1496,1496,1496,1496,1496,1496,1496,1496,1496,1496,1496,1498,0,0,0,0,0,0,0,0,0,0,0,0,0,0,0,0,0,0,0,0,0,0,0,0,0,0,0,0,0,
0,1505,1496,1496,1496,1496,1496,1496,1496,1496,1496,1496,1496,1496,1496,1496,1496,1496,1504,0,0,0,0,0,0,0,0,0,0,0,0,0,0,0,0,0,0,0,0,0,0,0,0,0,0,0,0,0,
0,1505,1496,1496,1496,1496,1496,1478,1522,1522,1473,1496,1496,1496,1496,1496,1496,1496,1498,0,0,0,0,0,0,0,0,0,0,0,0,0,0,0,0,0,0,0,0,0,0,0,0,0,0,0,0,0,
0,1521,1473,1496,1496,1496,1496,1498,1469,1470,1525,1496,1496,1496,1496,1496,1496,1496,1504,0,0,0,0,0,0,0,0,0,0,0,0,0,0,0,0,0,0,0,0,0,0,0,0,0,0,0,0,0,
0,0,1495,1496,1496,1496,1496,1524,1525,1496,1496,1496,1496,1496,1496,1496,1496,1496,1498,0,0,0,0,0,0,0,0,0,0,0,0,0,0,0,0,0,0,0,0,0,0,0,0,0,0,0,0,0,
0,0,1505,1496,1496,1496,1496,1496,1496,1496,1496,1496,1496,1496,1496,1472,1522,1522,1530,0,0,0,0,0,0,0,0,0,0,0,0,0,0,0,0,0,0,0,0,0,0,0,0,0,0,0,0,0,
0,0,1521,1473,1496,1496,1496,1496,1496,1496,1496,1496,1496,1496,1496,1498,0,0,0,0,0,0,0,0,0,0,0,0,0,0,0,1532,1471,0,0,0,0,0,0,0,0,0,0,0,0,0,0,0,
0,0,0,1521,1473,1496,1496,1496,1496,1496,1496,1496,1496,1472,1522,1530,0,0,0,0,0,0,0,0,0,0,0,0,0,0,0,1499,1524,1501,1501,1470,1502,1502,1501,1502,1502,1502,1502,1471,0,0,0,0,
0,0,0,0,1505,1496,1496,1496,1496,1496,1478,1528,1527,1523,0,0,0,0,0,0,0,0,0,0,0,0,0,0,0,0,1532,1525,1496,1496,1496,1496,1496,1496,1496,1496,1496,1496,1496,1497,0,0,0,0,
0,0,0,0,1495,1496,1472,1522,1522,1527,1523,0,0,0,1532,1470,1502,1501,1502,1470,1501,1502,1501,1502,1470,1501,1502,1533,0,0,1495,1496,1496,1496,1496,1496,1496,1496,1496,1496,1496,1496,1496,1504,0,0,0,0,
0,0,0,0,1495,1496,1524,1471,0,0,0,0,0,0,1499,1496,1496,1496,1496,1496,1496,1496,1496,1496,1496,1496,1496,1504,0,0,1499,1496,1496,1496,1496,1496,1496,1496,1496,1496,1496,1478,1473,1497,0,0,0,0,
0,0,0,0,1499,1496,1496,1498,0,0,0,0,0,0,1505,1496,1496,1496,1496,1496,1496,1496,1496,1496,1496,1496,1496,1498,0,0,1495,1496,1496,1496,1496,1496,1496,1496,1496,1496,1496,1524,1525,1497,0,0,0,0,
0,0,0,0,1531,1473,1496,1524,1471,0,0,0,0,0,1499,1496,1496,1496,1496,1496,1496,1496,1496,1496,1496,1496,1496,1498,0,0,1521,1527,1527,1528,1522,1527,1528,1528,1522,1527,1522,1522,1527,1530,0,0,0,0,
0,0,0,0,0,1505,1496,1496,1524,1501,1471,0,0,0,1495,1496,1496,1496,1496,1496,1496,1496,1496,1496,1496,1496,1496,1497,0,0,0,0,0,0,0,0,0,0,0,0,0,0,0,0,0,0,0,0,
0,0,0,0,0,1531,1473,1496,1496,1496,1524,1502,1502,1502,1525,1496,1496,1496,1496,1496,1496,1496,1496,1496,1496,1496,1496,1504,0,0,0,0,0,0,0,0,0,0,0,0,0,0,0,0,0,0,0,0,
0,1532,1470,1533,0,0,1505,1496,1496,1496,1496,1496,1496,1496,1496,1496,1496,1496,1496,1496,1496,1496,1496,1496,1496,1496,1496,1524,1471,0,0,0,0,0,0,0,0,0,0,0,0,0,0,0,0,0,0,0,
0,1521,1479,1524,1533,0,1521,1522,1527,1528,1522,1522,1528,1522,1473,1496,1496,1496,1496,1496,1496,1496,1496,1496,1496,1496,1496,1496,1497,0,0,0,0,0,0,0,0,0,0,0,0,0,0,0,0,0,0,0,
0,0,1521,1473,1524,1533,0,0,0,0,0,0,0,0,1495,1496,1496,1496,1496,1496,1496,1496,1496,1496,1496,1496,1496,1496,1498,0,0,0,0,0,0,0,0,0,0,0,0,0,0,0,0,0,0,0,
0,0,0,1531,1473,1504,0,0,0,0,0,0,0,0,1505,1496,1496,1496,1496,1496,1496,1496,1496,1496,1496,1496,1496,1472,1523,0,0,0,0,0,0,0,0,0,0,0,0,0,0,0,0,0,0,0,
0,0,0,0,1505,1524,1471,0,0,0,0,0,0,0,1495,1496,1496,1496,1496,1496,1496,1496,1496,1496,1496,1496,1496,1524,1501,1471,0,0,0,0,0,0,0,0,0,0,0,0,0,0,0,0,0,0,
0,0,0,0,1531,1473,1524,1471,1532,1502,1470,1470,1502,1501,1525,1496,1496,1496,1496,1496,1496,1496,1496,1496,1472,1527,1527,1522,1473,1524,1533,0,0,0,0,0,0,0,0,0,0,0,0,0,0,0,0,0,
0,0,0,0,0,1521,1473,1524,1525,1472,1528,1528,1527,1522,1527,1528,1528,1527,1522,1528,1528,1527,1522,1527,1530,0,0,0,1521,1479,1524,1501,1533,0,0,0,0,0,0,0,0,0,0,0,0,0,0,0,
0,0,0,0,0,0,1531,1527,1528,1523,0,0,0,0,0,0,0,0,0,0,0,0,0,0,0,0,0,0,0,1521,1522,1473,1524,1502,1501,1501,1501,1533,0,0,0,0,0,0,0,0,0,0,
0,0,0,0,0,0,0,0,0,0,0,0,0,0,0,0,0,0,0,0,0,0,0,0,0,0,0,0,0,0,0,1521,1528,1528,1528,1527,1473,1524,1470,1470,1470,1501,1470,1502,1501,1501,1533,0,
0,0,0,0,0,0,0,0,0,0,0,0,0,0,0,0,0,0,0,0,0,0,0,0,0,0,0,0,0,0,0,0,0,0,0,0,1521,1528,1528,1522,1522,1528,1527,1528,1528,1522,1523,0,
0,0,0,0,0,0,0,0,0,0,0,0,0,0,0,0,0,0,0,0,0,0,0,0,0,0,0,0,0,0,0,0,0,0,0,0,0,0,0,0,0,0,0,0,0,0,0,0
</data>
 </layer>
 <layer id="105" name="ground_details" width="48" height="64" visible="0">
  <data encoding="csv">
0,0,0,0,0,0,0,0,0,0,0,0,0,0,0,0,0,0,0,0,0,0,0,0,0,0,0,0,0,0,0,0,0,0,0,0,0,0,0,0,0,0,0,0,0,0,0,0,
0,0,0,0,0,0,0,0,0,0,0,0,0,0,0,13217,13218,0,0,0,0,0,0,0,0,0,0,0,0,0,0,0,0,0,0,0,0,0,0,0,0,0,0,0,0,0,0,0,
0,0,0,0,0,0,0,0,0,0,0,0,0,0,0,13257,13258,0,0,0,0,0,0,0,0,0,0,0,0,0,0,0,0,0,0,0,0,0,0,0,0,0,0,0,0,0,0,0,
0,0,0,13148,13149,0,0,0,0,0,0,0,0,0,0,0,0,0,0,0,0,0,0,0,0,0,0,0,0,0,0,0,0,0,0,0,0,0,0,0,0,0,0,0,0,0,0,0,
0,0,0,13188,13189,0,0,0,0,0,0,0,0,0,0,0,0,0,0,0,0,0,0,0,13148,13149,0,0,0,0,0,0,0,0,0,0,0,0,0,0,0,0,0,0,0,0,0,0,
0,0,0,0,0,0,0,13148,13149,0,0,0,0,0,0,0,0,0,0,0,0,0,0,0,13188,13189,0,0,0,0,0,0,0,0,0,0,0,0,0,0,0,0,0,0,0,0,0,0,
0,0,0,0,0,0,0,13188,13189,0,0,0,0,0,0,0,0,0,0,0,0,0,0,0,0,0,0,0,0,0,0,0,0,0,0,0,0,0,0,0,0,13375,13376,0,0,0,0,0,
0,0,0,0,0,0,0,0,0,0,0,0,0,0,0,0,0,0,0,0,13217,13218,0,0,0,0,0,0,0,0,0,0,0,0,0,0,0,0,0,0,0,13415,13416,0,0,0,0,0,
0,0,0,0,0,0,0,0,0,0,0,0,0,0,0,0,0,0,0,0,13257,13258,0,0,0,0,0,0,0,0,0,0,0,0,0,0,0,0,0,0,0,0,0,0,0,0,0,0,
0,0,0,0,0,0,0,0,0,0,0,0,0,0,0,0,0,0,0,0,0,0,0,0,0,0,0,0,0,0,0,0,0,0,0,0,0,0,0,0,0,0,0,0,0,0,0,0,
0,13217,13218,0,0,0,0,0,0,0,0,0,0,0,0,0,0,0,0,0,0,0,0,0,0,0,0,0,0,0,0,0,0,0,0,0,0,0,0,0,0,0,0,0,0,0,0,0,
0,13257,13258,0,0,0,0,0,0,0,0,0,0,0,0,0,0,0,0,0,0,0,0,0,0,0,0,0,0,0,0,0,0,0,0,0,0,0,0,0,0,0,0,0,0,0,0,0,
0,0,0,0,0,0,0,0,0,0,0,0,0,0,0,0,0,0,0,0,0,0,0,0,0,0,0,0,0,0,0,0,0,0,0,0,0,0,0,0,0,0,0,0,0,0,0,0,
0,0,0,0,0,0,0,0,0,0,0,0,0,13375,13376,0,0,0,0,0,0,0,0,0,0,0,0,0,0,0,0,0,0,0,0,13148,13149,0,0,0,0,0,0,13148,13149,0,0,0,
0,0,0,0,0,0,0,0,0,0,0,0,0,13415,13416,0,0,0,0,0,0,0,0,0,0,0,0,0,0,0,13148,13149,0,0,0,13188,13189,0,0,0,0,0,0,13188,13189,0,0,0,
0,13217,13218,0,0,0,0,0,0,0,0,0,0,0,0,0,0,0,0,0,0,0,0,0,0,0,0,0,0,0,13188,13189,0,0,0,13148,13149,0,0,0,0,0,0,13375,13376,0,0,0,
0,13257,13258,0,0,0,0,0,0,0,0,0,13375,13376,0,0,0,0,0,0,0,0,0,0,0,0,0,0,0,0,0,0,0,0,0,13188,13189,0,0,0,0,0,0,13415,13416,0,0,0,
0,0,0,0,0,0,0,0,0,0,0,0,13415,13416,0,0,0,0,0,0,0,0,0,0,0,0,0,0,0,0,0,0,0,0,0,0,0,0,0,0,0,0,0,0,0,0,0,0,
0,0,0,0,0,0,0,0,0,0,0,0,0,0,0,0,0,0,0,0,0,0,0,0,0,0,0,0,13148,13149,0,0,0,0,0,0,0,0,0,0,0,0,0,0,0,0,0,0,
0,0,0,0,0,0,0,0,0,0,0,0,0,0,0,0,0,0,0,0,0,0,0,0,0,0,0,0,13188,13189,0,0,0,0,0,0,0,0,0,0,0,0,0,0,0,0,0,0,
0,13375,13376,0,0,0,0,0,0,0,0,0,0,0,0,13217,13218,0,0,0,0,0,0,0,0,0,0,0,0,0,0,0,0,0,0,0,0,0,0,0,0,0,0,0,0,0,0,0,
0,13415,13416,0,0,0,0,0,0,0,0,0,0,0,0,13257,13258,0,13217,13218,0,0,0,0,0,0,0,0,0,0,0,0,0,0,0,0,0,0,0,0,0,0,0,0,0,0,0,0,
0,0,0,0,0,0,0,0,0,0,0,0,0,0,0,0,0,0,13257,13258,0,0,0,0,0,0,0,0,0,0,0,0,0,0,0,0,0,0,0,0,0,0,0,0,0,0,0,0,
0,0,0,0,0,0,0,0,0,0,0,0,0,0,0,0,0,0,0,0,0,0,0,0,0,0,0,0,0,0,0,0,0,0,0,0,0,0,0,0,0,0,0,0,0,0,0,0,
0,0,0,0,0,0,0,0,0,0,0,0,0,0,0,0,0,0,0,0,0,0,0,0,0,0,0,0,0,0,0,0,0,0,0,0,0,0,0,0,0,0,0,0,0,0,0,0,
0,0,0,0,0,0,0,0,0,0,0,0,0,0,0,0,0,0,0,13375,13376,0,0,0,0,0,0,0,0,0,0,0,0,0,0,0,0,0,0,0,0,0,0,0,0,0,0,0,
0,0,0,0,0,0,0,0,0,0,0,0,0,0,0,0,0,0,0,13415,13416,0,0,0,13148,13149,0,0,0,0,0,0,0,0,0,0,0,0,0,0,0,0,0,0,0,0,0,0,
0,0,0,0,0,13375,13376,13217,13218,0,0,0,13148,13149,0,0,0,0,0,0,0,0,0,0,13188,13189,0,0,0,0,0,0,0,0,0,0,0,0,0,0,0,0,0,0,0,0,0,0,
0,0,0,0,0,13415,13416,13257,13258,0,0,0,13188,13189,0,0,13148,13149,0,13217,13218,0,0,0,0,0,0,0,0,0,0,0,0,0,0,0,0,0,0,0,0,0,0,0,0,0,0,0,
0,0,0,0,0,0,0,0,0,0,13217,13218,0,0,0,0,13188,13189,0,13257,13258,0,0,0,0,0,0,0,0,0,0,0,0,0,0,0,0,0,0,0,0,0,0,0,0,0,0,0,
0,0,0,0,0,0,0,0,0,0,13257,13258,0,13375,13376,0,0,0,0,0,0,0,0,0,0,0,0,0,0,0,0,0,0,0,0,0,0,0,0,0,0,0,0,0,0,0,0,0,
0,0,13375,13376,0,0,0,0,0,0,0,0,0,13415,13416,0,0,0,0,0,0,0,0,0,0,0,0,0,0,0,0,0,0,0,0,0,0,0,0,0,0,0,0,0,0,0,0,0,
0,0,13415,13416,0,0,0,0,0,0,0,0,0,0,0,0,0,0,0,0,0,0,0,0,13217,13218,0,0,0,0,0,0,0,0,0,0,0,0,0,0,0,0,0,0,0,0,0,0,
0,0,0,0,0,0,0,0,0,0,0,0,0,0,0,0,0,0,0,0,0,0,13217,13218,13257,13258,0,0,0,0,0,0,0,0,0,0,0,0,0,0,0,0,0,0,0,0,0,0,
0,0,0,0,0,0,0,0,0,0,0,0,0,0,0,0,0,0,0,0,0,0,13257,13258,0,0,0,0,0,0,0,0,0,0,0,0,0,0,0,0,0,0,0,0,0,0,0,0,
0,0,0,0,0,0,0,0,0,0,0,0,0,0,0,0,0,0,0,0,0,0,0,13217,13218,0,0,0,0,0,0,0,0,0,0,0,13217,13218,0,13217,13218,0,0,0,0,0,0,0,
0,0,0,0,0,0,0,0,0,0,0,0,0,0,0,0,0,0,0,0,0,0,0,13257,13258,0,0,0,0,0,0,0,0,0,0,0,13257,13258,0,13257,13258,0,0,0,0,0,0,0,
0,0,0,0,0,0,0,0,0,0,0,0,0,0,0,0,0,0,0,13217,13218,0,0,0,0,0,0,0,0,0,0,0,0,0,0,0,0,0,0,0,0,0,0,0,0,0,0,0,
0,0,0,0,0,0,0,0,0,0,0,0,0,0,13148,13149,0,0,0,13257,13258,0,0,0,0,0,13217,13218,13217,13218,0,0,0,0,0,0,0,0,0,0,0,0,0,0,0,0,0,0,
0,0,0,0,0,0,0,0,0,0,0,0,0,0,13188,13189,0,0,0,0,0,0,0,0,0,0,13257,13258,13257,13258,0,0,0,0,0,0,0,0,0,13217,13218,0,0,0,0,0,0,0,
0,0,0,0,0,0,0,0,0,0,0,0,13148,13149,0,0,0,0,0,0,0,0,0,0,0,0,0,0,0,0,0,0,0,0,0,13217,13218,0,0,13257,13258,0,0,0,0,0,0,0,
0,0,0,0,0,0,0,0,0,0,0,0,13188,13189,0,13148,13149,0,0,0,0,0,0,0,0,0,0,0,0,0,0,0,0,0,0,13257,13258,0,0,0,0,0,0,0,0,13217,13218,0,
0,0,0,0,0,0,0,0,0,0,0,13148,13149,0,0,13188,13189,0,0,0,0,0,0,0,0,0,0,0,0,0,0,0,0,0,0,0,0,0,0,0,0,0,0,0,0,13257,13258,0,
0,0,0,0,0,13148,13149,0,0,0,0,13188,13189,0,0,0,0,0,0,0,0,0,0,0,0,0,0,0,0,0,0,0,0,0,0,0,0,0,0,0,0,0,0,0,0,0,0,0,
0,0,0,0,0,13188,13189,0,0,0,0,0,0,0,0,0,0,0,0,0,0,0,0,0,0,0,0,0,0,0,0,0,0,0,0,0,0,0,0,0,0,0,0,0,0,13217,13218,0,
0,0,0,0,0,0,0,0,0,0,0,0,0,0,0,0,0,0,0,0,0,0,0,0,0,0,0,0,0,0,0,0,0,0,0,0,0,0,0,0,0,0,0,0,0,13257,13258,0,
0,0,0,0,0,0,0,0,0,0,0,0,0,0,0,0,0,0,0,0,0,0,0,0,0,0,0,0,0,0,0,0,0,0,0,0,0,0,0,0,0,0,0,0,0,0,0,0,
0,0,0,0,0,0,0,0,0,0,0,0,0,0,0,0,0,0,0,0,0,0,0,0,0,0,0,0,0,0,0,0,0,0,0,0,0,0,0,0,0,0,0,0,0,0,0,0,
0,0,0,0,0,0,0,0,0,0,0,0,0,0,0,0,0,0,0,0,0,0,0,0,13375,13376,0,0,0,0,0,0,0,0,0,0,0,0,0,0,0,0,0,0,0,0,0,0,
0,0,0,0,0,13148,13149,0,0,0,0,0,0,0,0,0,0,0,0,0,0,0,0,0,13415,13416,0,0,0,0,0,0,0,0,0,0,0,0,0,0,0,0,0,0,0,0,13217,13218,
0,0,0,0,0,13188,13189,0,0,0,0,0,0,0,0,0,0,13148,13149,0,0,0,0,0,0,0,0,0,0,0,0,0,0,0,0,0,0,0,0,0,0,0,0,0,0,0,13257,13258,
0,0,0,0,0,0,0,0,0,0,0,0,0,0,0,0,0,13188,13189,0,0,13375,13376,0,0,0,0,0,0,0,0,0,0,0,0,0,0,0,0,0,0,0,0,0,0,0,0,0,
0,0,0,0,0,0,0,0,13148,13149,0,0,0,0,0,0,0,0,0,0,0,13415,13416,0,0,0,0,0,0,0,0,0,0,0,0,0,0,0,0,0,0,0,0,0,0,13217,13218,0,
0,0,0,0,0,0,0,0,13188,13189,0,0,0,0,0,0,0,0,0,0,13148,13149,0,0,0,0,0,0,0,0,0,0,0,0,0,0,0,0,0,0,0,0,0,0,0,13257,13258,0,
0,0,0,0,0,0,0,0,0,0,0,0,0,0,0,0,0,0,0,0,13188,13189,0,0,0,0,0,0,0,0,0,0,0,0,0,0,0,0,0,0,0,0,0,0,0,0,0,0,
0,0,0,0,0,0,0,0,0,0,0,0,0,0,0,13148,13149,0,0,0,0,0,0,0,0,0,0,0,0,0,0,0,0,0,0,0,0,0,0,0,0,0,0,0,0,0,0,0,
0,0,0,0,0,0,0,0,0,13015,13016,0,0,0,0,13188,13189,0,0,0,0,13148,13149,0,0,0,0,0,0,0,0,0,0,0,13217,13218,0,0,0,0,0,0,0,0,0,0,0,0,
0,13015,13016,0,0,0,0,0,0,13055,13056,0,0,0,0,0,0,0,0,0,0,13188,13189,0,0,0,0,0,0,0,0,0,0,0,13257,13258,0,0,0,0,0,0,0,0,0,0,0,0,
0,13055,13056,0,0,0,0,0,0,0,0,13015,13016,0,0,0,0,0,0,0,0,0,0,0,0,0,0,0,0,0,0,0,0,0,0,0,0,0,13217,13218,0,0,0,13217,13218,0,0,0,
0,0,0,0,0,0,0,0,0,0,0,13055,13056,0,0,0,0,0,0,0,0,0,0,0,0,0,0,0,0,0,0,0,0,0,0,0,0,0,13257,13258,0,0,0,13257,13258,0,0,0,
0,0,0,0,0,0,0,0,0,0,0,0,13375,13376,0,0,0,0,0,0,0,0,0,0,13015,13016,0,0,0,0,0,0,0,0,0,0,0,0,0,0,0,0,0,0,0,0,0,0,
0,0,0,0,0,0,0,0,0,0,0,0,13415,13416,0,13375,13376,0,13375,13376,0,13015,13016,0,13055,13056,0,0,0,0,0,0,0,0,0,0,0,0,0,0,0,0,0,0,0,0,0,0,
0,0,0,0,0,0,0,0,0,0,0,0,0,0,0,13415,13416,0,13415,13416,0,13055,13056,0,0,0,0,0,0,0,0,0,0,0,0,0,0,0,0,0,0,0,0,0,0,0,0,0,
0,0,0,0,0,0,0,0,0,0,0,0,0,0,0,0,0,0,0,0,0,0,0,0,0,0,0,0,0,0,0,0,0,0,0,0,0,0,0,0,0,0,0,0,0,0,0,0
</data>
 </layer>
 <layer id="103" name="objects" width="48" height="64" visible="0">
  <data encoding="csv">
0,0,0,0,0,0,0,0,0,0,0,0,0,0,0,0,0,0,0,0,0,0,0,0,0,0,0,0,0,0,0,0,0,0,0,0,0,0,0,0,0,0,0,0,0,0,0,0,
0,0,3741,3742,3743,3744,3745,3746,0,0,0,0,0,0,0,0,0,0,0,0,0,0,0,0,0,0,0,0,0,0,4808,0,0,0,0,0,0,0,0,0,0,0,0,0,0,0,0,0,
0,0,3816,3817,3818,3819,3820,3821,0,4808,0,1469,1470,1471,0,0,0,0,0,0,0,0,0,0,0,0,0,0,0,0,0,3898,3899,3900,3901,3902,0,0,0,1532,1501,1470,1501,1502,1470,1533,0,0,
0,4808,3891,3892,3893,3894,3895,3896,0,0,4808,1521,1473,1524,1533,0,0,6607,6608,6609,6610,0,0,0,0,0,0,0,4808,0,0,3973,3974,3975,3976,3977,0,0,0,1521,1522,1522,1528,1527,1473,1524,1533,0,
0,0,3966,3967,3968,3969,3970,3971,0,0,0,0,1521,1473,1497,0,0,6682,6683,6684,6685,0,0,0,0,0,0,0,0,0,0,4048,4049,4050,4051,4052,0,0,0,0,0,0,0,0,1495,1496,1504,0,
0,4808,4041,4042,4043,4044,4045,4046,0,4808,0,0,0,1505,1504,0,0,6757,6758,6759,6760,0,0,0,0,0,0,0,0,4808,0,4123,4124,4125,4126,4127,0,0,0,0,0,0,0,0,1531,1473,1497,0,
0,0,4116,4117,4118,4119,4120,4121,0,0,0,0,0,1499,1498,0,0,0,0,0,0,0,0,0,0,0,0,0,0,0,4808,0,0,0,0,0,0,0,0,0,0,0,0,0,0,1499,1524,1471,
0,0,4808,0,0,0,0,0,0,0,0,0,0,1499,1524,1501,1502,1471,0,0,0,0,0,0,6607,6608,6609,6610,0,0,0,0,0,0,0,0,0,0,0,0,0,0,0,0,0,1531,1473,1498,
0,0,0,0,0,0,0,0,0,0,0,0,0,1521,1528,1527,1479,1524,1501,1533,0,0,0,0,6682,6683,6684,6685,0,0,0,0,0,0,0,0,0,0,0,0,0,0,0,0,0,0,1495,1497,
0,0,0,0,0,0,0,0,0,0,0,0,0,0,0,0,1521,1527,1528,1523,9380,9381,9382,9383,6757,6758,6759,6760,0,0,0,0,0,0,0,0,0,0,0,0,0,0,4646,4647,4648,0,1495,1497,
0,0,0,0,0,0,0,0,0,0,0,0,0,0,0,0,0,0,9422,9423,9424,9425,9426,9427,0,0,4979,4980,4981,0,0,0,0,0,0,0,0,0,0,0,0,0,4721,4722,4723,0,1521,1530,
0,0,0,0,0,0,0,0,0,0,0,0,0,0,0,0,0,0,9466,9467,9468,9469,9470,9471,0,0,5054,5055,5056,0,0,0,0,0,0,0,0,0,0,0,0,0,4796,4797,4798,0,0,0,
0,0,0,0,0,0,0,0,0,0,0,0,0,0,0,10435,10436,10437,9510,9511,9512,9513,9514,9515,0,0,0,0,0,0,0,0,0,0,0,0,0,10127,10128,10129,10130,10131,10132,0,0,0,0,0,
0,0,4566,4567,4568,4569,4570,0,0,0,0,0,0,0,0,10479,10480,10481,9554,9555,9556,9557,9558,9559,0,0,0,0,0,0,0,0,0,0,0,0,4979,4980,4981,10173,10174,10175,10176,0,0,0,0,0,
0,0,4641,4642,4643,4644,4645,0,0,9643,9644,9645,9646,0,0,10523,10524,10525,9598,9599,9600,9601,9602,9603,0,0,0,0,0,0,0,0,0,0,0,0,5054,5055,5056,10217,10218,10219,10220,0,0,0,0,0,
0,0,4716,4717,4718,4719,4720,0,0,9687,9688,9689,9690,0,0,10567,10568,10569,0,0,0,0,0,0,6154,6155,6156,6157,0,0,0,0,0,0,0,0,0,10259,10260,10261,10262,10263,10264,0,0,0,0,0,
0,0,4791,4792,4793,4794,4795,0,0,9731,9732,9733,9734,0,0,10611,10612,10613,0,0,0,0,0,0,6229,6230,6231,6232,0,0,0,0,0,0,0,0,0,10303,10304,10305,10306,10307,10308,0,0,0,0,0,
0,0,0,0,0,0,0,0,0,9775,9776,9777,9778,0,0,0,0,0,0,0,0,0,0,0,6304,6305,6306,6307,0,0,0,0,0,0,0,0,0,10347,10348,10349,10350,10351,4734,4735,0,0,0,0,
0,0,0,0,0,0,0,0,0,0,0,0,0,0,0,0,0,0,0,0,0,0,0,0,6379,6380,6381,6382,0,0,0,0,0,0,0,0,4734,4735,10392,10393,10394,10395,4809,4810,0,0,0,0,
0,0,0,0,0,9379,9380,9381,9382,9383,0,0,0,0,0,0,0,0,0,0,0,0,0,0,0,0,0,0,0,0,0,0,0,0,0,0,4809,4810,4734,4735,4734,4735,0,0,0,0,0,0,
0,0,0,0,0,9423,9424,9425,9426,9427,0,0,0,0,0,0,0,0,0,0,0,0,0,0,0,0,0,0,0,0,0,0,0,0,0,0,0,0,4809,4810,4809,4810,0,0,0,0,0,0,
0,0,0,0,0,9467,9468,9469,9470,4734,4735,0,9819,9820,9821,9822,9823,9824,0,0,0,0,0,0,0,0,0,0,0,0,0,0,0,0,0,0,0,0,0,0,0,0,0,0,0,0,0,0,
0,0,0,0,0,9511,9512,9513,9514,4809,4810,0,9863,9864,9865,9866,9867,9868,0,0,0,0,0,0,0,0,0,0,0,0,0,4808,0,0,0,0,0,0,0,0,0,0,0,0,0,0,0,0,
0,0,0,0,0,9555,9556,9557,9558,9559,0,0,9907,9908,9909,9910,9911,9912,0,0,0,0,0,0,0,0,0,0,0,0,0,0,0,0,0,0,0,0,0,0,0,0,0,0,0,0,0,0,
0,0,0,0,0,9599,9600,9601,9602,9603,0,0,9951,9952,9953,9954,9955,9956,0,0,0,0,0,0,0,0,0,0,0,0,0,0,0,0,0,0,0,0,0,0,10435,10436,10437,0,0,0,0,0,
0,0,0,0,0,0,0,0,0,0,0,0,9995,9996,9997,9998,9999,10000,0,0,0,0,0,0,0,0,0,0,0,0,0,0,0,0,0,0,0,0,0,0,10479,10480,10481,0,0,0,0,0,
0,0,0,0,0,0,0,0,0,0,0,0,10039,10040,10041,10042,10043,10044,0,0,0,0,0,0,0,0,0,0,0,0,0,0,0,0,0,0,0,0,0,0,10523,10524,10525,0,0,0,0,0,
0,0,0,0,0,0,0,0,0,0,0,0,10083,10084,10085,10086,10087,10088,0,0,0,0,0,0,0,0,0,0,0,0,0,0,0,0,0,0,0,0,0,0,10567,10568,10569,0,0,0,0,0,
0,0,0,0,0,0,0,0,0,0,0,0,4979,4980,4981,0,0,0,0,0,0,0,0,0,0,0,0,0,0,0,0,0,0,0,0,0,0,0,0,0,10611,10612,10613,0,0,0,0,0,
0,0,0,0,0,0,0,0,0,0,0,0,5054,5055,5056,0,0,0,0,0,0,0,0,0,0,0,0,0,0,0,0,0,0,0,0,0,0,0,0,0,0,0,0,0,0,0,0,0,
0,0,0,0,0,0,0,0,0,0,0,0,0,0,0,0,0,0,0,0,0,0,0,0,0,0,0,0,0,0,0,0,0,0,0,0,0,0,0,0,0,0,0,0,0,0,0,0,
0,0,0,0,0,0,0,0,0,0,0,0,0,0,0,0,0,0,0,0,0,0,0,0,0,0,0,0,0,0,0,0,0,0,0,0,0,0,0,0,0,0,0,0,0,0,0,0,
0,0,0,0,0,0,0,0,0,0,0,0,0,0,0,0,0,0,0,0,0,0,0,0,0,0,0,0,0,0,0,0,0,0,0,0,0,0,0,0,0,0,0,0,0,0,0,0,
0,0,0,0,0,0,0,0,0,0,0,0,0,0,0,0,0,0,0,0,0,0,0,0,0,0,0,0,0,4808,0,0,0,0,0,0,0,0,0,0,0,0,2147493294,2147493293,2147493292,2147493291,2147493290,0,
0,0,0,0,0,0,0,0,0,0,0,0,0,0,0,0,0,0,0,0,0,0,0,0,0,0,0,0,0,0,0,0,0,0,0,0,0,0,0,0,0,0,2147493338,2147493337,2147493336,2147493335,2147493334,0,
0,0,0,0,0,0,0,0,0,0,0,0,0,0,0,0,0,0,0,0,0,0,0,0,0,0,0,0,4734,4735,0,0,0,0,0,0,0,0,0,0,0,0,2147493382,2147493381,2147493380,2147493379,2147493378,0,
0,0,0,6225,6226,6227,0,0,0,0,0,9819,9820,9821,9822,9823,9824,0,0,0,0,0,0,0,0,0,0,0,4809,4810,0,6607,6608,6609,6610,0,0,0,0,0,0,0,2147493426,2147493425,2147493424,2147493423,2147493422,0,
0,0,0,6300,6301,6302,4734,4735,0,0,0,9863,9864,9865,9866,9867,9868,0,0,0,0,0,0,0,0,0,0,0,0,0,0,6682,6683,6684,6685,0,0,0,0,0,0,5187,5188,5189,0,0,0,0,
0,0,0,6375,6376,6377,4809,4810,0,0,0,9907,9908,9909,9910,9911,9912,0,0,0,0,0,0,0,0,0,0,0,0,0,0,6757,6758,6759,6760,0,0,4734,4735,0,0,5262,5263,5264,5242,5243,5244,0,
0,0,0,0,0,4734,4735,5693,5694,5695,5696,9951,9952,9953,9954,9955,9956,0,0,0,0,0,5180,5181,5182,5183,0,0,7311,7312,7313,7314,7315,7316,7317,0,0,4809,4810,0,0,5337,5338,5339,5317,5318,5319,0,
0,0,0,0,0,4809,4810,5768,5769,5770,5771,9995,9996,9997,9998,9999,10000,0,0,0,0,0,5255,5256,5257,5258,0,0,7355,7356,7357,7358,7359,7360,7361,0,0,0,0,0,0,0,0,0,5392,5393,5394,0,
0,0,0,0,0,0,5842,5843,5844,5845,5846,10039,10040,10041,10042,10043,10044,0,0,0,0,0,5330,5331,5332,5333,0,0,7399,7400,7401,7402,7403,7404,7405,0,0,0,0,0,0,0,0,0,0,0,0,0,
0,0,0,0,0,0,5917,5918,5919,5920,5921,10083,10084,10085,10086,10087,10088,0,0,0,0,0,5405,5406,5407,5408,0,0,7443,7444,7445,7446,7447,7448,7449,0,0,0,0,0,0,0,0,0,0,0,0,0,
0,0,0,0,0,0,0,4736,4737,0,0,0,0,0,0,0,0,0,0,0,0,0,0,0,0,0,0,0,7487,7488,7489,7490,7491,7492,7493,0,0,0,0,0,0,0,0,0,0,0,0,0,
0,0,0,0,0,0,0,4811,4812,0,0,0,0,0,0,0,0,0,0,0,0,0,0,0,0,0,0,0,7531,7532,7533,7534,7535,7536,7537,0,0,0,0,0,0,0,0,0,0,0,0,0,
0,0,0,0,0,0,0,0,0,0,0,0,0,0,0,0,0,0,0,0,0,0,0,0,0,0,0,0,7575,7576,7577,7578,7579,7580,4661,4662,5184,5185,5186,0,0,0,0,0,0,0,0,0,
0,0,0,0,0,0,0,0,0,0,0,0,0,0,0,0,0,0,0,0,0,10435,10436,10437,0,0,0,0,7619,7620,7621,7622,7623,7624,4736,4737,5259,5260,5261,6096,6097,6098,6099,0,0,0,0,0,
0,0,0,0,0,0,0,0,0,0,0,0,0,0,0,0,0,0,0,0,0,10479,10480,10481,0,0,0,0,0,0,0,0,0,0,4811,4812,5334,5335,5336,6171,6172,6173,6174,0,0,0,0,0,
0,0,0,0,0,0,0,0,0,0,0,0,0,0,0,5167,5168,5169,0,0,0,10523,10524,10525,0,0,0,0,0,0,0,0,5503,5504,5505,0,5409,5410,5411,6246,6247,6248,6249,0,0,0,0,0,
0,0,0,0,0,0,0,0,0,0,0,0,0,0,0,5242,5243,5244,0,0,0,10567,10568,10569,0,0,0,0,0,0,0,0,5578,5579,5580,0,4734,4735,0,6321,6322,6323,6324,0,0,0,0,0,
0,0,0,0,0,0,0,0,0,4808,0,0,0,0,0,5317,5318,5319,0,0,0,10611,10612,10613,10435,10436,10437,0,0,0,0,0,5653,5654,5655,0,4809,4810,0,6396,6397,6398,6399,0,0,0,0,0,
0,0,4192,4193,4194,4195,0,0,0,0,0,0,0,0,0,5392,5393,5394,9029,9030,9031,9032,9033,0,10479,10480,10481,0,0,0,0,0,0,0,0,0,0,0,0,0,0,0,0,0,0,0,0,0,
0,0,4267,4268,4269,4270,0,0,0,0,0,0,0,0,0,0,9071,9072,9073,9074,9075,9076,9077,0,10523,10524,10525,0,0,0,0,0,0,0,0,0,0,0,0,0,0,0,0,0,0,0,0,0,
0,0,4342,4343,4344,4345,0,0,0,0,0,0,0,0,0,0,9115,9116,9117,9118,9119,9120,9121,0,10567,10568,10569,0,0,0,0,0,0,0,0,0,0,0,0,0,0,0,0,0,0,0,0,0,
0,0,4417,4418,4419,4420,0,0,0,0,0,0,0,0,0,0,9159,9160,9161,9162,9163,9164,9165,0,10611,10612,10613,0,0,0,0,0,0,0,0,0,0,0,0,0,0,0,0,0,0,0,0,0,
0,0,4492,4493,4494,4495,0,0,0,0,0,0,0,0,0,0,9203,9204,9205,9206,9207,9208,9209,4979,4980,4981,0,0,0,0,0,0,0,0,0,0,0,0,0,0,0,0,0,0,0,0,0,0,
0,0,0,0,6442,6443,6444,6445,6446,6447,6448,0,0,0,0,0,9247,9248,9249,9250,9251,9252,9253,5054,5055,5056,0,0,0,0,0,0,0,0,0,0,0,0,0,0,0,0,0,0,0,0,0,0,
0,0,0,0,6517,6518,6519,6520,6521,6522,6523,0,0,0,0,0,9291,9292,9293,9294,9295,9296,9297,0,0,0,0,0,0,0,0,4192,4193,4194,4195,0,0,0,0,0,0,0,0,0,0,0,0,0,
0,0,0,0,6592,6593,6594,6595,6596,6597,6598,0,0,0,0,0,9335,9336,9337,9338,9339,9340,9341,0,0,0,0,0,0,0,0,4267,4268,4269,4270,0,0,0,0,0,0,0,0,0,0,0,0,0,
0,0,0,0,6667,6668,6669,6670,6671,6672,6673,0,0,0,0,0,0,0,0,0,0,0,0,0,0,0,0,0,0,0,0,4342,4343,4344,4345,0,0,0,0,0,0,0,0,0,0,0,0,0,
0,0,0,0,6742,6743,6744,6745,6746,6747,6748,0,0,0,0,0,0,0,0,0,0,0,0,0,0,0,0,0,0,0,0,4417,4418,4419,4420,0,0,0,0,0,0,0,0,0,0,0,0,0,
0,0,0,0,0,0,0,0,0,0,0,0,0,0,0,0,0,0,0,0,0,0,0,0,0,0,0,0,0,0,0,4492,4493,4494,4495,0,0,0,0,0,0,0,0,0,0,0,0,0,
0,0,0,0,0,0,0,0,0,0,0,0,0,0,0,0,0,0,0,0,0,0,0,0,0,0,0,0,0,0,0,0,0,0,0,0,0,0,0,0,0,0,0,0,0,0,0,0,
0,0,0,0,0,0,0,0,0,0,0,0,0,0,0,0,0,0,0,0,0,0,0,0,0,0,0,0,0,0,0,0,0,0,0,0,0,0,0,0,0,0,0,0,0,0,0,0
</data>
 </layer>
 <objectgroup id="106" name="collision">
  <object id="2" x="33" y="121" width="269" height="96"/>
 </objectgroup>
</map>
